;Generated: 2021-07-24T15:08:54.648061
;[Project]
;Name = Windburner_tip1
;Units = millimeters
;
;[RootChord]
;Profile = http://airfoiltools.com/airfoil/seligdatfile?airfoil=pw51-pw
;Width = 122
;LeadingEdgeOffset = 0
;Rotation = 0
;RotationPosition = 0.5
;
;[TipChord]
;Profile = http://airfoiltools.com/airfoil/seligdatfile?airfoil=pw51-pw
;Width = 122
;LeadingEdgeOffset = 0
;Rotation = 0
;RotationPosition = 0.5
;
;[Wing]
;TipChordSide = right
;Width = 45
;Inverted = no
;VerticalAlignProfiles = default
;Dihedral = 1
;StockLeadingEdge = 0
;StockTrailingEdge = 0.1
;
;[Placement]
;RootChordOffset = 300
;HorizontalOffset = 50
;VerticalOffsetRoot = 25
;RotateWing = no
;
;[Panel]
;Bottom = 0
;Height = 50
;Inset = 0
;Depth = 450
;SafeHeight = 60
;
;[Machine]
;Width = 1490
;Height = 400
;Depth = 490
;Feedrate = 160
;Kerf = 1.25,1.25
;
;[Gcode]
;GcodeWireOn = M3 S110
;GcodeWireOff = M5
;AxisMapping = X,Y,Z,A
;ConfigAsComment = yes
;InterpolationPoints = 200
;
;
G17
G21
G90
G64 P0.50
G54
M3 S110
G1 F160.0
G0 Y60.0000000000 A60.0000000000
G0 X50.0000000000 Z50.0000000000
G0 Y55.0000000000 A55.0000000000
G1 X50.0000000000 Y25.0000859455 Z50.0000000000 A25.0000859455
G4 P1.0000
G1 X51.0000000000 Y25.0000859455 Z51.0000000000 A25.0000859455
G4 P1.0000
G4 P1.0000
G1 X51.0000000000 Y26.3070827805 Z51.0000000000 A26.3070827805
G4 P1.0000
G1 X51.6302284534 Y26.3247027329 Z51.6302284534 A26.3247027329
G1 X52.2601754341 Y26.3513456003 Z52.2601754341 A26.3513456003
G1 X52.8898486801 Y26.3832410914 Z52.8898486801 A26.3832410914
G1 X53.5191526410 Y26.4222226980 Z53.5191526410 A26.4222226980
G1 X54.1484566019 Y26.4612043046 Z54.1484566019 A26.4612043046
G1 X54.7775899364 Y26.5026476160 Z54.7775899364 A26.5026476160
G1 X55.4062541794 Y26.5508587178 Z55.4062541794 A26.5508587178
G1 X56.0349184225 Y26.5990698196 Z56.0349184225 A26.5990698196
G1 X56.6635826656 Y26.6472809214 Z56.6635826656 A26.6472809214
G1 X57.2922469087 Y26.6954920232 Z57.2922469087 A26.6954920232
G1 X57.9204105399 Y26.7498250018 Z57.9204105399 A26.7498250018
G1 X58.5485553187 Y26.8043885214 Z58.5485553187 A26.8043885214
G1 X59.1767000976 Y26.8589520411 Z59.1767000976 A26.8589520411
G1 X59.8048448764 Y26.9135155607 Z59.8048448764 A26.9135155607
G1 X60.4329896553 Y26.9680790804 Z60.4329896553 A26.9680790804
G1 X61.0608888696 Y27.0253586470 Z61.0608888696 A27.0253586470
G1 X61.6886339261 Y27.0843432625 Z61.6886339261 A27.0843432625
G1 X62.3163789826 Y27.1433278780 Z62.3163789826 A27.1433278780
G1 X62.9441240392 Y27.2023124936 Z62.9441240392 A27.2023124936
G1 X63.5718690957 Y27.2612971091 Z63.5718690957 A27.2612971091
G1 X64.1996141523 Y27.3202817246 Z64.1996141523 A27.3202817246
G1 X64.8272589544 Y27.3803043116 Z64.8272589544 A27.3803043116
G1 X65.4546887351 Y27.4425530963 Z65.4546887351 A27.4425530963
G1 X66.0821185157 Y27.5048018811 Z66.0821185157 A27.5048018811
G1 X66.7095482964 Y27.5670506658 Z66.7095482964 A27.5670506658
G1 X67.3369780771 Y27.6292994506 Z67.3369780771 A27.6292994506
G1 X67.9644078577 Y27.6915482354 Z67.9644078577 A27.6915482354
G1 X68.5918376384 Y27.7537970201 Z68.5918376384 A27.7537970201
G1 X69.2192335966 Y27.8163814202 Z69.2192335966 A27.8163814202
G1 X69.8464674416 Y27.8805744463 Z69.8464674416 A27.8805744463
G1 X70.4737012866 Y27.9447674723 Z70.4737012866 A27.9447674723
G1 X71.1009351315 Y28.0089604984 Z71.1009351315 A28.0089604984
G1 X71.7281689765 Y28.0731535245 Z71.7281689765 A28.0731535245
G1 X72.3554028215 Y28.1373465506 Z72.3554028215 A28.1373465506
G1 X72.9826366665 Y28.2015395767 Z72.9826366665 A28.2015395767
G1 X73.6098705114 Y28.2657326028 Z73.6098705114 A28.2657326028
G1 X74.2370834744 Y28.3301285486 Z74.2370834744 A28.3301285486
G1 X74.8642452207 Y28.3950221920 Z74.8642452207 A28.3950221920
G1 X75.4914069669 Y28.4599158355 Z75.4914069669 A28.4599158355
G1 X76.1185687131 Y28.5248094789 Z76.1185687131 A28.5248094789
G1 X76.7457304593 Y28.5897031224 Z76.7457304593 A28.5897031224
G1 X77.3728922055 Y28.6545967658 Z77.3728922055 A28.6545967658
G1 X78.0000539517 Y28.7194904093 Z78.0000539517 A28.7194904093
G1 X78.6272156980 Y28.7843840527 Z78.6272156980 A28.7843840527
G1 X79.2543774442 Y28.8492776962 Z79.2543774442 A28.8492776962
G1 X79.8815340888 Y28.9142206192 Z79.8815340888 A28.9142206192
G1 X80.5086892476 Y28.9791778952 Z80.5086892476 A28.9791778952
G1 X81.1358444063 Y29.0441351713 Z81.1358444063 A29.0441351713
G1 X81.7629995651 Y29.1090924474 Z81.7629995651 A29.1090924474
G1 X82.3901547239 Y29.1740497234 Z82.3901547239 A29.1740497234
G1 X83.0173098826 Y29.2390069995 Z83.0173098826 A29.2390069995
G1 X83.6444650414 Y29.3039642755 Z83.6444650414 A29.3039642755
G1 X84.2716202002 Y29.3689215516 Z84.2716202002 A29.3689215516
G1 X84.8987753589 Y29.4338788277 Z84.8987753589 A29.4338788277
G1 X85.5259651327 Y29.4985007170 Z85.5259651327 A29.4985007170
G1 X86.1531670757 Y29.5630046980 Z86.1531670757 A29.5630046980
G1 X86.7803690187 Y29.6275086790 Z86.7803690187 A29.6275086790
G1 X87.4075709617 Y29.6920126600 Z87.4075709617 A29.6920126600
G1 X88.0347729047 Y29.7565166410 Z88.0347729047 A29.7565166410
G1 X88.6619748477 Y29.8210206220 Z88.6619748477 A29.8210206220
G1 X89.2891767907 Y29.8855246030 Z89.2891767907 A29.8855246030
G1 X89.9163787337 Y29.9500285840 Z89.9163787337 A29.9500285840
G1 X90.5435806768 Y30.0145325650 Z90.5435806768 A30.0145325650
G1 X91.1708298324 Y30.0785718162 Z91.1708298324 A30.0785718162
G1 X91.7981897515 Y30.1415207858 Z91.7981897515 A30.1415207858
G1 X92.4255496706 Y30.2044697553 Z92.4255496706 A30.2044697553
G1 X93.0529095897 Y30.2674187249 Z93.0529095897 A30.2674187249
G1 X93.6802695088 Y30.3303676945 Z93.6802695088 A30.3303676945
G1 X94.3076294280 Y30.3933166640 Z94.3076294280 A30.3933166640
G1 X94.9349893471 Y30.4562656336 Z94.9349893471 A30.4562656336
G1 X95.5623492662 Y30.5192146032 Z95.5623492662 A30.5192146032
G1 X96.1897091853 Y30.5821635727 Z96.1897091853 A30.5821635727
G1 X96.8170691044 Y30.6451125423 Z96.8170691044 A30.6451125423
G1 X97.4445776366 Y30.7065477716 Z97.4445776366 A30.7065477716
G1 X98.0722015055 Y30.7668082069 Z98.0722015055 A30.7668082069
G1 X98.6998253744 Y30.8270686423 Z98.6998253744 A30.8270686423
G1 X99.3274492433 Y30.8873290777 Z99.3274492433 A30.8873290777
G1 X99.9550731122 Y30.9475895131 Z99.9550731122 A30.9475895131
G1 X100.5826969811 Y31.0078499484 Z100.5826969811 A31.0078499484
G1 X101.2103208500 Y31.0681103838 Z101.2103208500 A31.0681103838
G1 X101.8379447189 Y31.1283708192 Z101.8379447189 A31.1283708192
G1 X102.4655685878 Y31.1886312545 Z102.4655685878 A31.1886312545
G1 X103.0931924567 Y31.2488916899 Z103.0931924567 A31.2488916899
G1 X103.7210543738 Y31.3065885311 Z103.7210543738 A31.3065885311
G1 X104.3490430042 Y31.3629207675 Z104.3490430042 A31.3629207675
G1 X104.9770316347 Y31.4192530040 Z104.9770316347 A31.4192530040
G1 X105.6050202652 Y31.4755852404 Z105.6050202652 A31.4755852404
G1 X106.2330088957 Y31.5319174769 Z106.2330088957 A31.5319174769
G1 X106.8609975262 Y31.5882497133 Z106.8609975262 A31.5882497133
G1 X107.4889861567 Y31.6445819498 Z107.4889861567 A31.6445819498
G1 X108.1169747871 Y31.7009141862 Z108.1169747871 A31.7009141862
G1 X108.7449634176 Y31.7572464226 Z108.7449634176 A31.7572464226
G1 X109.3729520481 Y31.8135786591 Z109.3729520481 A31.8135786591
G1 X110.0012586355 Y31.8661823250 Z110.0012586355 A31.8661823250
G1 X110.6297179756 Y31.9169947114 Z110.6297179756 A31.9169947114
G1 X111.2581773158 Y31.9678070978 Z111.2581773158 A31.9678070978
G1 X111.8866366560 Y32.0186194842 Z111.8866366560 A32.0186194842
G1 X112.5150959962 Y32.0694318705 Z112.5150959962 A32.0694318705
G1 X113.1435553364 Y32.1202442569 Z113.1435553364 A32.1202442569
G1 X113.7720146766 Y32.1710566433 Z113.7720146766 A32.1710566433
G1 X114.4004740168 Y32.2218690297 Z114.4004740168 A32.2218690297
G1 X115.0289333569 Y32.2726814161 Z115.0289333569 A32.2726814161
G1 X115.6573926971 Y32.3234938025 Z115.6573926971 A32.3234938025
G1 X116.2862467496 Y32.3690554341 Z116.2862467496 A32.3690554341
G1 X116.9152397357 Y32.4127688681 Z116.9152397357 A32.4127688681
G1 X117.5442327218 Y32.4564823022 Z117.5442327218 A32.4564823022
G1 X118.1732257079 Y32.5001957362 Z118.1732257079 A32.5001957362
G1 X118.8022186940 Y32.5439091703 Z118.8022186940 A32.5439091703
G1 X119.4312116801 Y32.5876226043 Z119.4312116801 A32.5876226043
G1 X120.0602046662 Y32.6313360384 Z120.0602046662 A32.6313360384
G1 X120.6891976523 Y32.6750494724 Z120.6891976523 A32.6750494724
G1 X121.3181906384 Y32.7187629065 Z121.3181906384 A32.7187629065
G1 X121.9471836245 Y32.7624763405 Z121.9471836245 A32.7624763405
G1 X122.5767144551 Y32.7975435205 Z122.5767144551 A32.7975435205
G1 X123.2062758668 Y32.8321190867 Z123.2062758668 A32.8321190867
G1 X123.8358372785 Y32.8666946529 Z123.8358372785 A32.8666946529
G1 X124.4653986902 Y32.9012702191 Z124.4653986902 A32.9012702191
G1 X125.0949601019 Y32.9358457853 Z125.0949601019 A32.9358457853
G1 X125.7245215136 Y32.9704213515 Z125.7245215136 A32.9704213515
G1 X126.3540829253 Y33.0049969178 Z126.3540829253 A33.0049969178
G1 X126.9836443370 Y33.0395724840 Z126.9836443370 A33.0395724840
G1 X127.6132057487 Y33.0741480502 Z127.6132057487 A33.0741480502
G1 X128.2429658773 Y33.1044099648 Z128.2429658773 A33.1044099648
G1 X128.8730397168 Y33.1278619924 Z128.8730397168 A33.1278619924
G1 X129.5031135564 Y33.1513140199 Z129.5031135564 A33.1513140199
G1 X130.1331873959 Y33.1747660474 Z130.1331873959 A33.1747660474
G1 X130.7632612355 Y33.1982180749 Z130.7632612355 A33.1982180749
G1 X131.3933350750 Y33.2216701024 Z131.3933350750 A33.2216701024
G1 X132.0234089146 Y33.2451221300 Z132.0234089146 A33.2451221300
G1 X132.6534827541 Y33.2685741575 Z132.6534827541 A33.2685741575
G1 X133.2835565937 Y33.2920261850 Z133.2835565937 A33.2920261850
G1 X133.9136802338 Y33.3136309138 Z133.9136802338 A33.3136309138
G1 X134.5441024553 Y33.3241600879 Z134.5441024553 A33.3241600879
G1 X135.1745246768 Y33.3346892620 Z135.1745246768 A33.3346892620
G1 X135.8049468983 Y33.3452184361 Z135.8049468983 A33.3452184361
G1 X136.4353691198 Y33.3557476102 Z136.4353691198 A33.3557476102
G1 X137.0657913413 Y33.3662767843 Z137.0657913413 A33.3662767843
G1 X137.6962135628 Y33.3768059584 Z137.6962135628 A33.3768059584
G1 X138.3266357843 Y33.3873351325 Z138.3266357843 A33.3873351325
G1 X138.9570580059 Y33.3978643066 Z138.9570580059 A33.3978643066
G1 X139.5875003360 Y33.4038161275 Z139.5875003360 A33.4038161275
G1 X140.2179907338 Y33.3988262227 Z140.2179907338 A33.3988262227
G1 X140.8484811316 Y33.3938363180 Z140.8484811316 A33.3938363180
G1 X141.4789715294 Y33.3888464132 Z141.4789715294 A33.3888464132
G1 X142.1094619272 Y33.3838565084 Z142.1094619272 A33.3838565084
G1 X142.7399523250 Y33.3788666037 Z142.7399523250 A33.3788666037
G1 X143.3704427228 Y33.3738766989 Z143.3704427228 A33.3738766989
G1 X144.0009331206 Y33.3688867941 Z144.0009331206 A33.3688867941
G1 X144.6314235184 Y33.3638968894 Z144.6314235184 A33.3638968894
G1 X145.2615317020 Y33.3419414217 Z145.2615317020 A33.3419414217
G1 X145.8916071356 Y33.3185322590 Z145.8916071356 A33.3185322590
G1 X146.5216825691 Y33.2951230962 Z146.5216825691 A33.2951230962
G1 X147.1517580027 Y33.2717139335 Z147.1517580027 A33.2717139335
G1 X147.7818334363 Y33.2483047708 Z147.7818334363 A33.2483047708
G1 X148.4119088698 Y33.2248956080 Z148.4119088698 A33.2248956080
G1 X149.0419843034 Y33.2014864453 Z149.0419843034 A33.2014864453
G1 X149.6719492586 Y33.1760775905 Z149.6719492586 A33.1760775905
G1 X150.3007687616 Y33.1299357059 Z150.3007687616 A33.1299357059
G1 X150.9295882646 Y33.0837938213 Z150.9295882646 A33.0837938213
G1 X151.5584077676 Y33.0376519367 Z151.5584077676 A33.0376519367
G1 X152.1872272706 Y32.9915100521 Z152.1872272706 A32.9915100521
G1 X152.8160467736 Y32.9453681675 Z152.8160467736 A32.9453681675
G1 X153.4448662766 Y32.8992262829 Z153.4448662766 A32.8992262829
G1 X154.0736857796 Y32.8530843983 Z154.0736857796 A32.8530843983
G1 X154.7003976377 Y32.7846567440 Z154.7003976377 A32.7846567440
G1 X155.3267185683 Y32.7120955094 Z155.3267185683 A32.7120955094
G1 X155.9530394989 Y32.6395342749 Z155.9530394989 A32.6395342749
G1 X156.5793604295 Y32.5669730403 Z156.5793604295 A32.5669730403
G1 X157.2056813601 Y32.4944118057 Z157.2056813601 A32.4944118057
G1 X157.8320022907 Y32.4218505712 Z157.8320022907 A32.4218505712
G1 X158.4573051027 Y32.3421067893 Z158.4573051027 A32.3421067893
G1 X159.0791185184 Y32.2377462752 Z159.0791185184 A32.2377462752
G1 X159.7009319341 Y32.1333857612 Z159.7009319341 A32.1333857612
G1 X160.3227453499 Y32.0290252471 Z160.3227453499 A32.0290252471
G1 X160.9445587656 Y31.9246647330 Z160.9445587656 A31.9246647330
G1 X161.5663721813 Y31.8203042189 Z161.5663721813 A31.8203042189
G1 X162.1861892314 Y31.7059134997 Z162.1861892314 A31.7059134997
G1 X162.8005734465 Y31.5642269545 Z162.8005734465 A31.5642269545
G1 X163.4149576616 Y31.4225404092 Z163.4149576616 A31.4225404092
G1 X164.0293418767 Y31.2808538640 Z164.0293418767 A31.2808538640
G1 X164.6437260919 Y31.1391673188 Z164.6437260919 A31.1391673188
G1 X165.2581103070 Y30.9974807736 Z165.2581103070 A30.9974807736
G1 X165.8600686962 Y30.8099518143 Z165.8600686962 A30.8099518143
G1 X166.4619057536 Y30.6219752275 Z166.4619057536 A30.6219752275
G1 X167.0637428110 Y30.4339986407 Z167.0637428110 A30.4339986407
G1 X167.6655798684 Y30.2460220538 Z167.6655798684 A30.2460220538
G1 X168.2590987542 Y30.0353456551 Z168.2590987542 A30.0353456551
G1 X168.8398967615 Y29.7899547107 Z168.8398967615 A29.7899547107
G1 X169.4206947688 Y29.5445637663 Z169.4206947688 A29.5445637663
G1 X170.0014927761 Y29.2991728220 Z170.0014927761 A29.2991728220
G1 X170.5652690113 Y29.0197249063 Z170.5652690113 A29.0197249063
G1 X171.1101606614 Y28.7024929242 Z171.1101606614 A28.7024929242
G1 X171.6550523116 Y28.3852609420 Z171.6550523116 A28.3852609420
G1 X172.1869924162 Y28.0500521007 Z172.1869924162 A28.0500521007
G1 X172.6604209380 Y27.6336286676 Z172.6604209380 A27.6336286676
G1 X173.1338494598 Y27.2172052346 Z173.1338494598 A27.2172052346
G1 X173.5487433852 Y26.7523128455 Z173.5487433852 A26.7523128455
G1 X173.8695737603 Y26.2095321243 Z173.8695737603 A26.2095321243
G1 X174.1711937778 Y25.6593091821 Z174.1711937778 A25.6593091821
G1 X174.2747471950 Y25.0390434405 Z174.2747471950 A25.0390434405
G4 P1.0000
G1 X174.2747471950 Y24.9861159672 Z174.2747471950 A24.9861159672
G4 P1.0000
G1 X175.2747471950 Y24.9861159672 Z175.2747471950 A24.9861159672
G4 P1.0000
G1 X174.2747471950 Y24.9861159672 Z174.2747471950 A24.9861159672
G1 X174.2702236080 Y24.8868303174 Z174.2702236080 A24.8868303174
G4 P1.0000
G1 X174.1267319828 Y24.2824728623 Z174.1267319828 A24.2824728623
G1 X173.8106664532 Y23.7477618663 Z173.8106664532 A23.7477618663
G1 X173.3627736195 Y23.3152801393 Z173.3627736195 A23.3152801393
G1 X172.8459249396 Y22.9667271644 Z172.8459249396 A22.9667271644
G1 X172.2928318536 Y22.6783789929 Z172.2928318536 A22.6783789929
G1 X171.7166766155 Y22.4390834946 Z171.7166766155 A22.4390834946
G1 X171.1276380579 Y22.2333506802 Z171.1276380579 A22.2333506802
G1 X170.5301343931 Y22.0536341317 Z170.5301343931 A22.0536341317
G1 X169.9269190244 Y21.8939973035 Z169.9269190244 A21.8939973035
G1 X169.3195410768 Y21.7509589017 Z169.3195410768 A21.7509589017
G1 X168.7089367404 Y21.6223905836 Z168.7089367404 A21.6223905836
G1 X168.0960951160 Y21.5049221341 Z168.0960951160 A21.5049221341
G1 X167.4814168257 Y21.3974737169 Z167.4814168257 A21.3974737169
G1 X166.8651298074 Y21.2996628601 Z166.8651298074 A21.2996628601
G1 X166.2477232631 Y21.2091492843 Z166.2477232631 A21.2091492843
G1 X165.6294125197 Y21.1250576118 Z165.6294125197 A21.1250576118
G1 X165.0101678235 Y21.0481209602 Z165.0101678235 A21.0481209602
G1 X164.3903362389 Y20.9760521669 Z164.3903362389 A20.9760521669
G1 X163.7699771899 Y20.9086966616 Z163.7699771899 A20.9086966616
G1 X163.1491642002 Y20.8456329578 Z163.1491642002 A20.8456329578
G1 X162.5279133176 Y20.7870481107 Z162.5279133176 A20.7870481107
G1 X161.9062542686 Y20.7329491378 Z161.9062542686 A20.7329491378
G1 X161.2844143100 Y20.6809875156 Z161.2844143100 A20.6809875156
G1 X160.6621880560 Y20.6338555841 Z160.6621880560 A20.6338555841
G1 X160.0397869402 Y20.5890927409 Z160.0397869402 A20.5890927409
G1 X159.4172098507 Y20.5468622352 Z159.4172098507 A20.5468622352
G1 X158.7944195250 Y20.5079024434 Z158.7944195250 A20.5079024434
G1 X158.1714757858 Y20.4714506922 Z158.1714757858 A20.4714506922
G1 X157.5484463839 Y20.4365375941 Z157.5484463839 A20.4365375941
G1 X156.9252429182 Y20.4048338621 Z156.9252429182 A20.4048338621
G1 X156.3019982014 Y20.3739666016 Z156.3019982014 A20.3739666016
G1 X155.6786347664 Y20.3455834900 Z155.6786347664 A20.3455834900
G1 X155.0552058318 Y20.3186744332 Z155.0552058318 A20.3186744332
G1 X154.4316734504 Y20.2942831761 Z154.4316734504 A20.2942831761
G1 X153.8080902678 Y20.2712290237 Z153.8080902678 A20.2712290237
G1 X153.1844622144 Y20.2494255178 Z153.1844622144 A20.2494255178
G1 X152.5607935918 Y20.2288167147 Z152.5607935918 A20.2288167147
G1 X151.9370759831 Y20.2097704521 Z151.9370759831 A20.2097704521
G1 X151.3133096799 Y20.1923627852 Z151.3133096799 A20.1923627852
G1 X150.6895154770 Y20.1759790848 Z150.6895154770 A20.1759790848
G1 X150.0656916004 Y20.1607638027 Z150.0656916004 A20.1607638027
G1 X149.4418439815 Y20.1465610575 Z149.4418439815 A20.1465610575
G1 X148.8179638833 Y20.1339006457 Z148.8179638833 A20.1339006457
G1 X148.1940595410 Y20.1224634940 Z148.1940595410 A20.1224634940
G1 X147.5701404173 Y20.1118565425 Z147.5701404173 A20.1118565425
G1 X146.9462062315 Y20.1021681165 Z146.9462062315 A20.1021681165
G1 X146.3222579869 Y20.0934382975 Z146.3222579869 A20.0934382975
G1 X145.6982998571 Y20.0854548179 Z145.6982998571 A20.0854548179
G1 X145.0743328355 Y20.0781979126 Z145.0743328355 A20.0781979126
G1 X144.4503576778 Y20.0716656810 Z144.4503576778 A20.0716656810
G1 X143.8263655562 Y20.0670217534 Z143.8263655562 A20.0670217534
G1 X143.2023732139 Y20.0624076214 Z143.2023732139 A20.0624076214
G1 X142.5783784095 Y20.0581646529 Z142.5783784095 A20.0581646529
G1 X141.9543793991 Y20.0545771956 Z141.9543793991 A20.0545771956
G1 X141.3303726137 Y20.0527700969 Z141.3303726137 A20.0527700969
G1 X140.7063657992 Y20.0509730903 Z140.7063657992 A20.0509730903
G1 X140.0823581661 Y20.0497410683 Z140.0823581661 A20.0497410683
G1 X139.4583487640 Y20.0497403586 Z139.4583487640 A20.0497403586
G1 X138.8343399430 Y20.0505632575 Z138.8343399430 A20.0505632575
G1 X138.2103311582 Y20.0514409356 Z138.2103311582 A20.0514409356
G1 X137.5863230923 Y20.0525748788 Z137.5863230923 A20.0525748788
G1 X136.9623191344 Y20.0551814827 Z136.9623191344 A20.0551814827
G1 X136.3383182014 Y20.0584116593 Z136.3383182014 A20.0584116593
G1 X135.7143182801 Y20.0618514188 Z135.7143182801 A20.0618514188
G1 X135.0903182724 Y20.0652754819 Z135.0903182724 A20.0652754819
G1 X134.4663228701 Y20.0694478026 Z134.4663228701 A20.0694478026
G1 X133.8423342335 Y20.0744707330 Z133.8423342335 A20.0744707330
G1 X133.2183528878 Y20.0803880043 Z133.2183528878 A20.0803880043
G1 X132.5943712540 Y20.0862748022 Z132.5943712540 A20.0862748022
G1 X131.9703941900 Y20.0926150198 Z131.9703941900 A20.0926150198
G1 X131.3464206155 Y20.0993017151 Z131.3464206155 A20.0993017151
G1 X130.7224466229 Y20.1059492982 Z130.7224466229 A20.1059492982
G1 X130.0984849451 Y20.1136267559 Z130.0984849451 A20.1136267559
G1 X129.4745321119 Y20.1220240022 Z129.4745321119 A20.1220240022
G1 X128.8505885772 Y20.1310903842 Z128.8505885772 A20.1310903842
G1 X128.2266444707 Y20.1401172924 Z128.2266444707 A20.1401172924
G1 X127.6027046642 Y20.1494161222 Z127.6027046642 A20.1494161222
G1 X126.9787855668 Y20.1600318523 Z126.9787855668 A20.1600318523
G1 X126.3548659967 Y20.1706197466 Z126.3548659967 A20.1706197466
G1 X125.7309486884 Y20.1813359771 Z125.7309486884 A20.1813359771
G1 X125.1070424028 Y20.1926797253 Z125.1070424028 A20.1926797253
G1 X124.4831458013 Y20.2045387689 Z124.4831458013 A20.2045387689
G1 X123.8592563522 Y20.2167702049 Z123.8592563522 A20.2167702049
G1 X123.2353798879 Y20.2296500774 Z123.2353798879 A20.2296500774
G1 X122.6115027682 Y20.2424981456 Z122.6115027682 A20.2424981456
G1 X121.9876273179 Y20.2554244890 Z121.9876273179 A20.2554244890
G1 X121.3637664506 Y20.2690388953 Z121.3637664506 A20.2690388953
G1 X120.7399155450 Y20.2830976181 Z120.7399155450 A20.2830976181
G1 X120.1160713549 Y20.2974559009 Z120.1160713549 A20.2974559009
G1 X119.4922267880 Y20.3117978025 Z119.4922267880 A20.3117978025
G1 X118.8684024930 Y20.3269756827 Z118.8684024930 A20.3269756827
G1 X118.2445960189 Y20.3428884672 Z118.2445960189 A20.3428884672
G1 X117.6207885378 Y20.3587617285 Z117.6207885378 A20.3587617285
G1 X116.9969902652 Y20.3749882794 Z116.9969902652 A20.3749882794
G1 X116.3732028925 Y20.3916330223 Z116.3732028925 A20.3916330223
G1 X115.7494150230 Y20.4082591355 Z115.7494150230 A20.4082591355
G1 X115.1256436109 Y20.4254746511 Z115.1256436109 A20.4254746511
G1 X114.5018998259 Y20.4436797196 Z114.5018998259 A20.4436797196
G1 X113.8781554984 Y20.4618661886 Z113.8781554984 A20.4618661886
G1 X113.2544110652 Y20.4800490329 Z113.2544110652 A20.4800490329
G1 X112.6306666450 Y20.4982323249 Z112.6306666450 A20.4982323249
G1 X112.0069572259 Y20.5175670360 Z112.0069572259 A20.5175670360
G1 X111.3832601810 Y20.5373086168 Z111.3832601810 A20.5373086168
G1 X110.7595637905 Y20.5570708596 Z110.7595637905 A20.5570708596
G1 X110.1358674138 Y20.5768335383 Z110.1358674138 A20.5768335383
G1 X109.5121765544 Y20.5967635474 Z109.5121765544 A20.5967635474
G1 X108.8885331122 Y20.6181315317 Z108.8885331122 A20.6181315317
G1 X108.2648747673 Y20.6390563748 Z108.2648747673 A20.6390563748
G1 X107.6412057937 Y20.6596645810 Z107.6412057937 A20.6596645810
G1 X107.0175909301 Y20.6818509663 Z107.0175909301 A20.6818509663
G1 X106.3939765591 Y20.7040511884 Z106.3939765591 A20.7040511884
G1 X105.7703627298 Y20.7262666283 Z105.7703627298 A20.7262666283
G1 X105.1467778410 Y20.7492791795 Z105.1467778410 A20.7492791795
G1 X104.5231953336 Y20.7723570948 Z104.5231953336 A20.7723570948
G1 X103.8996134818 Y20.7954527190 Z103.8996134818 A20.7954527190
G1 X103.2760325874 Y20.8185741792 Z103.2760325874 A20.8185741792
G1 X102.6524631976 Y20.8420000839 Z102.6524631976 A20.8420000839
G1 X102.0289160116 Y20.8660134285 Z102.0289160116 A20.8660134285
G1 X101.4053952445 Y20.8907010986 Z101.4053952445 A20.8907010986
G1 X100.7818817189 Y20.9155730756 Z100.7818817189 A20.9155730756
G1 X100.1583709340 Y20.9405137050 Z100.1583709340 A20.9405137050
G1 X99.5348873850 Y20.9661235439 Z99.5348873850 A20.9661235439
G1 X98.9114130454 Y20.9919591722 Z98.9114130454 A20.9919591722
G1 X98.2879418109 Y21.0178696651 Z98.2879418109 A21.0178696651
G1 X97.6644737372 Y21.0438560643 Z97.6644737372 A21.0438560643
G1 X97.0410162984 Y21.0700934387 Z97.0410162984 A21.0700934387
G1 X96.4175881797 Y21.0970213921 Z96.4175881797 A21.0970213921
G1 X95.7941623553 Y21.1240023910 Z95.7941623553 A21.1240023910
G1 X95.1707392947 Y21.1510470807 Z95.1707392947 A21.1510470807
G1 X94.5473219804 Y21.1782240209 Z94.5473219804 A21.1782240209
G1 X93.9239367119 Y21.2061236384 Z93.9239367119 A21.2061236384
G1 X93.3005735249 Y21.2345117742 Z93.3005735249 A21.2345117742
G1 X92.6772406835 Y21.2635617765 Z92.6772406835 A21.2635617765
G1 X92.0538835154 Y21.2920839756 Z92.0538835154 A21.2920839756
G1 X91.4305379847 Y21.3208564479 Z91.4305379847 A21.3208564479
G1 X90.8072216215 Y21.3502578982 Z90.8072216215 A21.3502578982
G1 X90.1839121335 Y21.3798047062 Z90.1839121335 A21.3798047062
G1 X89.5606268396 Y21.4098530313 Z89.5606268396 A21.4098530313
G1 X88.9373676905 Y21.4404431216 Z88.9373676905 A21.4404431216
G1 X88.3140762441 Y21.4703681385 Z88.3140762441 A21.4703681385
G1 X87.6908160926 Y21.5009335616 Z87.6908160926 A21.5009335616
G1 X87.0675786228 Y21.5319623086 Z87.0675786228 A21.5319623086
G1 X86.4443499364 Y21.5631670893 Z86.4443499364 A21.5631670893
G1 X85.8211314570 Y21.5945748702 Z85.8211314570 A21.5945748702
G1 X85.1979371926 Y21.6264552471 Z85.1979371926 A21.6264552471
G1 X84.5747781520 Y21.6590212409 Z84.5747781520 A21.6590212409
G1 X83.9515856931 Y21.6909412731 Z83.9515856931 A21.6909412731
G1 X83.3284029963 Y21.7230510192 Z83.3284029963 A21.7230510192
G1 X82.7052414821 Y21.7555659595 Z82.7052414821 A21.7555659595
G1 X82.0821247001 Y21.7889307572 Z82.0821247001 A21.7889307572
G1 X81.4590219412 Y21.8225563075 Z81.4590219412 A21.8225563075
G1 X80.8359039901 Y21.8558980581 Z80.8359039901 A21.8558980581
G1 X80.2127871721 Y21.8892583026 Z80.2127871721 A21.8892583026
G1 X79.5897214603 Y21.9235635893 Z79.5897214603 A21.9235635893
G1 X78.9666738241 Y21.9581954494 Z78.9666738241 A21.9581954494
G1 X78.3436088638 Y21.9925132205 Z78.3436088638 A21.9925132205
G1 X77.7205534956 Y22.0270008430 Z77.7205534956 A22.0270008430
G1 X77.0975473038 Y22.0623704940 Z77.0975473038 A22.0623704940
G1 X76.4745652577 Y22.0981630095 Z76.4745652577 A22.0981630095
G1 X75.8515551142 Y22.1334620702 Z75.8515551142 A22.1334620702
G1 X75.2285816542 Y22.1693960136 Z75.2285816542 A22.1693960136
G1 X74.6056390888 Y22.2058682351 Z74.6056390888 A22.2058682351
G1 X73.9826739561 Y22.2419537718 Z73.9826739561 A22.2419537718
G1 X73.3597309109 Y22.2784187720 Z73.3597309109 A22.2784187720
G1 X72.7368154381 Y22.3153513300 Z72.7368154381 A22.3153513300
G1 X72.1139242153 Y22.3526903848 Z72.1139242153 A22.3526903848
G1 X71.4910241287 Y22.3898807534 Z71.4910241287 A22.3898807534
G1 X70.8681419561 Y22.4273624282 Z70.8681419561 A22.4273624282
G1 X70.2453191354 Y22.4658254764 Z70.2453191354 A22.4658254764
G1 X69.6224643345 Y22.5037677554 Z69.6224643345 A22.5037677554
G1 X68.9995857708 Y22.5413181030 Z68.9995857708 A22.5413181030
G1 X68.3768068254 Y22.5804851973 Z68.3768068254 A22.5804851973
G1 X67.7540028336 Y22.6192524201 Z67.7540028336 A22.6192524201
G1 X67.1311697949 Y22.6575499557 Z67.1311697949 A22.6575499557
G1 X66.5084180372 Y22.6971400945 Z66.5084180372 A22.6971400945
G1 X65.8856161941 Y22.7359347183 Z65.8856161941 A22.7359347183
G1 X65.2628725494 Y22.7756497418 Z65.2628725494 A22.7756497418
G1 X64.6400902800 Y22.8147571920 Z64.6400902800 A22.8147571920
G1 X64.0173676264 Y22.8548004105 Z64.0173676264 A22.8548004105
G1 X63.3946570704 Y22.8950404495 Z63.3946570704 A22.8950404495
G1 X62.7719149848 Y22.9347896173 Z62.7719149848 A22.9347896173
G1 X62.1491398257 Y22.9740173332 Z62.1491398257 A22.9740173332
G1 X61.5264927361 Y23.0152241032 Z61.5264927361 A23.0152241032
G1 X60.9037576585 Y23.0550813291 Z60.9037576585 A23.0550813291
G1 X60.2810534774 Y23.0954195566 Z60.2810534774 A23.0954195566
G1 X59.6583701574 Y23.1360758798 Z59.6583701574 A23.1360758798
G1 X59.0356941305 Y23.1768467964 Z59.0356941305 A23.1768467964
G1 X58.4129995535 Y23.2173312367 Z58.4129995535 A23.2173312367
G1 X57.7903461343 Y23.2584459944 Z57.7903461343 A23.2584459944
G1 X57.1676480770 Y23.2988784042 Z57.1676480770 A23.2988784042
G1 X56.5449545104 Y23.3393757122 Z56.5449545104 A23.3393757122
G1 X55.9222801052 Y23.3801707194 Z55.9222801052 A23.3801707194
G1 X55.2995530205 Y23.4201534986 Z55.2995530205 A23.4201534986
G1 X54.6768952991 Y23.4612012982 Z54.6768952991 A23.4612012982
G1 X54.0541831594 Y23.5014153649 Z54.0541831594 A23.5014153649
G1 X53.4314504147 Y23.5412979613 Z53.4314504147 A23.5412979613
G1 X52.8087330703 Y23.5814290305 Z52.8087330703 A23.5814290305
G1 X52.1859747475 Y23.6209054687 Z52.1859747475 A23.6209054687
G1 X51.5631701659 Y23.6596428441 Z51.5631701659 A23.6596428441
G1 X51.0253570999 Y23.6926600000 Z51.0253570999 A23.6926600000
G4 P1.0000
G1 X51.0000000000 Y25.0000859455 Z51.0000000000 A25.0000859455
G1 X50.0000000000 Y25.0000859455 Z50.0000000000 A25.0000859455
G4 P1.0000
G1 Y55.0000000000 A55.0000000000
G4 P2.0000
G0 Y60.0000000000 A60.0000000000
G0 X49.8500000000 Z49.8500000000
G0 Y50.0000000000 A50.0000000000
G1 X49.8500000000 Y0.0000000000 Z49.8500000000 A0.0000000000
G1 X49.8500000000 Y50.0000000000 Z49.8500000000 A50.0000000000
G0 Y55.0000000000 A55.0000000000
G0 Y60.0000000000 A60.0000000000
G0 X0.0000000000 Z0.0000000000
G0 Y0.0000000000 A0.0000000000
M5
M30