;Generated: 2021-07-24T13:50:58.800958
;[Project]
;Name = Windburner
;Units = millimeters
;
;[RootChord]
;Profile = http://airfoiltools.com/airfoil/seligdatfile?airfoil=pw51-pw
;Width = 191
;LeadingEdgeOffset = 0
;Rotation = 0
;RotationPosition = 0.5
;
;[TipChord]
;Profile = http://airfoiltools.com/airfoil/seligdatfile?airfoil=pw51-pw
;Width = 122
;LeadingEdgeOffset = 0
;Rotation = 0
;RotationPosition = 0.5
;
;[Wing]
;TipChordSide = right
;Width = 475
;Inverted = no
;VerticalAlignProfiles = default
;Dihedral = 1
;StockLeadingEdge = 0
;StockTrailingEdge = 0.1
;
;[Placement]
;RootChordOffset = 300
;HorizontalOffset = 50
;VerticalOffsetRoot = 25
;RotateWing = no
;
;[Panel]
;Bottom = 0
;Height = 50
;Inset = 0
;Depth = 450
;SafeHeight = 60
;
;[Machine]
;Width = 1490
;Height = 400
;Depth = 490
;Feedrate = 160
;Kerf = 1.25,1.25
;
;[Gcode]
;GcodeWireOn = M3 S110
;GcodeWireOff = M5
;AxisMapping = X,Y,Z,A
;ConfigAsComment = yes
;InterpolationPoints = 200
;
;
G17
G21
G90
G64 P0.50
G54
M3 S110
G1 F160.0
G0 Y60.0000000000 A60.0000000000
G0 X6.4210526316 Z222.8631578947
G0 Y55.0000000000 A55.0000000000
G1 X6.4210526316 Y25.0001535943 Z222.8631578947 A25.0000235340
G4 P1.0000
G1 X7.4210526316 Y25.0001535943 Z223.8631578947 A25.0000235340
G4 P1.0000
G4 P1.0000
G1 X7.4210526316 Y26.3599948858 Z223.8631578947 A26.2582670963
G4 P1.0000
G1 X8.6238858125 Y26.3932836682 Z223.9651123092 A26.2614312893
G1 X9.8261706782 Y26.4441255084 Z224.0670314347 A26.2657486528
G1 X11.0279940997 Y26.5038229811 Z224.1688500026 A26.2719945738
G1 X12.2290518933 Y26.5782136225 Z224.2706649437 A26.2783084902
G1 X13.4301096869 Y26.6526042639 Z224.3724798848 A26.2846224066
G1 X14.6309512211 Y26.7301152187 Z224.4741662995 A26.2927904083
G1 X15.8307878965 Y26.8221246935 Z224.5758779115 A26.3005939788
G1 X17.0306245718 Y26.9141341684 Z224.6775895235 A26.3083975494
G1 X18.2304612472 Y27.0061436433 Z224.7793011355 A26.3162011199
G1 X19.4302979226 Y27.0981531181 Z224.8810127475 A26.3240046904
G1 X20.6293114540 Y27.2002289230 Z224.9825213094 A26.3342910615
G1 X21.8281565400 Y27.3043646566 Z225.0841490308 A26.3431202160
G1 X23.0270016259 Y27.4085003902 Z225.1857767521 A26.3519493706
G1 X24.2258467118 Y27.5126361238 Z225.2874044735 A26.3607785251
G1 X25.4246917977 Y27.6167718574 Z225.3890321949 A26.3696076797
G1 X26.6232067870 Y27.7245586334 Z225.4904923393 A26.3802902725
G1 X27.8212889092 Y27.8371331400 Z225.5920554578 A26.3898338917
G1 X29.0193710314 Y27.9497076466 Z225.6936185764 A26.3993775109
G1 X30.2174531536 Y28.0622821532 Z225.7951816949 A26.4089211302
G1 X31.4155352758 Y28.1748566598 Z225.8967448135 A26.4184647494
G1 X32.6136173980 Y28.2874311664 Z225.9983079320 A26.4280083686
G1 X33.8116492826 Y28.4005258040 Z226.0997246516 A26.4390677089
G1 X35.0091296720 Y28.5193302991 Z226.2012367739 A26.4491392899
G1 X36.2066100614 Y28.6381347942 Z226.3027488962 A26.4592108709
G1 X37.4040904508 Y28.7569392894 Z226.4042610185 A26.4692824519
G1 X38.6015708402 Y28.8757437845 Z226.5057731408 A26.4793540329
G1 X39.7990512296 Y28.9945482796 Z226.6072852631 A26.4894256139
G1 X40.9965316190 Y29.1133527747 Z226.7087973854 A26.4994971949
G1 X42.1940333699 Y29.2319453023 Z226.8102247735 A26.5104095805
G1 X43.3911629772 Y29.3542305647 Z226.9116838184 A26.5210078338
G1 X44.5882693947 Y29.4767459363 Z227.0131642578 A26.5313937927
G1 X45.7853758121 Y29.5992613080 Z227.1146446972 A26.5417797515
G1 X46.9824822296 Y29.7217766796 Z227.2161251366 A26.5521657104
G1 X48.1795886471 Y29.8442920513 Z227.3176055759 A26.5625516693
G1 X49.3766950645 Y29.9668074229 Z227.4190860153 A26.5729376282
G1 X50.5738014820 Y30.0893227946 Z227.5205664547 A26.5833235871
G1 X51.7709165569 Y30.2117540382 Z227.6219987597 A26.5941772904
G1 X52.9678853570 Y30.3356067028 Z227.7234675465 A26.6046764821
G1 X54.1648541572 Y30.4594593674 Z227.8249363333 A26.6151756738
G1 X55.3618229573 Y30.5833120320 Z227.9264051200 A26.6256748655
G1 X56.5587917575 Y30.7071646965 Z228.0278739068 A26.6361740572
G1 X57.7557605576 Y30.8310173611 Z228.1293426936 A26.6466732489
G1 X58.9527293577 Y30.9548700257 Z228.2308114804 A26.6571724406
G1 X60.1496981579 Y31.0787226903 Z228.3322802672 A26.6676716323
G1 X61.3466669580 Y31.2025753549 Z228.4337490540 A26.6781708240
G1 X62.5436312581 Y31.3264714886 Z228.5352121842 A26.6887246558
G1 X63.7405874828 Y31.4504456279 Z228.6366799080 A26.6992341160
G1 X64.9375437075 Y31.5744197673 Z228.7381476317 A26.7097435763
G1 X66.1344999322 Y31.6983939066 Z228.8396153555 A26.7202530365
G1 X67.3314561569 Y31.8223680460 Z228.9410830792 A26.7307624968
G1 X68.5284123815 Y31.9463421853 Z229.0425508030 A26.7412719571
G1 X69.7253686062 Y32.0703163247 Z229.1440185267 A26.7517814173
G1 X70.9223248309 Y32.1942904640 Z229.2454862505 A26.7622908776
G1 X72.1192810556 Y32.3182646034 Z229.3469539742 A26.7728003378
G1 X73.3162601541 Y32.4420171174 Z229.4484671452 A26.7828694573
G1 X74.5133056609 Y32.5651261978 Z229.5499424455 A26.7933055079
G1 X75.7103511677 Y32.6882352782 Z229.6514177458 A26.8037415584
G1 X76.9073966745 Y32.8113443586 Z229.7528930461 A26.8141776090
G1 X78.1044421813 Y32.9344534391 Z229.8543683463 A26.8246136596
G1 X79.3014876881 Y33.0575625195 Z229.9558436466 A26.8350497102
G1 X80.4985331949 Y33.1806715999 Z230.0573189469 A26.8454857607
G1 X81.6955787017 Y33.3037806803 Z230.1587942472 A26.8559218113
G1 X82.8926242085 Y33.4268897607 Z230.2602695475 A26.8663578619
G1 X84.0896398968 Y33.5502923547 Z230.3618631278 A26.8756296420
G1 X85.2869402351 Y33.6708930467 Z230.4634070473 A26.8853902483
G1 X86.4842872378 Y33.7910344057 Z230.5649079151 A26.8955746263
G1 X87.6816342405 Y33.9111757648 Z230.6664087829 A26.9057590042
G1 X88.8789812432 Y34.0313171238 Z230.7679096507 A26.9159433822
G1 X90.0763282459 Y34.1514584829 Z230.8694105185 A26.9261277602
G1 X91.2736752486 Y34.2715998419 Z230.9709113863 A26.9363121382
G1 X92.4710222513 Y34.3917412009 Z231.0724122541 A26.9464965162
G1 X93.6683692540 Y34.5118825600 Z231.1739131219 A26.9566808942
G1 X94.8657162567 Y34.6320239190 Z231.2754139897 A26.9668652722
G1 X96.0630336153 Y34.7524672275 Z231.3772279272 A26.9738607897
G1 X97.2608843683 Y34.8674775078 Z231.4787715095 A26.9836100777
G1 X98.4587351213 Y34.9824877882 Z231.5803150918 A26.9933593658
G1 X99.6565858743 Y35.0974980685 Z231.6818586741 A27.0031086539
G1 X100.8544366273 Y35.2125083489 Z231.7834022563 A27.0128579419
G1 X102.0522873803 Y35.3275186293 Z231.8849458386 A27.0226072300
G1 X103.2501381333 Y35.4425289096 Z231.9864894209 A27.0323565180
G1 X104.4479888863 Y35.5575391900 Z232.0880330031 A27.0421058061
G1 X105.6458396393 Y35.6725494703 Z232.1895765854 A27.0518550942
G1 X106.8436903923 Y35.7875597507 Z232.2911201677 A27.0616043822
G1 X108.0415146166 Y35.9028557279 Z232.3931458917 A27.0661613753
G1 X109.2400615149 Y36.0103690931 Z232.4947485073 A27.0752748930
G1 X110.4386084131 Y36.1178824583 Z232.5963511230 A27.0843884106
G1 X111.6371553114 Y36.2253958236 Z232.6979537387 A27.0935019282
G1 X112.8357022097 Y36.3329091888 Z232.7995563544 A27.1026154459
G1 X114.0342491079 Y36.4404225540 Z232.9011589701 A27.1117289635
G1 X115.2327960062 Y36.5479359192 Z233.0027615858 A27.1208424812
G1 X116.4313429045 Y36.6554492844 Z233.1043642015 A27.1299559988
G1 X117.6298898027 Y36.7629626496 Z233.2059668172 A27.1390695165
G1 X118.8284367010 Y36.8704760148 Z233.3075694328 A27.1481830341
G1 X120.0269095641 Y36.9788575719 Z233.4098516497 A27.1493270972
G1 X121.2263548253 Y37.0758362107 Z233.5115304305 A27.1575473927
G1 X122.4258000865 Y37.1728148495 Z233.6132092113 A27.1657676881
G1 X123.6252453477 Y37.2697934883 Z233.7148879920 A27.1739879836
G1 X124.8246906090 Y37.3667721271 Z233.8165667728 A27.1822082790
G1 X126.0241358702 Y37.4637507659 Z233.9182455536 A27.1904285745
G1 X127.2235811314 Y37.5607294047 Z234.0199243344 A27.1986488699
G1 X128.4230263926 Y37.6577080435 Z234.1216031152 A27.2068691653
G1 X129.6224716538 Y37.7546866823 Z234.2232818960 A27.2150894608
G1 X130.8219169150 Y37.8516653211 Z234.3249606767 A27.2233097562
G1 X132.0212779460 Y37.9497644703 Z234.4274760329 A27.2204012910
G1 X133.2217416705 Y38.0331949038 Z234.5292411765 A27.2274725901
G1 X134.4222053950 Y38.1166253372 Z234.6310063201 A27.2345438892
G1 X135.6226691195 Y38.2000557706 Z234.7327714637 A27.2416151884
G1 X136.8231328440 Y38.2834862041 Z234.8345366073 A27.2486864875
G1 X138.0235965685 Y38.3669166375 Z234.9363017508 A27.2557577866
G1 X139.2240602930 Y38.4503470710 Z235.0380668944 A27.2628290857
G1 X140.4245240175 Y38.5337775044 Z235.1398320380 A27.2699003848
G1 X141.6249877420 Y38.6172079379 Z235.2415971816 A27.2769716839
G1 X142.8254514664 Y38.7006383713 Z235.3433623252 A27.2840429830
G1 X144.0259837584 Y38.7829666208 Z235.4460982592 A27.2755080151
G1 X145.2275323525 Y38.8489572800 Z235.5479553671 A27.2811006245
G1 X146.4290809466 Y38.9149479391 Z235.6498124751 A27.2866932340
G1 X147.6306295407 Y38.9809385983 Z235.7516695830 A27.2922858435
G1 X148.8321781348 Y39.0469292575 Z235.8535266910 A27.2978784530
G1 X150.0337267288 Y39.1129199166 Z235.9553837989 A27.3034710625
G1 X151.2352753229 Y39.1789105758 Z236.0572409068 A27.3090636719
G1 X152.4368239170 Y39.2449012350 Z236.1590980148 A27.3146562814
G1 X153.6383725111 Y39.3108918941 Z236.2609551227 A27.3202488909
G1 X154.8397955998 Y39.3796069648 Z236.3633100688 A27.3150346681
G1 X156.0419087900 Y39.4333420569 Z236.4656314752 A27.3105481264
G1 X157.2444353981 Y39.4781030640 Z236.5675714702 A27.3143409017
G1 X158.4469620063 Y39.5228640711 Z236.6695114651 A27.3181336771
G1 X159.6494886144 Y39.5676250783 Z236.7714514601 A27.3219264525
G1 X160.8520152225 Y39.6123860854 Z236.8733914551 A27.3257192278
G1 X162.0545418307 Y39.6571470926 Z236.9753314501 A27.3295120032
G1 X163.2570684388 Y39.7019080997 Z237.0772714450 A27.3333047785
G1 X164.4595950469 Y39.7466691068 Z237.1792114400 A27.3370975539
G1 X165.6620902021 Y39.7925968289 Z237.2812761985 A27.3362623599
G1 X166.8647503137 Y39.8324063772 Z237.3837628182 A27.3197780274
G1 X168.0679418379 Y39.8525048101 Z237.4857591669 A27.3214787886
G1 X169.2711333622 Y39.8726032429 Z237.5877555155 A27.3231795498
G1 X170.4743248865 Y39.8927016758 Z237.6897518642 A27.3248803110
G1 X171.6775164107 Y39.9128001086 Z237.7917482128 A27.3265810722
G1 X172.8807079350 Y39.9328985415 Z237.8937445615 A27.3282818334
G1 X174.0838994592 Y39.9529969743 Z237.9957409101 A27.3299825945
G1 X175.2870909835 Y39.9730954072 Z238.0977372588 A27.3316833557
G1 X176.4902698076 Y39.9960847999 Z238.1997839847 A27.3219166426
G1 X177.6935080531 Y40.0055584736 Z238.3018683037 A27.3035829203
G1 X178.8968297786 Y39.9960392296 Z238.4038756056 A27.3027716963
G1 X180.1001515041 Y39.9865199856 Z238.5058829075 A27.3019604722
G1 X181.3034732296 Y39.9770007416 Z238.6078902095 A27.3011492481
G1 X182.5067949551 Y39.9674814976 Z238.7098975114 A27.3003380241
G1 X183.7101166806 Y39.9579622536 Z238.8119048134 A27.2995268000
G1 X184.9134384061 Y39.9484430097 Z238.9139121153 A27.2987155760
G1 X186.1167601316 Y39.9389237657 Z239.0159194173 A27.2979043519
G1 X187.3202001878 Y39.9346559935 Z239.1170827119 A27.2596305587
G1 X188.5227302069 Y39.8899867162 Z239.2190226246 A27.2558355662
G1 X189.7252602260 Y39.8453174389 Z239.3209625374 A27.2520405737
G1 X190.9277902450 Y39.8006481615 Z239.4229024501 A27.2482455812
G1 X192.1303202641 Y39.7559788842 Z239.5248423629 A27.2444505887
G1 X193.3328502831 Y39.7113096069 Z239.6267822756 A27.2406555962
G1 X194.5353803022 Y39.6666403296 Z239.7287221884 A27.2368606037
G1 X195.7379800970 Y39.6232340157 Z239.8303853237 A27.2280558564
G1 X196.9404633669 Y39.5777170459 Z239.9299537386 A27.1813374375
G1 X198.1405967595 Y39.4896623410 Z240.0316901047 A27.1738635096
G1 X199.3407301521 Y39.4016076362 Z240.1334264709 A27.1663895817
G1 X200.5408635447 Y39.3135529314 Z240.2351628371 A27.1589156539
G1 X201.7409969373 Y39.2254982265 Z240.3368992032 A27.1514417260
G1 X202.9411303299 Y39.1374435217 Z240.4386355694 A27.1439677981
G1 X204.1412637225 Y39.0493888169 Z240.5403719356 A27.1364938703
G1 X205.3426870901 Y38.9749739815 Z240.6368660784 A27.0735898732
G1 X206.5380532487 Y38.8365054367 Z240.7381968954 A27.0618334475
G1 X207.7334194074 Y38.6980368919 Z240.8395277124 A27.0500770217
G1 X208.9287855660 Y38.5595683471 Z240.9408585294 A27.0383205960
G1 X210.1241517246 Y38.4210998022 Z241.0421893464 A27.0265641703
G1 X211.3195178833 Y38.2826312574 Z241.1435201634 A27.0148077445
G1 X212.5155270642 Y38.1486990583 Z241.2423003253 A26.9850571477
G1 X213.7093296915 Y37.9991971164 Z241.3364075652 A26.9223432412
G1 X214.8960952915 Y37.8000459130 Z241.4370070303 A26.9054347824
G1 X216.0828608915 Y37.6008947096 Z241.5376064953 A26.8885263236
G1 X217.2696264916 Y37.4017435062 Z241.6382059604 A26.8716178649
G1 X218.4563920916 Y37.2025923027 Z241.7388054254 A26.8547094061
G1 X219.6444185541 Y37.0097759658 Z241.8344034692 A26.8126726439
G1 X220.8276739808 Y36.7929829428 Z241.9239581149 A26.7402778814
G1 X222.0002700290 Y36.5226270669 Z242.0233468969 A26.7172991702
G1 X223.1728660772 Y36.2522711910 Z242.1227356789 A26.6943204591
G1 X224.3454621255 Y35.9819153151 Z242.2221244608 A26.6713417480
G1 X225.5180581737 Y35.7115594392 Z242.3215132428 A26.6483630368
G1 X226.6928927664 Y35.4494574744 Z242.3949471347 A26.5296336893
G1 X227.8415648112 Y35.0908123461 Z242.4922848166 A26.4991125956
G1 X228.9902368561 Y34.7321672177 Z242.5896224984 A26.4685915019
G1 X230.1389089010 Y34.3735220894 Z242.6869601803 A26.4380704082
G1 X231.2928345280 Y34.0292136843 Z242.7634586532 A26.3506803120
G1 X232.4218149474 Y33.6167963923 Z242.8385141771 A26.2593846431
G1 X233.5304043156 Y33.1487115465 Z242.9323820902 A26.2194467821
G1 X234.6389936838 Y32.6806267006 Z243.0262500033 A26.1795089211
G1 X235.7583336449 Y32.2340515208 Z243.0774738977 A26.0542493846
G1 X236.8209803665 Y31.6739070563 Z243.1446947400 A25.9611237571
G1 X237.8614403964 Y31.0693270610 Z243.2323845946 A25.9089934903
G1 X238.9100803498 Y30.4761008715 Z243.2876274194 A25.8118264605
G1 X239.8954571135 Y29.7945443611 Z243.2887424019 A25.6400096731
G1 X240.8020914513 Y29.0032837410 Z243.3625036225 A25.5694037738
G1 X241.7456950079 Y28.2426350931 Z243.2896202752 A25.3773703847
G1 X242.3863024471 Y27.2289456170 Z243.3154305202 A25.2690409665
G1 X243.0164048742 Y26.2010772598 Z243.3139990243 A25.1594844394
G1 X243.2747471950 Y25.0390434405 Z243.2747471950 A25.0390434405
G4 P1.0000
G1 X243.2747471950 Y24.9868149695 Z243.2747471950 A24.9854710811
G4 P1.0000
G1 X244.2747471950 Y24.9868149695 Z244.2747471950 A24.9854710811
G4 P1.0000
G1 X243.2747471950 Y24.9868149695 Z243.2747471950 A24.9854710811
G1 X243.2702236080 Y24.8868303174 Z243.2702236080 A24.8868303174
G4 P1.0000
G1 X242.9426128634 Y23.7520373790 Z243.2965967188 A24.7718423727
G1 X242.1885935287 Y22.8343662390 Z243.3845788932 A24.5904429934
G1 X241.2191584004 Y22.1409047732 Z243.4178508862 A24.3987361222
G1 X240.1654434163 Y21.5842580512 Z243.3963046676 A24.2421664108
G1 X239.0637637267 Y21.1305104607 Z243.3493269642 A24.1064125420
G1 X237.9382253152 Y20.7410024819 Z243.2800220086 A24.0057001707
G1 X236.7962856664 Y20.4030128778 Z243.2010792964 A23.9219849108
G1 X235.6435042167 Y20.1043014601 Z243.1158641688 A23.8520507255
G1 X234.4828738466 Y19.8381390146 Z243.0269090917 A23.7906923700
G1 X233.3170007831 Y19.5963418875 Z242.9347879284 A23.7387668567
G1 X232.1470282964 Y19.3752626802 Z242.8402458210 A23.6955472946
G1 X230.9734350097 Y19.1743637875 Z242.7447428270 A23.6550501570
G1 X229.7970661753 Y18.9904531176 Z242.6482693612 A23.6181443343
G1 X228.6185162192 Y18.8211109023 Z242.5507152468 A23.5863269243
G1 X227.4384271312 Y18.6630262621 Z242.4524287267 A23.5581531047
G1 X226.2566121747 Y18.5182944459 Z242.3539960638 A23.5300068552
G1 X225.0736992916 Y18.3829030201 Z242.2547807272 A23.5069994468
G1 X223.8898493979 Y18.2560551310 Z242.1553015180 A23.4854687871
G1 X222.7051213374 Y18.1376210246 Z242.0556183956 A23.4652374106
G1 X221.5196010744 Y18.0274572036 Z241.9557934066 A23.4456273634
G1 X220.3333128038 Y17.9258500618 Z241.8558350819 A23.4267340526
G1 X219.1468528167 Y17.8263473829 Z241.7552504468 A23.4145236601
G1 X217.9594365819 Y17.7388072241 Z241.6552002140 A23.3953861070
G1 X216.7718175369 Y17.6542380038 Z241.5545944059 A23.3827930936
G1 X215.5838820450 Y17.5742600533 Z241.4539443596 A23.3705190269
G1 X214.3955109973 Y17.5009882056 Z241.3533578252 A23.3569266625
G1 X213.2068367277 Y17.4327946112 Z241.2526410735 A23.3449374111
G1 X212.0181026202 Y17.3657900283 Z241.1516845772 A23.3366731112
G1 X210.8289154942 Y17.3071484277 Z241.0509813337 A23.3236514702
G1 X209.6397711976 Y17.2478090464 Z240.9499039250 A23.3174438534
G1 X208.4503170268 Y17.1949480085 Z240.8490330915 A23.3068676262
G1 X207.2607722580 Y17.1442443494 Z240.7480175967 A23.2990770197
G1 X206.0710322287 Y17.0983453832 Z240.6470563171 A23.2896876858
G1 X204.8812104958 Y17.0546465029 Z240.5459715311 A23.2831092682
G1 X203.6913056148 Y17.0132789633 Z240.4448657864 A23.2769506923
G1 X202.5013248499 Y16.9741538755 Z240.3437437829 A23.2711277426
G1 X201.3112558890 Y16.9378384151 Z240.2426251498 A23.2650095976
G1 X200.1210798378 Y16.9051205259 Z240.1415111366 A23.2585765131
G1 X198.9308544731 Y16.8742882160 Z240.0403489996 A23.2535541619
G1 X197.7405743120 Y16.8456606629 Z239.9391837776 A23.2484664030
G1 X196.5502566522 Y16.8186658144 Z239.8379961010 A23.2441187210
G1 X195.3598799263 Y16.7944743135 Z239.7368172712 A23.2391314084
G1 X194.1694508689 Y16.7728904689 Z239.6356242773 A23.2347035830
G1 X192.9789968472 Y16.7527520726 Z239.5344077036 A23.2312940312
G1 X191.7885088323 Y16.7347316347 Z239.4331940732 A23.2275266187
G1 X190.5980008224 Y16.7181295273 Z239.3319699316 A23.2242166214
G1 X189.4074755434 Y16.7028262811 Z239.2307346929 A23.2215513190
G1 X188.2169331771 Y16.6888845883 Z239.1294962135 A23.2190647716
G1 X187.0263702869 Y16.6767887327 Z239.0282595739 A23.2162721883
G1 X185.8357774956 Y16.6681356316 Z238.9270348781 A23.2116966298
G1 X184.6451861853 Y16.6593265595 Z238.8257762016 A23.2108953838
G1 X183.4545923429 Y16.6508962491 Z238.7245194368 A23.2098019842
G1 X182.2639862353 Y16.6443234416 Z238.6232692540 A23.2077084801
G1 X181.0733666841 Y16.6410233495 Z238.5220233877 A23.2038559052
G1 X179.8827477301 Y16.6375917986 Z238.4207620224 A23.2035474947
G1 X178.6921283482 Y16.6344437693 Z238.3195009959 A23.2029969155
G1 X177.5015033318 Y16.6352207359 Z238.2182435938 A23.1999114395
G1 X176.3108804977 Y16.6367291797 Z238.1169807775 A23.1985184140
G1 X175.1202578050 Y16.6384426262 Z238.0157189478 A23.1985197110
G1 X173.9296350722 Y16.6401092171 Z237.9144572247 A23.1986695534
G1 X172.7390226237 Y16.6454634774 Z237.8131873955 A23.1959099138
G1 X171.5484138825 Y16.6514203778 Z237.7119220442 A23.1954255988
G1 X170.3578088066 Y16.6581331216 Z237.6106591269 A23.1954428265
G1 X169.1672027765 Y16.6646562187 Z237.5093990351 A23.1960379582
G1 X167.9766046298 Y16.6724612947 Z237.4081315040 A23.1954201837
G1 X166.7860141773 Y16.6813008817 Z237.3068657286 A23.1952865747
G1 X165.5954484334 Y16.6931579469 Z237.2055901652 A23.1940044646
G1 X164.4048775551 Y16.7043941729 Z237.1043333562 A23.1950145713
G1 X163.2143116707 Y16.7161256300 Z237.0030713856 A23.1955091999
G1 X162.0237584597 Y16.7291144952 Z236.9018065090 A23.1957155038
G1 X160.8332021180 Y16.7417978129 Z236.8005512293 A23.1968698314
G1 X159.6426605064 Y16.7557129699 Z236.6992815561 A23.1968124915
G1 X158.4521458101 Y16.7718790151 Z236.5980107278 A23.1966585425
G1 X157.2616482312 Y16.7892242201 Z236.4967411116 A23.1968005754
G1 X156.0711493099 Y16.8064748639 Z236.3954906109 A23.1983163159
G1 X154.8806492828 Y16.8236491580 Z236.2942400312 A23.1998266035
G1 X153.6901994089 Y16.8440136574 Z236.1929514481 A23.1989164607
G1 X152.4997472604 Y16.8642361734 Z236.0917047785 A23.2006691561
G1 X151.3092942070 Y16.8844053977 Z235.9904580349 A23.2024175009
G1 X150.1188674879 Y16.9060740922 Z235.8891913444 A23.2030292000
G1 X148.9284510256 Y16.9282869517 Z235.7879363831 A23.2043453164
G1 X147.7380541664 Y16.9515428998 Z235.6866819549 A23.2056897966
G1 X146.5476831377 Y16.9760791476 Z235.5854174468 A23.2065690513
G1 X145.3573122518 Y17.0006234195 Z235.4841777715 A23.2086875746
G1 X144.1669398304 Y17.0250931754 Z235.3829382528 A23.2108136988
G1 X142.9765965479 Y17.0509380864 Z235.2816750606 A23.2118216216
G1 X141.7862637673 Y17.0772586110 Z235.1804302165 A23.2137136093
G1 X140.5959594082 Y17.1048468007 Z235.0791783034 A23.2152903077
G1 X139.4056501383 Y17.1322166978 Z234.9779438321 A23.2176443269
G1 X138.2153505161 Y17.1599841489 Z234.8766997355 A23.2196000764
G1 X137.0251250784 Y17.1908108395 Z234.7754261722 A23.2203406670
G1 X135.8348869446 Y17.2211168322 Z234.6741985841 A23.2229745562
G1 X134.6446488339 Y17.2514232596 Z234.5729690389 A23.2255320578
G1 X133.4544554596 Y17.2834460649 Z234.4717159245 A23.2271852902
G1 X132.2642545575 Y17.3151806146 Z234.3704907112 A23.2299084693
G1 X131.0740532181 Y17.3468987669 Z234.2692649461 A23.2326109595
G1 X129.8839434706 Y17.3818976249 Z234.1679863210 A23.2334199074
G1 X128.6938257919 Y17.4166133214 Z234.0667681284 A23.2363925902
G1 X127.5037073789 Y17.4513038483 Z233.9655495700 A23.2393527348
G1 X126.3135890567 Y17.4859974856 Z233.8643307247 A23.2423030410
G1 X125.1235009525 Y17.5216851940 Z233.7630840259 A23.2443370973
G1 X123.9334804730 Y17.5595975332 Z233.6618422301 A23.2465324482
G1 X122.7434535993 Y17.5972977839 Z233.5606301242 A23.2497057077
G1 X121.5534269379 Y17.6350047419 Z233.4594190803 A23.2529125038
G1 X120.3634002974 Y17.6727123564 Z233.3582080437 A23.2561195318
G1 X119.1734494593 Y17.7127187617 Z233.2569376809 A23.2575274465
G1 X117.9835212451 Y17.7534127916 Z233.1557376089 A23.2610655952
G1 X116.7935375721 Y17.7924577059 Z233.0545600507 A23.2652732112
G1 X115.6036288341 Y17.8336923727 Z232.9532929243 A23.2668518440
G1 X114.4137577449 Y17.8760251098 Z232.8520950945 A23.2704515952
G1 X113.2238887794 Y17.9184174959 Z232.7508962527 A23.2740229176
G1 X112.0340501757 Y17.9616460508 Z232.6496704410 A23.2768520643
G1 X110.8442411933 Y18.0056904675 Z232.5484729417 A23.2804610235
G1 X109.6544330548 Y18.0497570428 Z232.4472792425 A23.2841752074
G1 X108.4646257809 Y18.0938469446 Z232.3460860058 A23.2879019173
G1 X107.2748198406 Y18.1379728318 Z232.2448933797 A23.2916450997
G1 X106.0850718551 Y18.1836319595 Z232.1436694038 A23.2945590631
G1 X104.8953489134 Y18.2299359151 Z232.0424650119 A23.2980075214
G1 X103.7056729247 Y18.2774383154 Z231.9412680944 A23.3016467630
G1 X102.5159991765 Y18.3249949929 Z231.8400830321 A23.3055902745
G1 X101.3263420968 Y18.3729618085 Z231.7388878613 A23.3092873902
G1 X100.1367422233 Y18.4223342341 Z231.6376922761 A23.3129743264
G1 X98.9471434112 Y18.4717298734 Z231.5365134176 A23.3170739447
G1 X97.7575477824 Y18.5212021274 Z231.4353375921 A23.3212468129
G1 X96.5679594362 Y18.5708492756 Z231.3341611246 A23.3254042629
G1 X95.3784259480 Y18.6217881874 Z231.2329544926 A23.3288524770
G1 X94.1889120793 Y18.6731888017 Z231.1317861304 A23.3332024272
G1 X92.9994036065 Y18.7247141749 Z231.0306172010 A23.3375392614
G1 X91.8099055430 Y18.7764790650 Z230.9294439818 A23.3417775726
G1 X90.6204247161 Y18.8286344609 Z230.8282659081 A23.3459098730
G1 X89.4310153464 Y18.8824013177 Z230.7270835202 A23.3499448763
G1 X88.2416622140 Y18.9373904054 Z230.6258917020 A23.3537914887
G1 X87.0523170648 Y18.9925550029 Z230.5247508607 A23.3587486709
G1 X85.8629245933 Y19.0466928729 Z230.4236069080 A23.3636383478
G1 X84.6736056923 Y19.1024176670 Z230.3224174544 A23.3675451297
G1 X83.4843085706 Y19.1586102461 Z230.2212639846 A23.3722296031
G1 X82.2950218166 Y19.2150220250 Z230.1201141678 A23.3769913089
G1 X81.1058197716 Y19.2731885481 Z230.0189327151 A23.3810983287
G1 X79.9166016268 Y19.3310249761 Z229.9178163815 A23.3865514753
G1 X78.7273475948 Y19.3881224061 Z229.8166710625 A23.3914077496
G1 X77.5381924886 Y19.4472442161 Z229.7154946433 A23.3956276030
G1 X76.3490493498 Y19.5066060173 Z229.6143507907 A23.4005168226
G1 X75.1599169264 Y19.5661822864 Z229.5132139392 A23.4055466172
G1 X73.9708096758 Y19.6262592034 Z229.4120734875 A23.4105048080
G1 X72.7817803610 Y19.6878523118 Z229.3109076888 A23.4149727939
G1 X71.5927570637 Y19.7495655063 Z229.2098040593 A23.4206481445
G1 X70.4036909974 Y19.8104519991 Z229.1086756381 A23.4258442808
G1 X69.2146552653 Y19.8719278606 Z229.0075379997 A23.4308614171
G1 X68.0256870927 Y19.9346878587 Z228.9063787575 A23.4354728526
G1 X66.8367718218 Y19.9984507126 Z228.8052567103 A23.4407929918
G1 X65.6478820590 Y20.0626878718 Z228.7041380906 A23.4461768642
G1 X64.4589407769 Y20.1259631452 Z228.6030377932 A23.4519025260
G1 X63.2700581900 Y20.1903223925 Z228.5018855232 A23.4566636906
G1 X62.0812413645 Y20.2558949321 Z228.4007708390 A23.4621224150
G1 X60.8924572989 Y20.3220593477 Z228.2996606829 A23.4676629496
G1 X59.7036181154 Y20.3872248722 Z228.1985680704 A23.4735211806
G1 X58.5148515901 Y20.4536929430 Z228.0974268665 A23.4785042604
G1 X57.3261546040 Y20.5214025953 Z227.9963160525 A23.4840376521
G1 X56.1374909195 Y20.5896954528 Z227.8952209376 A23.4898459813
G1 X54.9487557979 Y20.6567337118 Z227.7941377093 A23.4958630717
G1 X53.7601490815 Y20.7260007196 Z227.6930065438 A23.5010445752
G1 X52.5715451250 Y20.7953230862 Z227.5919322296 A23.5072098886
G1 X51.3829241528 Y20.8643544189 Z227.4908302262 A23.5129002716
G1 X50.1943375177 Y20.9339750776 Z227.3897390091 A23.5187765030
G1 X49.0058116519 Y21.0046262250 Z227.2886447377 A23.5246009431
G1 X47.8173332357 Y21.0760701695 Z227.1875533126 A23.5304754866
G1 X46.6288118289 Y21.1467939829 Z227.0864845084 A23.5367285480
G1 X45.4403770997 Y21.2189434388 Z226.9853701785 A23.5422263990
G1 X44.2520038165 Y21.2921136671 Z226.8843132683 A23.5486692746
G1 X43.0635740928 Y21.3643627567 Z226.7832469446 A23.5549607542
G1 X41.8751353527 Y21.4364558589 Z226.6821432533 A23.5606426250
G1 X40.6868640464 Y21.5112664984 Z226.5810766150 A23.5669256743
G1 X39.4985313219 Y21.5850949428 Z226.4800184864 A23.5733460927
G1 X38.3101427029 Y21.6580177336 Z226.3789560798 A23.5796990381
G1 X37.1219503798 Y21.7340655102 Z226.2778688436 A23.5856540658
G1 X35.9336022847 Y21.8076375000 Z226.1768290266 A23.5923637649
G1 X34.7454244956 Y21.8839060219 Z226.0757439797 A23.5983552382
G1 X33.5571169237 Y21.9581281976 Z225.9747044086 A23.6050665224
G1 X32.3689759581 Y22.0349685512 Z225.8736257463 A23.6111614162
G1 X31.1808242176 Y22.1116538097 Z225.7725802830 A23.6177778010
G1 X29.9926125525 Y22.1874050564 Z225.6715294869 A23.6243121476
G1 X28.8043602307 Y22.2625071961 Z225.5704526134 A23.6304428144
G1 X27.6163196952 Y22.3408855801 Z225.4694265737 A23.6373557728
G1 X26.4281357030 Y22.4170655984 Z225.3683637206 A23.6437022936
G1 X25.2399978488 Y22.4939646710 Z225.2673177024 A23.6503101929
G1 X24.0519124696 Y22.5716656333 Z225.1662633790 A23.6567898491
G1 X22.8638268588 Y22.6493683475 Z225.0652232909 A23.6634882041
G1 X21.6757175833 Y22.7267038207 Z224.9641693712 A23.6699745947
G1 X20.4876792182 Y22.8051257772 Z224.8631291602 A23.6766704529
G1 X19.2995535762 Y22.8822129707 Z224.7620836487 A23.6832858686
G1 X18.1114440130 Y22.9595393600 Z224.6610319370 A23.6898053791
G1 X16.9233654633 Y23.0373488617 Z224.5599884522 A23.6964515301
G1 X15.7351876778 Y23.1136279194 Z224.4589352399 A23.7029480651
G1 X14.5471435839 Y23.1919598228 Z224.3578920428 A23.7095982723
G1 X13.3589959526 Y23.2687056343 Z224.2568397438 A23.7161088583
G1 X12.1708046141 Y23.3447510309 Z224.1557881534 A23.7226283552
G1 X10.9826526242 Y23.4214254259 Z224.0547298690 A23.7290452592
G1 X9.7944096929 Y23.4966510802 Z223.9536767010 A23.7355401626
G1 X8.6061036132 Y23.5708712239 Z223.8525928565 A23.7415418227
G1 X7.4464097315 Y23.6397478947 Z223.8885149946 A23.7414756842
G4 P1.0000
G1 X7.4210526316 Y25.0001535943 Z223.8631578947 A25.0000235340
G1 X6.4210526316 Y25.0001535943 Z222.8631578947 A25.0000235340
G4 P1.0000
G1 Y55.0000000000 A55.0000000000
G4 P2.0000
G0 Y60.0000000000 A60.0000000000
G0 X6.2710526316 Z222.7131578947
G0 Y50.0000000000 A50.0000000000
G1 X6.2710526316 Y0.0000000000 Z222.7131578947 A0.0000000000
G1 X6.2710526316 Y50.0000000000 Z222.7131578947 A50.0000000000
G0 Y55.0000000000 A55.0000000000
G0 Y60.0000000000 A60.0000000000
G0 X0.0000000000 Z0.0000000000
G0 Y0.0000000000 A0.0000000000
M5
M30