;Generated: 2021-07-24T15:17:27.759001
;[Project]
;Name = Windburner_tip5
;Units = millimeters
;
;[RootChord]
;Profile = http://airfoiltools.com/airfoil/seligdatfile?airfoil=pw51-pw
;Width = 43
;LeadingEdgeOffset = 0
;Rotation = 0
;RotationPosition = 0.5
;
;[TipChord]
;Profile = http://airfoiltools.com/airfoil/seligdatfile?airfoil=pw51-pw
;Width = 43
;LeadingEdgeOffset = 0
;Rotation = 0
;RotationPosition = 0.5
;
;[Wing]
;TipChordSide = right
;Width = 10
;Inverted = no
;VerticalAlignProfiles = default
;Dihedral = 1
;StockLeadingEdge = 0
;StockTrailingEdge = 0.1
;
;[Placement]
;RootChordOffset = 300
;HorizontalOffset = 50
;VerticalOffsetRoot = 25
;RotateWing = no
;
;[Panel]
;Bottom = 0
;Height = 50
;Inset = 0
;Depth = 450
;SafeHeight = 60
;
;[Machine]
;Width = 1490
;Height = 400
;Depth = 490
;Feedrate = 160
;Kerf = 1.25,1.25
;
;[Gcode]
;GcodeWireOn = M3 S110
;GcodeWireOff = M5
;AxisMapping = X,Y,Z,A
;ConfigAsComment = yes
;InterpolationPoints = 200
;
;
G17
G21
G90
G64 P0.50
G54
M3 S110
G1 F160.0
G0 Y60.0000000000 A60.0000000000
G0 X50.0000000000 Z50.0000000000
G0 Y55.0000000000 A55.0000000000
G1 X50.0000000000 Y25.0000523851 Z50.0000000000 A25.0000523851
G4 P1.0000
G1 X51.0000000000 Y25.0000523851 Z51.0000000000 A25.0000523851
G4 P1.0000
G4 P1.0000
G1 X51.0000000000 Y26.2699527805 Z51.0000000000 A26.2699527805
G4 P1.0000
G1 X51.2284154109 Y26.2765780137 Z51.2284154109 A26.2765780137
G1 X51.4567366155 Y26.2862402122 Z51.4567366155 A26.2862402122
G1 X51.6849157786 Y26.2986267121 Z51.6849157786 A26.2986267121
G1 X51.9130038084 Y26.3127611100 Z51.9130038084 A26.3127611100
G1 X52.1410918383 Y26.3268955079 Z52.1410918383 A26.3268955079
G1 X52.3690413168 Y26.3430283105 Z52.3690413168 A26.3430283105
G1 X52.5968976242 Y26.3605049741 Z52.5968976242 A26.3605049741
G1 X52.8247539316 Y26.3779816377 Z52.8247539316 A26.3779816377
G1 X53.0526102389 Y26.3954583014 Z53.0526102389 A26.3954583014
G1 X53.2803804904 Y26.4139872164 Z53.2803804904 A26.4139872164
G1 X53.5080486432 Y26.4337645457 Z53.5080486432 A26.4337645457
G1 X53.7357167960 Y26.4535418751 Z53.7357167960 A26.4535418751
G1 X53.9633849489 Y26.4733192044 Z53.9633849489 A26.4733192044
G1 X54.1910531017 Y26.4930965337 Z54.1910531017 A26.4930965337
G1 X54.4186798689 Y26.5133315902 Z54.4186798689 A26.5133315902
G1 X54.6462031985 Y26.5347106701 Z54.6462031985 A26.5347106701
G1 X54.8737265281 Y26.5560897500 Z54.8737265281 A26.5560897500
G1 X55.1012498577 Y26.5774688300 Z55.1012498577 A26.5774688300
G1 X55.3287731873 Y26.5988479099 Z55.3287731873 A26.5988479099
G1 X55.5562965169 Y26.6202269898 Z55.5562965169 A26.6202269898
G1 X55.7837987559 Y26.6418244251 Z55.7837987559 A26.6418244251
G1 X56.0112078251 Y26.6643864697 Z56.0112078251 A26.6643864697
G1 X56.2386168942 Y26.6869485144 Z56.2386168942 A26.6869485144
G1 X56.4660259633 Y26.7095105591 Z56.4660259633 A26.7095105591
G1 X56.6934350324 Y26.7320726038 Z56.6934350324 A26.7320726038
G1 X56.9208441015 Y26.7546346485 Z56.9208441015 A26.7546346485
G1 X57.1482531706 Y26.7771966932 Z57.1482531706 A26.7771966932
G1 X57.3756444331 Y26.7999354288 Z57.3756444331 A26.7999354288
G1 X57.6029825001 Y26.8232020114 Z57.6029825001 A26.8232020114
G1 X57.8303205671 Y26.8464685941 Z57.8303205671 A26.8464685941
G1 X58.0576586341 Y26.8697351768 Z58.0576586341 A26.8697351768
G1 X58.2849967011 Y26.8930017594 Z58.2849967011 A26.8930017594
G1 X58.5123347681 Y26.9162683421 Z58.5123347681 A26.9162683421
G1 X58.7396728350 Y26.9395349248 Z58.7396728350 A26.9395349248
G1 X58.9670109020 Y26.9628015074 Z58.9670109020 A26.9628015074
G1 X59.1943334925 Y26.9862184824 Z59.1943334925 A26.9862184824
G1 X59.4216454373 Y27.0097389058 Z59.4216454373 A27.0097389058
G1 X59.6489573821 Y27.0332593293 Z59.6489573821 A27.0332593293
G1 X59.8762693269 Y27.0567797527 Z59.8762693269 A27.0567797527
G1 X60.1035812717 Y27.0803001762 Z60.1035812717 A27.0803001762
G1 X60.3308932165 Y27.1038205996 Z60.3308932165 A27.1038205996
G1 X60.5582051614 Y27.1273410230 Z60.5582051614 A27.1273410230
G1 X60.7855171062 Y27.1508614465 Z60.7855171062 A27.1508614465
G1 X61.0128283018 Y27.1743891065 Z61.0128283018 A27.1743891065
G1 X61.2401378612 Y27.1979325724 Z61.2401378612 A27.1979325724
G1 X61.4674474206 Y27.2214760383 Z61.4674474206 A27.2214760383
G1 X61.6947569800 Y27.2450195041 Z61.6947569800 A27.2450195041
G1 X61.9220665394 Y27.2685629700 Z61.9220665394 A27.2685629700
G1 X62.1493760987 Y27.2921064359 Z62.1493760987 A27.2921064359
G1 X62.3766856581 Y27.3156499018 Z62.3766856581 A27.3156499018
G1 X62.6039952175 Y27.3391933677 Z62.6039952175 A27.3391933677
G1 X62.8313047769 Y27.3627368336 Z62.8313047769 A27.3627368336
G1 X63.0586232811 Y27.3861936325 Z63.0586232811 A27.3861936325
G1 X63.2859498029 Y27.4095727479 Z63.2859498029 A27.4095727479
G1 X63.5132763248 Y27.4329518633 Z63.5132763248 A27.4329518633
G1 X63.7406028466 Y27.4563309788 Z63.7406028466 A27.4563309788
G1 X63.9679293685 Y27.4797100942 Z63.9679293685 A27.4797100942
G1 X64.1952558903 Y27.5030892097 Z64.1952558903 A27.5030892097
G1 X64.4225824122 Y27.5264683251 Z64.4225824122 A27.5264683251
G1 X64.6499089340 Y27.5498474405 Z64.6499089340 A27.5498474405
G1 X64.8772354558 Y27.5732265560 Z64.8772354558 A27.5732265560
G1 X65.1045814913 Y27.5964135916 Z65.1045814913 A27.5964135916
G1 X65.3319652775 Y27.6192290322 Z65.3319652775 A27.6192290322
G1 X65.5593490638 Y27.6420444729 Z65.5593490638 A27.6420444729
G1 X65.7867328500 Y27.6648599135 Z65.7867328500 A27.6648599135
G1 X66.0141166362 Y27.6876753541 Z66.0141166362 A27.6876753541
G1 X66.2415004225 Y27.7104907947 Z66.2415004225 A27.7104907947
G1 X66.4688842087 Y27.7333062353 Z66.4688842087 A27.7333062353
G1 X66.6962679949 Y27.7561216760 Z66.6962679949 A27.7561216760
G1 X66.9236517812 Y27.7789371166 Z66.9236517812 A27.7789371166
G1 X67.1510355674 Y27.8017525572 Z67.1510355674 A27.8017525572
G1 X67.3785017505 Y27.8237287149 Z67.3785017505 A27.8237287149
G1 X67.6059812119 Y27.8455696216 Z67.6059812119 A27.8455696216
G1 X67.8334606733 Y27.8674105283 Z67.8334606733 A27.8674105283
G1 X68.0609401348 Y27.8892514351 Z68.0609401348 A27.8892514351
G1 X68.2884195962 Y27.9110923418 Z68.2884195962 A27.9110923418
G1 X68.5158990576 Y27.9329332485 Z68.5158990576 A27.9329332485
G1 X68.7433785190 Y27.9547741553 Z68.7433785190 A27.9547741553
G1 X68.9708579804 Y27.9766150620 Z68.9708579804 A27.9766150620
G1 X69.1983374418 Y27.9984559687 Z69.1983374418 A27.9984559687
G1 X69.4258440334 Y28.0200047006 Z69.4258440334 A28.0200047006
G1 X69.6534557155 Y28.0404216729 Z69.6534557155 A28.0404216729
G1 X69.8810673975 Y28.0608386452 Z69.8810673975 A28.0608386452
G1 X70.1086790796 Y28.0812556176 Z70.1086790796 A28.0812556176
G1 X70.3362907617 Y28.1016725899 Z70.3362907617 A28.1016725899
G1 X70.5639024437 Y28.1220895622 Z70.5639024437 A28.1220895622
G1 X70.7915141258 Y28.1425065346 Z70.7915141258 A28.1425065346
G1 X71.0191258079 Y28.1629235069 Z71.0191258079 A28.1629235069
G1 X71.2467374899 Y28.1833404792 Z71.2467374899 A28.1833404792
G1 X71.4743491720 Y28.2037574515 Z71.4743491720 A28.2037574515
G1 X71.7020421210 Y28.2232214120 Z71.7020421210 A28.2232214120
G1 X71.9298244165 Y28.2416376123 Z71.9298244165 A28.2416376123
G1 X72.1576067120 Y28.2600538126 Z72.1576067120 A28.2600538126
G1 X72.3853890075 Y28.2784700129 Z72.3853890075 A28.2784700129
G1 X72.6131713030 Y28.2968862131 Z72.6131713030 A28.2968862131
G1 X72.8409535985 Y28.3153024134 Z72.8409535985 A28.3153024134
G1 X73.0687358940 Y28.3337186137 Z73.0687358940 A28.3337186137
G1 X73.2965181895 Y28.3521348139 Z73.2965181895 A28.3521348139
G1 X73.5243004849 Y28.3705510142 Z73.5243004849 A28.3705510142
G1 X73.7520827804 Y28.3889672145 Z73.7520827804 A28.3889672145
G1 X73.9800157049 Y28.4053795546 Z73.9800157049 A28.4053795546
G1 X74.2079914367 Y28.4212224176 Z74.2079914367 A28.4212224176
G1 X74.4359671684 Y28.4370652807 Z74.4359671684 A28.4370652807
G1 X74.6639429002 Y28.4529081437 Z74.6639429002 A28.4529081437
G1 X74.8919186319 Y28.4687510067 Z74.8919186319 A28.4687510067
G1 X75.1198943636 Y28.4845938697 Z75.1198943636 A28.4845938697
G1 X75.3478700954 Y28.5004367327 Z75.3478700954 A28.5004367327
G1 X75.5758458271 Y28.5162795957 Z75.5758458271 A28.5162795957
G1 X75.8038215589 Y28.5321224587 Z75.8038215589 A28.5321224587
G1 X76.0318404280 Y28.5472718081 Z76.0318404280 A28.5472718081
G1 X76.2600221818 Y28.5598024829 Z76.2600221818 A28.5598024829
G1 X76.4882039356 Y28.5723331576 Z76.4882039356 A28.5723331576
G1 X76.7163856894 Y28.5848638324 Z76.7163856894 A28.5848638324
G1 X76.9445674431 Y28.5973945072 Z76.9445674431 A28.5973945072
G1 X77.1727491969 Y28.6099251819 Z77.1727491969 A28.6099251819
G1 X77.4009309507 Y28.6224558567 Z77.4009309507 A28.6224558567
G1 X77.6291127045 Y28.6349865315 Z77.6291127045 A28.6349865315
G1 X77.8572944583 Y28.6475172062 Z77.8572944583 A28.6475172062
G1 X78.0854762121 Y28.6600478810 Z78.0854762121 A28.6600478810
G1 X78.3138171862 Y28.6691219002 Z78.3138171862 A28.6691219002
G1 X78.5421846524 Y28.6776207821 Z78.5421846524 A28.6776207821
G1 X78.7705521185 Y28.6861196640 Z78.7705521185 A28.6861196640
G1 X78.9989195846 Y28.6946185459 Z78.9989195846 A28.6946185459
G1 X79.2272870507 Y28.7031174279 Z79.2272870507 A28.7031174279
G1 X79.4556545168 Y28.7116163098 Z79.4556545168 A28.7116163098
G1 X79.6840219829 Y28.7201151917 Z79.6840219829 A28.7201151917
G1 X79.9123894490 Y28.7286140736 Z79.9123894490 A28.7286140736
G1 X80.1407569152 Y28.7371129555 Z80.1407569152 A28.7371129555
G1 X80.3692253444 Y28.7418657006 Z80.3692253444 A28.7418657006
G1 X80.5977190712 Y28.7456798063 Z80.5977190712 A28.7456798063
G1 X80.8262127979 Y28.7494939119 Z80.8262127979 A28.7494939119
G1 X81.0547065247 Y28.7533080176 Z81.0547065247 A28.7533080176
G1 X81.2832002514 Y28.7571221232 Z81.2832002514 A28.7571221232
G1 X81.5116939782 Y28.7609362289 Z81.5116939782 A28.7609362289
G1 X81.7401877050 Y28.7647503345 Z81.7401877050 A28.7647503345
G1 X81.9686814317 Y28.7685644402 Z81.9686814317 A28.7685644402
G1 X82.1971780064 Y28.7717286054 Z82.1971780064 A28.7717286054
G1 X82.4256963835 Y28.7699170079 Z82.4256963835 A28.7699170079
G1 X82.6542147606 Y28.7681054105 Z82.6542147606 A28.7681054105
G1 X82.8827331378 Y28.7662938130 Z82.8827331378 A28.7662938130
G1 X83.1112515149 Y28.7644822155 Z83.1112515149 A28.7644822155
G1 X83.3397698920 Y28.7626706181 Z83.3397698920 A28.7626706181
G1 X83.5682882692 Y28.7608590206 Z83.5682882692 A28.7608590206
G1 X83.7968066463 Y28.7590474232 Z83.7968066463 A28.7590474232
G1 X84.0253250234 Y28.7572358257 Z84.0253250234 A28.7572358257
G1 X84.2537113213 Y28.7495666221 Z84.2537113213 A28.7495666221
G1 X84.4820791019 Y28.7410761957 Z84.4820791019 A28.7410761957
G1 X84.7104468825 Y28.7325857693 Z84.7104468825 A28.7325857693
G1 X84.9388146632 Y28.7240953428 Z84.9388146632 A28.7240953428
G1 X85.1671824438 Y28.7156049164 Z85.1671824438 A28.7156049164
G1 X85.3955502244 Y28.7071144900 Z85.3955502244 A28.7071144900
G1 X85.6239180051 Y28.6986240636 Z85.6239180051 A28.6986240636
G1 X85.8522201858 Y28.6889468487 Z85.8522201858 A28.6889468487
G1 X86.0801324930 Y28.6722163141 Z86.0801324930 A28.6722163141
G1 X86.3080448002 Y28.6554857794 Z86.3080448002 A28.6554857794
G1 X86.5359571074 Y28.6387552448 Z86.5359571074 A28.6387552448
G1 X86.7638694147 Y28.6220247101 Z86.7638694147 A28.6220247101
G1 X86.9917817219 Y28.6052941755 Z86.9917817219 A28.6052941755
G1 X87.2196940291 Y28.5885636408 Z87.2196940291 A28.5885636408
G1 X87.4476063363 Y28.5718331062 Z87.4476063363 A28.5718331062
G1 X87.6746477153 Y28.5458977525 Z87.6746477153 A28.5458977525
G1 X87.9016534343 Y28.5195855099 Z87.9016534343 A28.5195855099
G1 X88.1286591533 Y28.4932732674 Z88.1286591533 A28.4932732674
G1 X88.3556648723 Y28.4669610248 Z88.3556648723 A28.4669610248
G1 X88.5826705913 Y28.4406487823 Z88.5826705913 A28.4406487823
G1 X88.8096763103 Y28.4143365397 Z88.8096763103 A28.4143365397
G1 X89.0360925723 Y28.3838678788 Z89.0360925723 A28.3838678788
G1 X89.2614630061 Y28.3460248063 Z89.2614630061 A28.3460248063
G1 X89.4868334399 Y28.3081817338 Z89.4868334399 A28.3081817338
G1 X89.7122038737 Y28.2703386613 Z89.7122038737 A28.2703386613
G1 X89.9375743075 Y28.2324955888 Z89.9375743075 A28.2324955888
G1 X90.1629447413 Y28.1946525163 Z90.1629447413 A28.1946525163
G1 X90.3873160763 Y28.1517932058 Z90.3873160763 A28.1517932058
G1 X90.6099873908 Y28.1003984949 Z90.6099873908 A28.1003984949
G1 X90.8326587052 Y28.0490037841 Z90.8326587052 A28.0490037841
G1 X91.0553300196 Y27.9976090733 Z91.0553300196 A27.9976090733
G1 X91.2780013341 Y27.9462143624 Z91.2780013341 A27.9462143624
G1 X91.5006726485 Y27.8948196516 Z91.5006726485 A27.8948196516
G1 X91.7188033164 Y27.8266912531 Z91.7188033164 A27.8266912531
G1 X91.9369118788 Y27.7584813889 Z91.9369118788 A27.7584813889
G1 X92.1550204413 Y27.6902715247 Z92.1550204413 A27.6902715247
G1 X92.3731290037 Y27.6220616605 Z92.3731290037 A27.6220616605
G1 X92.5895548302 Y27.5492678115 Z92.5895548302 A27.5492678115
G1 X92.7999928525 Y27.4601624279 Z92.7999928525 A27.4601624279
G1 X93.0104308747 Y27.3710570444 Z93.0104308747 A27.3710570444
G1 X93.2208688969 Y27.2819516608 Z93.2208688969 A27.2819516608
G1 X93.4312049817 Y27.1926431885 Z93.4312049817 A27.1926431885
G1 X93.6283956994 Y27.0771453468 Z93.6283956994 A27.0771453468
G1 X93.8255864171 Y26.9616475052 Z93.8255864171 A26.9616475052
G1 X94.0227771348 Y26.8461496635 Z94.0227771348 A26.8461496635
G1 X94.2135325897 Y26.7218392662 Z94.2135325897 A26.7218392662
G1 X94.3835775957 Y26.5691676366 Z94.3835775957 A26.5691676366
G1 X94.5536226017 Y26.4164960070 Z94.5536226017 A26.4164960070
G1 X94.7236676078 Y26.2638243773 Z94.7236676078 A26.2638243773
G1 X94.8623058045 Y26.0857279867 Z94.8623058045 A26.0857279867
G1 X94.9762261077 Y25.8876217145 Z94.9762261077 A25.8876217145
G1 X95.0901464109 Y25.6895154422 Z95.0901464109 A25.6895154422
G1 X95.1964607794 Y25.4885492716 Z95.1964607794 A25.4885492716
G1 X95.2412883911 Y25.2644635384 Z95.2412883911 A25.2644635384
G1 X95.2747471950 Y25.0390434405 Z95.2747471950 A25.0390434405
G4 P1.0000
G1 X95.2747471950 Y24.9850488404 Z95.2747471950 A24.9850488404
G4 P1.0000
G1 X96.2747471950 Y24.9850488404 Z96.2747471950 A24.9850488404
G4 P1.0000
G1 X95.2747471950 Y24.9850488404 Z95.2747471950 A24.9850488404
G1 X95.2702236080 Y24.8868303174 Z95.2702236080 A24.8868303174
G4 P1.0000
G1 X95.2323087120 Y24.6638760776 Z95.2323087120 A24.6638760776
G1 X95.1635377920 Y24.4487251928 Z95.1635377920 A24.4487251928
G1 X95.0644459321 Y24.2458176568 Z95.0644459321 A24.2458176568
G1 X94.9376897359 Y24.0587042039 Z94.9376897359 A24.0587042039
G1 X94.7848552953 Y23.8920600772 Z94.7848552953 A23.8920600772
G1 X94.6128255603 Y23.7450973796 Z94.6128255603 A23.7450973796
G1 X94.4257485423 Y23.6177588159 Z94.4257485423 A23.6177588159
G1 X94.2285416081 Y23.5067135785 Z94.2285416081 A23.5067135785
G1 X94.0237055320 Y23.4104463477 Z94.0237055320 A23.4104463477
G1 X93.8134287996 Y23.3266463393 Z93.8134287996 A23.3266463393
G1 X93.5994395376 Y23.2527984607 Z93.5994395376 A23.2527984607
G1 X93.3827556279 Y23.1872540627 Z93.3827556279 A23.1872540627
G1 X93.1641178378 Y23.1284997548 Z93.1641178378 A23.1284997548
G1 X92.9439095713 Y23.0759436713 Z92.9439095713 A23.0759436713
G1 X92.7226712554 Y23.0279124685 Z92.7226712554 A23.0279124685
G1 X92.5005079877 Y22.9843373821 Z92.5005079877 A22.9843373821
G1 X92.2776962539 Y22.9442172531 Z92.2776962539 A22.9442172531
G1 X92.0542632710 Y22.9077096465 Z92.0542632710 A22.9077096465
G1 X91.8304033804 Y22.8739066896 Z91.8304033804 A22.8739066896
G1 X91.6061790557 Y22.8426161420 Z91.6061790557 A22.8426161420
G1 X91.3816188542 Y22.8138337154 Z91.3816188542 A22.8138337154
G1 X91.1568234652 Y22.7869391773 Z91.1568234652 A22.7869391773
G1 X90.9318255000 Y22.7617975771 Z90.9318255000 A22.7617975771
G1 X90.7066268822 Y22.7385174357 Z90.7066268822 A22.7385174357
G1 X90.4812842155 Y22.7166840096 Z90.4812842155 A22.7166840096
G1 X90.2557861249 Y22.6965160877 Z90.2557861249 A22.6965160877
G1 X90.0302048565 Y22.6772894144 Z90.0302048565 A22.6772894144
G1 X89.8044974072 Y22.6596203275 Z89.8044974072 A22.6596203275
G1 X89.5787047134 Y22.6430615653 Z89.5787047134 A22.6430615653
G1 X89.3528511892 Y22.6273530367 Z89.3528511892 A22.6273530367
G1 X89.1269179873 Y22.6128358787 Z89.1269179873 A22.6128358787
G1 X88.9009116950 Y22.5995038905 Z88.9009116950 A22.5995038905
G1 X88.6748881466 Y22.5864663181 Z88.6748881466 A22.5864663181
G1 X88.4487857300 Y22.5748791419 Z88.4487857300 A22.5748791419
G1 X88.2226714469 Y22.5635234069 Z88.2226714469 A22.5635234069
G1 X87.9965127863 Y22.5530926999 Z87.9965127863 A22.5530926999
G1 X87.7703279538 Y22.5432437054 Z87.7703279538 A22.5432437054
G1 X87.5441095090 Y22.5342057049 Z87.5441095090 A22.5342057049
G1 X87.3178685409 Y22.5257448320 Z87.3178685409 A22.5257448320
G1 X87.0916105113 Y22.5177534035 Z87.0916105113 A22.5177534035
G1 X86.8653370799 Y22.5102105036 Z86.8653370799 A22.5102105036
G1 X86.6390464618 Y22.5032086588 Z86.6390464618 A22.5032086588
G1 X86.4127365052 Y22.4968527679 Z86.4127365052 A22.4968527679
G1 X86.1864160104 Y22.4908815407 Z86.1864160104 A22.4908815407
G1 X85.9600840650 Y22.4853611823 Z85.9600840650 A22.4853611823
G1 X85.7337438095 Y22.4801952505 Z85.7337438095 A22.4801952505
G1 X85.5073915736 Y22.4755965938 Z85.5073915736 A22.4755965938
G1 X85.2810302989 Y22.4714544485 Z85.2810302989 A22.4714544485
G1 X85.0546634804 Y22.4676253164 Z85.0546634804 A22.4676253164
G1 X84.8282915124 Y22.4641102166 Z84.8282915124 A22.4641102166
G1 X84.6019139936 Y22.4609735918 Z84.6019139936 A22.4609735918
G1 X84.3755328108 Y22.4581177102 Z84.3755328108 A22.4581177102
G1 X84.1491483396 Y22.4555368311 Z84.1491483396 A22.4555368311
G1 X83.9227604439 Y22.4532849997 Z83.9227604439 A22.4532849997
G1 X83.6963674615 Y22.4515993709 Z83.6963674615 A22.4515993709
G1 X83.4699743698 Y22.4499284887 Z83.4699743698 A22.4499284887
G1 X83.2435798643 Y22.4484714581 Z83.2435798643 A22.4484714581
G1 X83.0171836012 Y22.4473473390 Z83.0171836012 A22.4473473390
G1 X82.7907852948 Y22.4466910356 Z82.7907852948 A22.4466910356
G1 X82.5643869696 Y22.4460412740 Z82.5643869696 A22.4460412740
G1 X82.3379880420 Y22.4458108210 Z82.3379880420 A22.4458108210
G1 X82.1115888518 Y22.4459058295 Z82.1115888518 A22.4459058295
G1 X81.8851898196 Y22.4462253710 Z81.8851898196 A22.4462253710
G1 X81.6587907854 Y22.4465434185 Z81.6587907854 A22.4465434185
G1 X81.4323927778 Y22.4472293758 Z81.4323927778 A22.4472293758
G1 X81.2059958067 Y22.4482392359 Z81.2059958067 A22.4482392359
G1 X80.9796000032 Y22.4494898361 Z80.9796000032 A22.4494898361
G1 X80.7532041623 Y22.4507336298 Z80.7532041623 A22.4507336298
G1 X80.5268091416 Y22.4521105325 Z80.5268091416 A22.4521105325
G1 X80.3004153578 Y22.4536802981 Z80.3004153578 A22.4536802981
G1 X80.0740262763 Y22.4558268335 Z80.0740262763 A22.4558268335
G1 X79.8476371313 Y22.4579666626 Z79.8476371313 A22.4579666626
G1 X79.6212485950 Y22.4601666411 Z79.6212485950 A22.4601666411
G1 X79.3948623524 Y22.4625941932 Z79.3948623524 A22.4625941932
G1 X79.1684759796 Y22.4650095660 Z79.1684759796 A22.4650095660
G1 X78.9420921531 Y22.4676375450 Z78.9420921531 A22.4676375450
G1 X78.7157127968 Y22.4706393603 Z78.7157127968 A22.4706393603
G1 X78.4893371273 Y22.4739065035 Z78.4893371273 A22.4739065035
G1 X78.2629616212 Y22.4771858310 Z78.2629616212 A22.4771858310
G1 X78.0365862117 Y22.4804704558 Z78.0365862117 A22.4804704558
G1 X77.8102197101 Y22.4843215294 Z77.8102197101 A22.4843215294
G1 X77.5838530712 Y22.4881645263 Z77.5838530712 A22.4881645263
G1 X77.3574868629 Y22.4920318287 Z77.3574868629 A22.4920318287
G1 X77.1311250174 Y22.4961474961 Z77.1311250174 A22.4961474961
G1 X76.9047664988 Y22.5004401913 Z76.9047664988 A22.5004401913
G1 X76.6784107778 Y22.5048787317 Z76.6784107778 A22.5048787317
G1 X76.4520597497 Y22.5095516230 Z76.4520597497 A22.5095516230
G1 X76.2257084706 Y22.5142123316 Z76.2257084706 A22.5142123316
G1 X75.9993583295 Y22.5189265836 Z75.9993583295 A22.5189265836
G1 X75.7730129621 Y22.5238660685 Z75.7730129621 A22.5238660685
G1 X75.5466719629 Y22.5290003904 Z75.5466719629 A22.5290003904
G1 X75.3203326228 Y22.5342087419 Z75.3203326228 A22.5342087419
G1 X75.0939931795 Y22.5394126117 Z75.0939931795 A22.5394126117
G1 X74.8676639169 Y22.5450363173 Z74.8676639169 A22.5450363173
G1 X74.6413381882 Y22.5508059215 Z74.6413381882 A22.5508059215
G1 X74.4150121917 Y22.5565650122 Z74.4150121917 A22.5565650122
G1 X74.1886916263 Y22.5625324774 Z74.1886916263 A22.5625324774
G1 X73.9623728763 Y22.5685696354 Z73.9623728763 A22.5685696354
G1 X73.7360539891 Y22.5746016446 Z73.7360539891 A22.5746016446
G1 X73.5097469667 Y22.5810586281 Z73.5097469667 A22.5810586281
G1 X73.2834440126 Y22.5876614158 Z73.2834440126 A22.5876614158
G1 X73.0571408874 Y22.5942583382 Z73.0571408874 A22.5942583382
G1 X72.8308377761 Y22.6008557367 Z72.8308377761 A22.6008557367
G1 X72.6045386527 Y22.6075843312 Z72.6045386527 A22.6075843312
G1 X72.3782526526 Y22.6147446368 Z72.3782526526 A22.6147446368
G1 X72.1519668752 Y22.6219119787 Z72.1519668752 A22.6219119787
G1 X71.9256811874 Y22.6290821491 Z71.9256811874 A22.6290821491
G1 X71.6993955165 Y22.6362528524 Z71.6993955165 A22.6362528524
G1 X71.4731236306 Y22.6438415985 Z71.4731236306 A22.6438415985
G1 X71.2468550445 Y22.6515316497 Z71.2468550445 A22.6515316497
G1 X71.0205789402 Y22.6589981386 Z71.0205789402 A22.6589981386
G1 X70.7943171500 Y22.6668821177 Z70.7943171500 A22.6668821177
G1 X70.5680611050 Y22.6749335734 Z70.5680611050 A22.6749335734
G1 X70.3418053712 Y22.6829937683 Z70.3418053712 A22.6829937683
G1 X70.1155576528 Y22.6912747348 Z70.1155576528 A22.6912747348
G1 X69.8893132033 Y22.6996456922 Z69.8893132033 A22.6996456922
G1 X69.6630690669 Y22.7080251047 Z69.6630690669 A22.7080251047
G1 X69.4368252271 Y22.7164125227 Z69.4368252271 A22.7164125227
G1 X69.2105844558 Y22.7248811802 Z69.2105844558 A22.7248811802
G1 X68.9843528960 Y22.7335935372 Z68.9843528960 A22.7335935372
G1 X68.7581302497 Y22.7425334120 Z68.7581302497 A22.7425334120
G1 X68.5319108789 Y22.7515567076 Z68.5319108789 A22.7515567076
G1 X68.3056925318 Y22.7606056449 Z68.3056925318 A22.7606056449
G1 X68.0794843760 Y22.7699049917 Z68.0794843760 A22.7699049917
G1 X67.8532793414 Y22.7792808067 Z67.8532793414 A22.7792808067
G1 X67.6270753385 Y22.7886814926 Z67.6270753385 A22.7886814926
G1 X67.4008726525 Y22.7981138049 Z67.4008726525 A22.7981138049
G1 X67.1746757391 Y22.8076821838 Z67.1746757391 A22.8076821838
G1 X66.9484873727 Y22.8174518696 Z66.9484873727 A22.8174518696
G1 X66.7223000532 Y22.8272457600 Z66.7223000532 A22.8272457600
G1 X66.4961141761 Y22.8370728544 Z66.4961141761 A22.8370728544
G1 X66.2699303909 Y22.8469477934 Z66.2699303909 A22.8469477934
G1 X66.0437609591 Y22.8571464188 Z66.0437609591 A22.8571464188
G1 X65.8176009304 Y22.8675501354 Z65.8176009304 A22.8675501354
G1 X65.5914452958 Y22.8780499046 Z65.5914452958 A22.8780499046
G1 X65.3652808192 Y22.8883578315 Z65.3652808192 A22.8883578315
G1 X65.1391288708 Y22.8989359208 Z65.1391288708 A22.8989359208
G1 X64.9129819758 Y22.9096225930 Z64.9129819758 A22.9096225930
G1 X64.6868369099 Y22.9203479377 Z64.6868369099 A22.9203479377
G1 X64.4607088726 Y22.9314260643 Z64.4607088726 A22.9314260643
G1 X64.2345757459 Y22.9423995536 Z64.2345757459 A22.9423995536
G1 X64.0084397001 Y22.9533125830 Z64.0084397001 A22.9533125830
G1 X63.7823197895 Y22.9645557976 Z63.7823197895 A22.9645557976
G1 X63.5562028561 Y22.9758586791 Z63.5562028561 A22.9758586791
G1 X63.3300887349 Y22.9872176346 Z63.3300887349 A22.9872176346
G1 X63.1039781508 Y22.9986466737 Z63.1039781508 A22.9986466737
G1 X62.8778874083 Y23.0104619167 Z62.8778874083 A23.0104619167
G1 X62.6517883108 Y23.0221156613 Z62.6517883108 A23.0221156613
G1 X62.4256873964 Y23.0337344949 Z62.4256873964 A23.0337344949
G1 X62.1995907572 Y23.0454362400 Z62.1995907572 A23.0454362400
G1 X61.9735153418 Y23.0575412157 Z61.9735153418 A23.0575412157
G1 X61.7474438990 Y23.0697200576 Z61.7474438990 A23.0697200576
G1 X61.5213698348 Y23.0818498196 Z61.5213698348 A23.0818498196
G1 X61.2952914978 Y23.0938993642 Z61.2952914978 A23.0938993642
G1 X61.0692346090 Y23.1063455235 Z61.0692346090 A23.1063455235
G1 X60.8431836445 Y23.1188987184 Z60.8431836445 A23.1188987184
G1 X60.6171276490 Y23.1313606586 Z60.6171276490 A23.1313606586
G1 X60.3910741008 Y23.1438655828 Z60.3910741008 A23.1438655828
G1 X60.1650389397 Y23.1567002458 Z60.1650389397 A23.1567002458
G1 X59.9390124237 Y23.1696863122 Z59.9390124237 A23.1696863122
G1 X59.7129750543 Y23.1824817718 Z59.7129750543 A23.1824817718
G1 X59.4869542732 Y23.1955646213 Z59.4869542732 A23.1955646213
G1 X59.2609406090 Y23.2087720623 Z59.2609406090 A23.2087720623
G1 X59.0349215421 Y23.2218869929 Z59.0349215421 A23.2218869929
G1 X58.8089097590 Y23.2351269282 Z58.8089097590 A23.2351269282
G1 X58.5829089351 Y23.2485527030 Z58.5829089351 A23.2485527030
G1 X58.3569176719 Y23.2621383477 Z58.3569176719 A23.2621383477
G1 X58.1309176446 Y23.2755771941 Z58.1309176446 A23.2755771941
G1 X57.9049377630 Y23.2893477432 Z57.9049377630 A23.2893477432
G1 X57.6789647931 Y23.3032340116 Z57.6789647931 A23.3032340116
G1 X57.4529812208 Y23.3169468899 Z57.4529812208 A23.3169468899
G1 X57.2270051767 Y23.3307805309 Z57.2270051767 A23.3307805309
G1 X57.0010499230 Y23.3449523597 Z57.0010499230 A23.3449523597
G1 X56.7750839240 Y23.3589518168 Z56.7750839240 A23.3589518168
G1 X56.5491185659 Y23.3729591684 Z56.5491185659 A23.3729591684
G1 X56.3231772318 Y23.3873492264 Z56.3231772318 A23.3873492264
G1 X56.0972154653 Y23.4014139306 Z56.0972154653 A23.4014139306
G1 X55.8712789983 Y23.4158799961 Z55.8712789983 A23.4158799961
G1 X55.6453271356 Y23.4301022714 Z55.6453271356 A23.4301022714
G1 X55.4194033424 Y23.4447671109 Z55.4194033424 A23.4447671109
G1 X55.1934679779 Y23.4592525446 Z55.1934679779 A23.4592525446
G1 X54.9675204468 Y23.4735469295 Z54.9675204468 A23.4735469295
G1 X54.7416029525 Y23.4883037444 Z54.7416029525 A23.4883037444
G1 X54.5156687800 Y23.5028057376 Z54.5156687800 A23.5028057376
G1 X54.2897455515 Y23.5174792442 Z54.2897455515 A23.5174792442
G1 X54.0638215849 Y23.5321404408 Z54.0638215849 A23.5321404408
G1 X53.8379082263 Y23.5469651631 Z53.8379082263 A23.5469651631
G1 X53.6119838118 Y23.5616201951 Z53.6119838118 A23.5616201951
G1 X53.3860777186 Y23.5765552969 Z53.3860777186 A23.5765552969
G1 X53.1601568614 Y23.5912651441 Z53.1601568614 A23.5912651441
G1 X52.9342324735 Y23.6059192883 Z52.9342324735 A23.6059192883
G1 X52.7083188671 Y23.6207400502 Z52.7083188671 A23.6207400502
G1 X52.4823852547 Y23.6352526284 Z52.4823852547 A23.6352526284
G1 X52.2564758690 Y23.6501371128 Z52.2564758690 A23.6501371128
G1 X52.0305465293 Y23.6647157517 Z52.0305465293 A23.6647157517
G1 X51.8046127185 Y23.6792206402 Z51.8046127185 A23.6792206402
G1 X51.5786776563 Y23.6937093091 Z51.5786776563 A23.6937093091
G1 X51.3527366180 Y23.7080997222 Z51.3527366180 A23.7080997222
G1 X51.1267563710 Y23.7218554052 Z51.1267563710 A23.7218554052
G1 X51.0253570999 Y23.7297900000 Z51.0253570999 A23.7297900000
G4 P1.0000
G1 X51.0000000000 Y25.0000523851 Z51.0000000000 A25.0000523851
G1 X50.0000000000 Y25.0000523851 Z50.0000000000 A25.0000523851
G4 P1.0000
G1 Y55.0000000000 A55.0000000000
G4 P2.0000
G0 Y60.0000000000 A60.0000000000
G0 X49.8500000000 Z49.8500000000
G0 Y50.0000000000 A50.0000000000
G1 X49.8500000000 Y0.0000000000 Z49.8500000000 A0.0000000000
G1 X49.8500000000 Y50.0000000000 Z49.8500000000 A50.0000000000
G0 Y55.0000000000 A55.0000000000
G0 Y60.0000000000 A60.0000000000
G0 X0.0000000000 Z0.0000000000
G0 Y0.0000000000 A0.0000000000
M5
M30