;Generated: 2021-07-24T15:15:27.243490
;[Project]
;Name = Windburner_tip3
;Units = millimeters
;
;[RootChord]
;Profile = http://airfoiltools.com/airfoil/seligdatfile?airfoil=pw51-pw
;Width = 91
;LeadingEdgeOffset = 0
;Rotation = 0
;RotationPosition = 0.5
;
;[TipChord]
;Profile = http://airfoiltools.com/airfoil/seligdatfile?airfoil=pw51-pw
;Width = 91
;LeadingEdgeOffset = 0
;Rotation = 0
;RotationPosition = 0.5
;
;[Wing]
;TipChordSide = right
;Width = 25
;Inverted = no
;VerticalAlignProfiles = default
;Dihedral = 1
;StockLeadingEdge = 0
;StockTrailingEdge = 0.1
;
;[Placement]
;RootChordOffset = 300
;HorizontalOffset = 50
;VerticalOffsetRoot = 25
;RotateWing = no
;
;[Panel]
;Bottom = 0
;Height = 50
;Inset = 0
;Depth = 450
;SafeHeight = 60
;
;[Machine]
;Width = 1490
;Height = 400
;Depth = 490
;Feedrate = 160
;Kerf = 1.25,1.25
;
;[Gcode]
;GcodeWireOn = M3 S110
;GcodeWireOff = M5
;AxisMapping = X,Y,Z,A
;ConfigAsComment = yes
;InterpolationPoints = 200
;
;
G17
G21
G90
G64 P0.50
G54
M3 S110
G1 F160.0
G0 Y60.0000000000 A60.0000000000
G0 X50.0000000000 Z50.0000000000
G0 Y55.0000000000 A55.0000000000
G1 X50.0000000000 Y25.0000713932 Z50.0000000000 A25.0000713932
G4 P1.0000
G1 X51.0000000000 Y25.0000713932 Z51.0000000000 A25.0000713932
G4 P1.0000
G4 P1.0000
G1 X51.0000000000 Y26.2925127805 Z51.0000000000 A26.2925127805
G4 P1.0000
G1 X51.4725548204 Y26.3058181978 Z51.4725548204 A26.3058181978
G1 X51.9449016482 Y26.3257976388 Z51.9449016482 A26.3257976388
G1 X52.4170264257 Y26.3500375779 Z52.4170264257 A26.3500375779
G1 X52.8888910595 Y26.3792689181 Z52.8888910595 A26.3792689181
G1 X53.3607556932 Y26.4085002583 Z53.3607556932 A26.4085002583
G1 X53.8324622723 Y26.4400118121 Z53.8324622723 A26.4400118121
G1 X54.3038472851 Y26.4761625183 Z54.3038472851 A26.4761625183
G1 X54.7752322979 Y26.5123132245 Z54.7752322979 A26.5123132245
G1 X55.2466173106 Y26.5484639307 Z55.2466173106 A26.5484639307
G1 X55.7179799912 Y26.5848877273 Z55.7179799912 A26.5848877273
G1 X56.1889755459 Y26.6258009441 Z56.1889755459 A26.6258009441
G1 X56.6599711006 Y26.6667141609 Z56.6599711006 A26.6667141609
G1 X57.1309666553 Y26.7076273777 Z57.1309666553 A26.7076273777
G1 X57.6019622099 Y26.7485405945 Z57.6019622099 A26.7485405945
G1 X58.0729577646 Y26.7894538113 Z58.0729577646 A26.7894538113
G1 X58.5437310358 Y26.8328255603 Z58.5437310358 A26.8328255603
G1 X59.0144268914 Y26.8770535536 Z59.0144268914 A26.8770535536
G1 X59.4851227469 Y26.9212815470 Z59.4851227469 A26.9212815470
G1 X59.9558186025 Y26.9655095403 Z59.9558186025 A26.9655095403
G1 X60.4265144581 Y27.0097375337 Z60.4265144581 A27.0097375337
G1 X60.8972103136 Y27.0539655270 Z60.8972103136 A27.0539655270
G1 X61.3677921418 Y27.0993740857 Z61.3677921418 A27.0993740857
G1 X61.8382516009 Y27.1460495735 Z61.8382516009 A27.1460495735
G1 X62.3087110600 Y27.1927250613 Z62.3087110600 A27.1927250613
G1 X62.7791705191 Y27.2394005491 Z62.7791705191 A27.2394005491
G1 X63.2496299782 Y27.2860760370 Z63.2496299782 A27.2860760370
G1 X63.7200894373 Y27.3327515248 Z63.7200894373 A27.3327515248
G1 X64.1905488964 Y27.3794270126 Z64.1905488964 A27.3794270126
G1 X64.6609529529 Y27.4266522518 Z64.6609529529 A27.4266522518
G1 X65.1312655008 Y27.4747855160 Z65.1312655008 A27.4747855160
G1 X65.6015780487 Y27.5229187801 Z65.6015780487 A27.5229187801
G1 X66.0718905966 Y27.5710520443 Z66.0718905966 A27.5710520443
G1 X66.5422031445 Y27.6191853084 Z66.5422031445 A27.6191853084
G1 X67.0125156924 Y27.6673185726 Z67.0125156924 A27.6673185726
G1 X67.4828282403 Y27.7154518368 Z67.4828282403 A27.7154518368
G1 X67.9531407882 Y27.7635851009 Z67.9531407882 A27.7635851009
G1 X68.4234243215 Y27.8120003139 Z68.4234243215 A27.8120003139
G1 X68.8936828120 Y27.8606588787 Z68.8936828120 A27.8606588787
G1 X69.3639413025 Y27.9093174436 Z69.3639413025 A27.9093174436
G1 X69.8341997930 Y27.9579760084 Z69.8341997930 A27.9579760084
G1 X70.3044582835 Y28.0066345732 Z70.3044582835 A28.0066345732
G1 X70.7747167741 Y28.0552931380 Z70.7747167741 A28.0552931380
G1 X71.2449752646 Y28.1039517028 Z71.2449752646 A28.1039517028
G1 X71.7152337551 Y28.1526102676 Z71.7152337551 A28.1526102676
G1 X72.1854919174 Y28.2012720026 Z72.1854919174 A28.2012720026
G1 X72.6557454694 Y28.2499782724 Z72.6557454694 A28.2499782724
G1 X73.1259990213 Y28.2986845422 Z73.1259990213 A28.2986845422
G1 X73.5962525732 Y28.3473908120 Z73.5962525732 A28.3473908120
G1 X74.0665061252 Y28.3960970818 Z74.0665061252 A28.3960970818
G1 X74.5367596771 Y28.4448033516 Z74.5367596771 A28.4448033516
G1 X75.0070132291 Y28.4935096214 Z75.0070132291 A28.4935096214
G1 X75.4772667810 Y28.5422158912 Z75.4772667810 A28.5422158912
G1 X75.9475203330 Y28.5909221610 Z75.9475203330 A28.5909221610
G1 X76.4177766531 Y28.6396016091 Z76.4177766531 A28.6396016091
G1 X76.8880652871 Y28.6879679678 Z76.8880652871 A28.6879679678
G1 X77.3583539210 Y28.7363343264 Z77.3583539210 A28.7363343264
G1 X77.8286425549 Y28.7847006851 Z77.8286425549 A28.7847006851
G1 X78.2989311888 Y28.8330670438 Z78.2989311888 A28.8330670438
G1 X78.7692198227 Y28.8814334024 Z78.7692198227 A28.8814334024
G1 X79.2395084566 Y28.9297997611 Z79.2395084566 A28.9297997611
G1 X79.7097970905 Y28.9781661198 Z79.7097970905 A28.9781661198
G1 X80.1800857244 Y29.0265324784 Z80.1800857244 A29.0265324784
G1 X80.6503743583 Y29.0748988371 Z80.6503743583 A29.0748988371
G1 X81.1207442702 Y29.1224651488 Z81.1207442702 A29.1224651488
G1 X81.5911513603 Y29.1696655025 Z81.5911513603 A29.1696655025
G1 X82.0615584505 Y29.2168658563 Z82.0615584505 A29.2168658563
G1 X82.5319655406 Y29.2640662100 Z82.5319655406 A29.2640662100
G1 X83.0023726307 Y29.3112665637 Z83.0023726307 A29.3112665637
G1 X83.4727797208 Y29.3584669174 Z83.4727797208 A29.3584669174
G1 X83.9431868110 Y29.4056672711 Z83.9431868110 A29.4056672711
G1 X84.4135939011 Y29.4528676248 Z84.4135939011 A29.4528676248
G1 X84.8840009912 Y29.5000679786 Z84.8840009912 A29.5000679786
G1 X85.3544080813 Y29.5472683323 Z85.3544080813 A29.5472683323
G1 X85.8250128768 Y29.5924548998 Z85.8250128768 A29.5924548998
G1 X86.2956178848 Y29.6376393032 Z86.2956178848 A29.6376393032
G1 X86.7662228928 Y29.6828237065 Z86.7662228928 A29.6828237065
G1 X87.2368279007 Y29.7280081098 Z87.2368279007 A29.7280081098
G1 X87.7074329087 Y29.7731925132 Z87.7074329087 A29.7731925132
G1 X88.1780379167 Y29.8183769165 Z88.1780379167 A29.8183769165
G1 X88.6486429247 Y29.8635613198 Z88.6486429247 A29.8635613198
G1 X89.1192479326 Y29.9087457232 Z89.1192479326 A29.9087457232
G1 X89.5898529406 Y29.9539301265 Z89.5898529406 A29.9539301265
G1 X90.0604953524 Y29.9987117190 Z90.0604953524 A29.9987117190
G1 X90.5313738715 Y30.0409506119 Z90.5313738715 A30.0409506119
G1 X91.0022523906 Y30.0831895048 Z91.0022523906 A30.0831895048
G1 X91.4731309097 Y30.1254283976 Z91.4731309097 A30.1254283976
G1 X91.9440094288 Y30.1676672905 Z91.9440094288 A30.1676672905
G1 X92.4148879479 Y30.2099061834 Z92.4148879479 A30.2099061834
G1 X92.8857664670 Y30.2521450763 Z92.8857664670 A30.2521450763
G1 X93.3566449861 Y30.2943839692 Z93.3566449861 A30.2943839692
G1 X93.8275235052 Y30.3366228621 Z93.8275235052 A30.3366228621
G1 X94.2984020244 Y30.3788617550 Z94.2984020244 A30.3788617550
G1 X94.7693535024 Y30.4202450793 Z94.7693535024 A30.4202450793
G1 X95.2405849718 Y30.4583450285 Z95.2405849718 A30.4583450285
G1 X95.7118164411 Y30.4964449778 Z95.7118164411 A30.4964449778
G1 X96.1830479105 Y30.5345449270 Z96.1830479105 A30.5345449270
G1 X96.6542793798 Y30.5726448762 Z96.6542793798 A30.5726448762
G1 X97.1255108492 Y30.6107448254 Z97.1255108492 A30.6107448254
G1 X97.5967423185 Y30.6488447746 Z97.5967423185 A30.6488447746
G1 X98.0679737879 Y30.6869447238 Z98.0679737879 A30.6869447238
G1 X98.5392052572 Y30.7250446730 Z98.5392052572 A30.7250446730
G1 X99.0104367266 Y30.7631446222 Z99.0104367266 A30.7631446222
G1 X99.4817946659 Y30.7995621608 Z99.4817946659 A30.7995621608
G1 X99.9534262809 Y30.8323390363 Z99.9534262809 A30.8323390363
G1 X100.4250578959 Y30.8651159118 Z100.4250578959 A30.8651159118
G1 X100.8966895109 Y30.8978927872 Z100.8966895109 A30.8978927872
G1 X101.3683211259 Y30.9306696627 Z101.3683211259 A30.9306696627
G1 X101.8399527409 Y30.9634465381 Z101.8399527409 A30.9634465381
G1 X102.3115843559 Y30.9962234136 Z102.3115843559 A30.9962234136
G1 X102.7832159709 Y31.0290002890 Z102.7832159709 A31.0290002890
G1 X103.2548475859 Y31.0617771645 Z103.2548475859 A31.0617771645
G1 X103.7264792009 Y31.0945540399 Z103.7264792009 A31.0945540399
G1 X104.1983516786 Y31.1234588170 Z104.1983516786 A31.1234588170
G1 X104.6704095101 Y31.1493838543 Z104.6704095101 A31.1493838543
G1 X105.1424673416 Y31.1753088916 Z105.1424673416 A31.1753088916
G1 X105.6145251731 Y31.2012339290 Z105.6145251731 A31.2012339290
G1 X106.0865830046 Y31.2271589663 Z106.0865830046 A31.2271589663
G1 X106.5586408361 Y31.2530840036 Z106.5586408361 A31.2530840036
G1 X107.0306986676 Y31.2790090410 Z107.0306986676 A31.2790090410
G1 X107.5027564991 Y31.3049340783 Z107.5027564991 A31.3049340783
G1 X107.9748143306 Y31.3308591156 Z107.9748143306 A31.3308591156
G1 X108.4468897802 Y31.3564016992 Z108.4468897802 A31.3564016992
G1 X108.9193318347 Y31.3739860381 Z108.9193318347 A31.3739860381
G1 X109.3917738892 Y31.3915703770 Z109.3917738892 A31.3915703770
G1 X109.8642159437 Y31.4091547159 Z109.8642159437 A31.4091547159
G1 X110.3366579982 Y31.4267390548 Z110.3366579982 A31.4267390548
G1 X110.8091000527 Y31.4443233937 Z110.8091000527 A31.4443233937
G1 X111.2815421072 Y31.4619077326 Z111.2815421072 A31.4619077326
G1 X111.7539841617 Y31.4794920715 Z111.7539841617 A31.4794920715
G1 X112.2264262162 Y31.4970764104 Z112.2264262162 A31.4970764104
G1 X112.6988682707 Y31.5146607493 Z112.6988682707 A31.5146607493
G1 X113.1715288361 Y31.5241392503 Z113.1715288361 A31.5241392503
G1 X113.6442321110 Y31.5320334074 Z113.6442321110 A31.5320334074
G1 X114.1169353859 Y31.5399275645 Z114.1169353859 A31.5399275645
G1 X114.5896386608 Y31.5478217216 Z114.5896386608 A31.5478217216
G1 X115.0623419357 Y31.5557158787 Z115.0623419357 A31.5557158787
G1 X115.5350452106 Y31.5636100357 Z115.5350452106 A31.5636100357
G1 X116.0077484856 Y31.5715041928 Z116.0077484856 A31.5715041928
G1 X116.4804517605 Y31.5793983499 Z116.4804517605 A31.5793983499
G1 X116.9531560361 Y31.5870645995 Z116.9531560361 A31.5870645995
G1 X117.4259104079 Y31.5833218955 Z117.4259104079 A31.5833218955
G1 X117.8986647796 Y31.5795791916 Z117.8986647796 A31.5795791916
G1 X118.3714191513 Y31.5758364877 Z118.3714191513 A31.5758364877
G1 X118.8441735231 Y31.5720937838 Z118.8441735231 A31.5720937838
G1 X119.3169278948 Y31.5683510799 Z119.3169278948 A31.5683510799
G1 X119.7896822666 Y31.5646083759 Z119.7896822666 A31.5646083759
G1 X120.2624366383 Y31.5608656720 Z120.2624366383 A31.5608656720
G1 X120.7351910100 Y31.5571229681 Z120.7351910100 A31.5571229681
G1 X121.2077364294 Y31.5441068817 Z121.2077364294 A31.5441068817
G1 X121.6801795771 Y31.5265519369 Z121.6801795771 A31.5265519369
G1 X122.1526227247 Y31.5089969921 Z122.1526227247 A31.5089969921
G1 X122.6250658723 Y31.4914420473 Z122.6250658723 A31.4914420473
G1 X123.0975090200 Y31.4738871025 Z123.0975090200 A31.4738871025
G1 X123.5699521676 Y31.4563321577 Z123.5699521676 A31.4563321577
G1 X124.0423953152 Y31.4387772129 Z124.0423953152 A31.4387772129
G1 X124.5148384629 Y31.4212222681 Z124.5148384629 A31.4212222681
G1 X124.9864742203 Y31.3890546836 Z124.9864742203 A31.3890546836
G1 X125.4579755416 Y31.3544539919 Z125.4579755416 A31.3544539919
G1 X125.9294768628 Y31.3198533001 Z125.9294768628 A31.3198533001
G1 X126.4009781841 Y31.2852526084 Z126.4009781841 A31.2852526084
G1 X126.8724795054 Y31.2506519166 Z126.8724795054 A31.2506519166
G1 X127.3439808266 Y31.2160512248 Z127.3439808266 A31.2160512248
G1 X127.8154821479 Y31.1814505331 Z127.8154821479 A31.1814505331
G1 X128.2858133977 Y31.1344788276 Z128.2858133977 A31.1344788276
G1 X128.7554408499 Y31.0800659619 Z128.7554408499 A31.0800659619
G1 X129.2250683021 Y31.0256530962 Z129.2250683021 A31.0256530962
G1 X129.6946957544 Y30.9712402306 Z129.6946957544 A30.9712402306
G1 X130.1643232066 Y30.9168273649 Z130.1643232066 A30.9168273649
G1 X130.6339506588 Y30.8624144992 Z130.6339506588 A30.8624144992
G1 X131.1035441152 Y30.8077618246 Z131.1035441152 A30.8077618246
G1 X131.5697911247 Y30.7295030876 Z131.5697911247 A30.7295030876
G1 X132.0360381343 Y30.6512443505 Z132.0360381343 A30.6512443505
G1 X132.5022851438 Y30.5729856135 Z132.5022851438 A30.5729856135
G1 X132.9685321534 Y30.4947268764 Z132.9685321534 A30.4947268764
G1 X133.4347791629 Y30.4164681394 Z133.4347791629 A30.4164681394
G1 X133.9007663877 Y30.3369043561 Z133.9007663877 A30.3369043561
G1 X134.3614402578 Y30.2306485836 Z134.3614402578 A30.2306485836
G1 X134.8221141280 Y30.1243928112 Z134.8221141280 A30.1243928112
G1 X135.2827879981 Y30.0181370387 Z135.2827879981 A30.0181370387
G1 X135.7434618683 Y29.9118812662 Z135.7434618683 A29.9118812662
G1 X136.2041357385 Y29.8056254938 Z136.2041357385 A29.8056254938
G1 X136.6577498640 Y29.6733297771 Z136.6577498640 A29.6733297771
G1 X137.1090094543 Y29.5323493317 Z137.1090094543 A29.5323493317
G1 X137.5602690447 Y29.3913688863 Z137.5602690447 A29.3913688863
G1 X138.0115286350 Y29.2503884409 Z138.0115286350 A29.2503884409
G1 X138.4608828303 Y29.1042101130 Z138.4608828303 A29.1042101130
G1 X138.8963479530 Y28.9201426505 Z138.8963479530 A28.9201426505
G1 X139.3318130757 Y28.7360751880 Z139.3318130757 A28.7360751880
G1 X139.7672781984 Y28.5520077255 Z139.7672781984 A28.5520077255
G1 X140.1988447439 Y28.3601469772 Z140.1988447439 A28.3601469772
G1 X140.6072832788 Y28.1220531575 Z140.6072832788 A28.1220531575
G1 X141.0157218138 Y27.8839593377 Z141.0157218138 A27.8839593377
G1 X141.4241603487 Y27.6458655180 Z141.4241603487 A27.6458655180
G1 X141.7913622615 Y27.3507127458 Z141.7913622615 A27.3507127458
G1 X142.1455987457 Y27.0376197611 Z142.1455987457 A27.0376197611
G1 X142.4998352299 Y26.7245267764 Z142.4998352299 A26.7245267764
G1 X142.7625421385 Y26.3360689199 Z142.7625421385 A26.3360689199
G1 X143.0018334227 Y25.9283307869 Z143.0018334227 A25.9283307869
G1 X143.1991218871 Y25.5044584482 Z143.1991218871 A25.5044584482
G1 X143.2747471950 Y25.0390434405 Z143.2747471950 A25.0390434405
G4 P1.0000
G1 X143.2747471950 Y24.9858128042 Z143.2747471950 A24.9858128042
G4 P1.0000
G1 X144.2747471950 Y24.9858128042 Z144.2747471950 A24.9858128042
G4 P1.0000
G1 X143.2747471950 Y24.9858128042 Z143.2747471950 A24.9858128042
G1 X143.2702236080 Y24.8868303174 Z143.2702236080 A24.8868303174
G4 P1.0000
G1 X143.1719796099 Y24.4310389602 Z143.1719796099 A24.4310389602
G1 X142.9659680197 Y24.0127763205 Z142.9659680197 A24.0127763205
G1 X142.6628906080 Y23.6575603035 Z142.6628906080 A23.6575603035
G1 X142.2982695485 Y23.3651649757 Z142.2982695485 A23.3651649757
G1 X141.8981724465 Y23.1229549666 Z141.8981724465 A23.1229549666
G1 X141.4765580645 Y22.9202837498 Z141.4765580645 A22.9202837498
G1 X141.0414212367 Y22.7482835110 Z141.0414212367 A22.7482835110
G1 X140.5979429926 Y22.5989682710 Z140.5979429926 A22.5989682710
G1 X140.1485555712 Y22.4684732015 Z140.1485555712 A22.4684732015
G1 X139.6954044004 Y22.3516730693 Z139.6954044004 A22.3516730693
G1 X139.2393367850 Y22.2468082819 Z139.2393367850 A22.2468082819
G1 X138.7811332921 Y22.1516857816 Z138.7811332921 A22.1516857816
G1 X138.3211962458 Y22.0653018557 Z138.3211962458 A22.0653018557
G1 X137.8600395144 Y21.9856901192 Z137.8600395144 A21.9856901192
G1 X137.3976019517 Y21.9138693391 Z137.3976019517 A21.9138693391
G1 X136.9344900168 Y21.8465267955 Z136.9344900168 A21.8465267955
G1 X136.4706407528 Y21.7844804885 Z136.4706407528 A21.7844804885
G1 X136.0061203956 Y21.7276526526 Z136.0061203956 A21.7276526526
G1 X135.5412179171 Y21.6740419945 Z135.5412179171 A21.6740419945
G1 X135.0759053968 Y21.6241260939 Z135.0759053968 A21.6241260939
G1 X134.6102790714 Y21.5772052655 Z134.6102790714 A21.5772052655
G1 X134.1442827157 Y21.5341182645 Z134.1442827157 A21.5341182645
G1 X133.6780280395 Y21.4939122167 Z133.6780280395 A21.4939122167
G1 X133.2116168782 Y21.4556010785 Z133.2116168782 A21.4556010785
G1 X132.7449467689 Y21.4205520293 Z132.7449467689 A21.4205520293
G1 X132.2781470626 Y21.3872730812 Z132.2781470626 A21.3872730812
G1 X131.8112067777 Y21.3560416183 Z131.8112067777 A21.3560416183
G1 X131.3441089846 Y21.3272610985 Z131.3441089846 A21.3272610985
G1 X130.8769172456 Y21.3000229552 Z130.8769172456 A21.3000229552
G1 X130.4096353770 Y21.2744218872 Z130.4096353770 A21.2744218872
G1 X129.9422507504 Y21.2507220912 Z129.9422507504 A21.2507220912
G1 X129.4748195030 Y21.2279809900 Z129.4748195030 A21.2279809900
G1 X129.0073083138 Y21.2069305706 Z129.0073083138 A21.2069305706
G1 X128.5397444075 Y21.1870923274 Z128.5397444075 A21.1870923274
G1 X128.0721120037 Y21.1689273966 Z128.0721120037 A21.1689273966
G1 X127.6044408205 Y21.1517875681 Z127.6044408205 A21.1517875681
G1 X127.1367336649 Y21.1356608506 Z127.1367336649 A21.1356608506
G1 X126.6689966416 Y21.1204285979 Z126.6689966416 A21.1204285979
G1 X126.2012187500 Y21.1065264472 Z126.2012187500 A21.1065264472
G1 X125.7334100819 Y21.0936837513 Z125.7334100819 A21.0936837513
G1 X125.2655808332 Y21.0816123710 Z125.2655808332 A21.0816123710
G1 X124.7977328161 Y21.0702865412 Z124.7977328161 A21.0702865412
G1 X124.3298661308 Y21.0597568618 Z124.3298661308 A21.0597568618
G1 X123.8619699059 Y21.0506488712 Z123.8619699059 A21.0506488712
G1 X123.3940598432 Y21.0422748608 Z123.3940598432 A21.0422748608
G1 X122.9261390526 Y21.0345235071 Z122.9261390526 A21.0345235071
G1 X122.4582085658 Y21.0273759676 Z122.4582085658 A21.0273759676
G1 X121.9902679858 Y21.0209166326 Z121.9902679858 A21.0209166326
G1 X121.5223186665 Y21.0151305466 Z121.5223186665 A21.0151305466
G1 X121.0543629737 Y21.0098924514 Z121.0543629737 A21.0098924514
G1 X120.5863999613 Y21.0053869659 Z120.5863999613 A21.0053869659
G1 X120.1184277638 Y21.0019038956 Z120.1184277638 A21.0019038956
G1 X119.6504553324 Y20.9984524058 Z119.6504553324 A20.9984524058
G1 X119.1824797645 Y20.9954756317 Z119.1824797645 A20.9954756317
G1 X118.7145006470 Y20.9931861537 Z118.7145006470 A20.9931861537
G1 X118.2465174508 Y20.9918306382 Z118.2465174508 A20.9918306382
G1 X117.7785342217 Y20.9904865038 Z117.7785342217 A20.9904865038
G1 X117.3105498021 Y20.9899708507 Z117.3105498021 A20.9899708507
G1 X116.8425647565 Y20.9901314707 Z116.8425647565 A20.9901314707
G1 X116.3745800637 Y20.9907922399 Z116.3745800637 A20.9907922399
G1 X115.9065953654 Y20.9914491477 Z115.9065953654 A20.9914491477
G1 X115.4386123803 Y20.9927199052 Z115.4386123803 A20.9927199052
G1 X114.9706315221 Y20.9947197306 Z114.9706315221 A20.9947197306
G1 X114.5026535039 Y20.9973050437 Z114.5026535039 A20.9973050437
G1 X114.0346754225 Y20.9998788807 Z114.0346754225 A20.9998788807
G1 X113.5666982420 Y21.0025984791 Z113.5666982420 A21.0025984791
G1 X113.0987239739 Y21.0057912442 Z113.0987239739 A21.0057912442
G1 X112.6307579487 Y21.0099950464 Z112.6307579487 A21.0099950464
G1 X112.1627937511 Y21.0144243812 Z112.1627937511 A21.0144243812
G1 X111.6948294173 Y21.0188393187 Z111.6948294173 A21.0188393187
G1 X111.2268707305 Y21.0238145355 Z111.2268707305 A21.0238145355
G1 X110.7589123108 Y21.0288171879 Z110.7589123108 A21.0288171879
G1 X110.2909538950 Y21.0338183576 Z110.2909538950 A21.0338183576
G1 X109.8230098813 Y21.0400239591 Z109.8230098813 A21.0400239591
G1 X109.3550703341 Y21.0465509769 Z109.3550703341 A21.0465509769
G1 X108.8871345295 Y21.0533474476 Z108.8871345295 A21.0533474476
G1 X108.4191981342 Y21.0601031341 Z108.4191981342 A21.0601031341
G1 X107.9512727795 Y21.0675608998 Z107.9512727795 A21.0675608998
G1 X107.4833552945 Y21.0755193264 Z107.4833552945 A21.0755193264
G1 X107.0154373433 Y21.0834502976 Z107.0154373433 A21.0834502976
G1 X106.5475254673 Y21.0917271256 Z106.5475254673 A21.0917271256
G1 X106.0796187081 Y21.1002912844 Z106.0796187081 A21.1002912844
G1 X105.6117216340 Y21.1093707921 Z105.6117216340 A21.1093707921
G1 X105.1438314406 Y21.1187939023 Z105.1438314406 A21.1187939023
G1 X104.6759459154 Y21.1284502269 Z104.6759459154 A21.1284502269
G1 X104.2080596933 Y21.1380727279 Z104.2080596933 A21.1380727279
G1 X103.7401805592 Y21.1480296615 Z103.7401805592 A21.1480296615
G1 X103.2723074286 Y21.1582682168 Z103.2723074286 A21.1582682168
G1 X102.8044461915 Y21.1690372549 Z102.8044461915 A21.1690372549
G1 X102.3365847971 Y21.1797994558 Z102.3365847971 A21.1797994558
G1 X101.8687233103 Y21.1905575351 Z101.8687233103 A21.1905575351
G1 X101.4008903356 Y21.2024914006 Z101.4008903356 A21.2024914006
G1 X100.9330570046 Y21.2144112796 Z100.9330570046 A21.2144112796
G1 X100.4652232772 Y21.2263156017 Z100.4652232772 A21.2263156017
G1 X99.9974037710 Y21.2387655431 Z99.9974037710 A21.2387655431
G1 X99.5295849604 Y21.2512423108 Z99.5295849604 A21.2512423108
G1 X99.0617659136 Y21.2637102240 Z99.0617659136 A21.2637102240
G1 X98.5939757955 Y21.2772143095 Z98.5939757955 A21.2772143095
G1 X98.1261896707 Y21.2908616817 Z98.1261896707 A21.2908616817
G1 X97.6584032247 Y21.3044980419 Z97.6584032247 A21.3044980419
G1 X97.1906167934 Y21.3181349088 Z97.1906167934 A21.3181349088
G1 X96.7228397500 Y21.3320806084 Z96.7228397500 A21.3320806084
G1 X96.2550887249 Y21.3468822257 Z96.2550887249 A21.3468822257
G1 X95.7873381443 Y21.3616978827 Z95.7873381443 A21.3616978827
G1 X95.3195877367 Y21.3765189993 Z95.3195877367 A21.3765189993
G1 X94.8518373463 Y21.3913406617 Z94.8518373463 A21.3913406617
G1 X94.3841128016 Y21.4069461240 Z94.3841128016 A21.4069461240
G1 X93.9163997784 Y21.4229023526 Z93.9163997784 A21.4229023526
G1 X93.4486691678 Y21.4383356029 Z93.4486691678 A21.4383356029
G1 X92.9809625944 Y21.4544699293 Z92.9809625944 A21.4544699293
G1 X92.5132733555 Y21.4711097965 Z92.5132733555 A21.4711097965
G1 X92.0455848635 Y21.4877706452 Z92.0455848635 A21.4877706452
G1 X91.5779083085 Y21.5047602747 Z91.5779083085 A21.5047602747
G1 X91.1102429731 Y21.5220589297 Z91.1102429731 A21.5220589297
G1 X90.6425784516 Y21.5393795719 Z90.6425784516 A21.5393795719
G1 X90.1749143241 Y21.5567108472 Z90.1749143241 A21.5567108472
G1 X89.7072506398 Y21.5740540819 Z89.7072506398 A21.5740540819
G1 X89.2396106343 Y21.5920237741 Z89.2396106343 A21.5920237741
G1 X88.7719824017 Y21.6102953562 Z88.7719824017 A21.6102953562
G1 X88.3043682998 Y21.6289276139 Z88.3043682998 A21.6289276139
G1 X87.8367568137 Y21.6476253950 Z87.8367568137 A21.6476253950
G1 X87.3691560773 Y21.6665874365 Z87.3691560773 A21.6665874365
G1 X86.9015713938 Y21.6859439124 Z86.9015713938 A21.6859439124
G1 X86.4339894919 Y21.7053674498 Z86.4339894919 A21.7053674498
G1 X85.9664091733 Y21.7248290437 Z85.9664091733 A21.7248290437
G1 X85.4988307894 Y21.7443371005 Z85.4988307894 A21.7443371005
G1 X85.0312784930 Y21.7644595979 Z85.0312784930 A21.7644595979
G1 X84.5637302050 Y21.7846761037 Z84.5637302050 A21.7846761037
G1 X84.0961832836 Y21.8049242060 Z84.0961832836 A21.8049242060
G1 X83.6286417173 Y21.8252955553 Z83.6286417173 A21.8252955553
G1 X83.1611144405 Y21.8459893630 Z83.1611144405 A21.8459893630
G1 X82.6936043490 Y21.8670707237 Z82.6936043490 A21.8670707237
G1 X82.2261257552 Y21.8888390780 Z82.2261257552 A21.8888390780
G1 X81.7586366845 Y21.9103802163 Z81.7586366845 A21.9103802163
G1 X81.2911388578 Y21.9317311104 Z81.2911388578 A21.9317311104
G1 X80.8236734501 Y21.9537810992 Z80.8236734501 A21.9537810992
G1 X80.3562115107 Y21.9759044168 Z80.3562115107 A21.9759044168
G1 X79.8887583303 Y21.9982101311 Z79.8887583303 A21.9982101311
G1 X79.4213365590 Y22.0211665474 Z79.4213365590 A22.0211665474
G1 X78.9538962052 Y22.0437403100 Z78.9538962052 A22.0437403100
G1 X78.4864621653 Y22.0664424606 Z78.4864621653 A22.0664424606
G1 X78.0190544554 Y22.0896834177 Z78.0190544554 A22.0896834177
G1 X77.5516541016 Y22.1130718026 Z77.5516541016 A22.1130718026
G1 X77.0842595149 Y22.1365749951 Z77.0842595149 A22.1365749951
G1 X76.6168748671 Y22.1602736893 Z76.6168748671 A22.1602736893
G1 X76.1495274460 Y22.1846969843 Z76.1495274460 A22.1846969843
G1 X75.6821612508 Y22.2087573844 Z75.6821612508 A22.2087573844
G1 X75.2147931160 Y22.2327807575 Z75.2147931160 A22.2327807575
G1 X74.7474334012 Y22.2569674450 Z74.7474334012 A22.2569674450
G1 X74.2801176707 Y22.2819897823 Z74.2801176707 A22.2819897823
G1 X73.8128097847 Y22.3071579844 Z73.8128097847 A22.3071579844
G1 X73.3454982171 Y22.3322571373 Z73.3454982171 A22.3322571373
G1 X72.8781719391 Y22.3570815213 Z72.8781719391 A22.3570815213
G1 X72.4108945086 Y22.3828091775 Z72.4108945086 A22.3828091775
G1 X71.9436275438 Y22.4087259214 Z71.9436275438 A22.4087259214
G1 X71.4763554443 Y22.4345493475 Z71.4763554443 A22.4345493475
G1 X71.0090755783 Y22.4602308563 Z71.0090755783 A22.4602308563
G1 X70.5418421256 Y22.4867451920 Z70.5418421256 A22.4867451920
G1 X70.0746245961 Y22.5135383921 Z70.0746245961 A22.5135383921
G1 X69.6073937523 Y22.5400976236 Z69.6073937523 A22.5400976236
G1 X69.1401743452 Y22.5668530194 Z69.1401743452 A22.5668530194
G1 X68.6729935699 Y22.5942794968 Z68.6729935699 A22.5942794968
G1 X68.2057902813 Y22.6213201425 Z68.2057902813 A22.6213201425
G1 X67.7386032728 Y22.6486404809 Z67.7386032728 A22.6486404809
G1 X67.2714348257 Y22.6762759233 Z67.2714348257 A22.6762759233
G1 X66.8042849648 Y22.7042237781 Z66.8042849648 A22.7042237781
G1 X66.3371356335 Y22.7321802360 Z66.3371356335 A22.7321802360
G1 X65.8699852938 Y22.7601158536 Z65.8699852938 A22.7601158536
G1 X65.4028937168 Y22.7890217914 Z65.4028937168 A22.7890217914
G1 X64.9357761251 Y22.8175045025 Z64.9357761251 A22.8175045025
G1 X64.4686398389 Y22.8456788808 Z64.4686398389 A22.8456788808
G1 X64.0015683550 Y22.8749047576 Z64.0015683550 A22.8749047576
G1 X63.5344898336 Y22.9040207412 Z63.5344898336 A22.9040207412
G1 X63.0673894477 Y22.9327837214 Z63.0673894477 A22.9327837214
G1 X62.6003386815 Y22.9623348903 Z62.6003386815 A22.9623348903
G1 X62.1332669241 Y22.9915530983 Z62.1332669241 A22.9915530983
G1 X61.6662225010 Y23.0212027234 Z61.6662225010 A23.0212027234
G1 X61.1991645478 Y23.0506408512 Z61.1991645478 A23.0506408512
G1 X60.7321367590 Y23.0805516263 Z60.7321367590 A23.0805516263
G1 X60.2651273553 Y23.1107559607 Z60.2651273553 A23.1107559607
G1 X59.7980942450 Y23.1405915109 Z59.7980942450 A23.1405915109
G1 X59.3310362743 Y23.1700354066 Z59.3310362743 A23.1700354066
G1 X58.8640710732 Y23.2009119083 Z58.8640710732 A23.2009119083
G1 X58.3970392798 Y23.2307671912 Z58.3970392798 A23.2307671912
G1 X57.9300341855 Y23.2610379196 Z57.9300341855 A23.2610379196
G1 X57.4630412506 Y23.2914935782 Z57.4630412506 A23.2914935782
G1 X56.9960569394 Y23.3220834901 Z56.9960569394 A23.3220834901
G1 X56.5290569652 Y23.3524319290 Z56.5290569652 A23.3524319290
G1 X56.0620892158 Y23.3832736789 Z56.0620892158 A23.3832736789
G1 X55.5950885691 Y23.4136127282 Z55.5950885691 A23.4136127282
G1 X55.1280892252 Y23.4439687256 Z55.1280892252 A23.4439687256
G1 X54.6611057761 Y23.4745713223 Z54.6611057761 A23.4745713223
G1 X54.1940824681 Y23.5045594691 Z54.1940824681 A23.5045594691
G1 X53.7271108109 Y23.5353406460 Z53.7271108109 A23.5353406460
G1 X53.2600982597 Y23.5654952397 Z53.2600982597 A23.5654952397
G1 X52.7930714645 Y23.5954199510 Z52.7930714645 A23.5954199510
G1 X52.3260534763 Y23.6254883692 Z52.3260534763 A23.6254883692
G1 X51.8590082701 Y23.6551208644 Z51.8590082701 A23.6551208644
G1 X51.3919194965 Y23.6840538979 Z51.3919194965 A23.6840538979
G1 X51.0253570999 Y23.7072300000 Z51.0253570999 A23.7072300000
G4 P1.0000
G1 X51.0000000000 Y25.0000713932 Z51.0000000000 A25.0000713932
G1 X50.0000000000 Y25.0000713932 Z50.0000000000 A25.0000713932
G4 P1.0000
G1 Y55.0000000000 A55.0000000000
G4 P2.0000
G0 Y60.0000000000 A60.0000000000
G0 X49.8500000000 Z49.8500000000
G0 Y50.0000000000 A50.0000000000
G1 X49.8500000000 Y0.0000000000 Z49.8500000000 A0.0000000000
G1 X49.8500000000 Y50.0000000000 Z49.8500000000 A50.0000000000
G0 Y55.0000000000 A55.0000000000
G0 Y60.0000000000 A60.0000000000
G0 X0.0000000000 Z0.0000000000
G0 Y0.0000000000 A0.0000000000
M5
M30