;Generated: 2022-01-18T16:17:26.901183
;[Project]
;Name = dlg_right
;Units = millimeters
;
;[RootChord]
;Profile = http://airfoiltools.com/airfoil/seligdatfile?airfoil=ag03-il
;Width = 155
;LeadingEdgeOffset = 0
;Rotation = 0
;RotationPosition = 0.5
;
;[TipChord]
;Profile = http://airfoiltools.com/airfoil/seligdatfile?airfoil=ag11-il
;Width = 85
;LeadingEdgeOffset = 70
;Rotation = 0
;RotationPosition = 0.5
;
;[Wing]
;TipChordSide = left
;Width = 515
;Inverted = no
;VerticalAlignProfiles = default
;StockLeadingEdge = 0
;StockTrailingEdge = 0.1
;StockTrailingEdgeAngle = 0
;
;[Placement]
;RootChordOffset = 300
;HorizontalOffset = 60
;VerticalOffsetRoot = 25
;RotateWing = no
;
;[Panel]
;Bottom = 0
;Height = 50
;Inset = 0
;Depth = 450
;SafeHeight = 60
;
;[Machine]
;Width = 1490
;Height = 400
;Depth = 490
;Feedrate = 160
;Kerf = 1.0,1.0
;
;[Gcode]
;GcodeWireOn = M3 S105
;GcodeWireOff = M5
;AxisMapping = X,Y,Z,A
;ConfigAsComment = yes
;InterpolationPoints = 200
;
;
G17
G21
G90
G64 P0.50
G54
M3 S105
G1 F160.0
G0 Y60.0000000000 A60.0000000000
G0 X60.0058159794 Z59.9985337867
G0 Y55.0000000000 A55.0000000000
G1 X60.0058159794 Y24.9979703954 Z59.9985337867 A25.0089364493
G4 P1.0000
G1 X61.0058159794 Y24.9979703954 Z60.9985337867 A25.0089364493
G4 P1.0000
G4 P1.0000
G1 X61.0058159794 Y26.1005202838 Z60.9985337867 A26.0960397673
G4 P1.0000
G1 X60.9792176085 Y26.0956808381 Z61.9943104889 A26.2030173203
G1 X60.9526031439 Y26.0909551174 Z62.9903153028 A26.3078492120
G1 X60.9259981639 Y26.0861318633 Z63.9863368673 A26.4125200960
G1 X60.8993311231 Y26.0818602791 Z64.9827284810 A26.5136077617
G1 X60.8726640823 Y26.0775886949 Z65.9791200948 A26.6146954274
G1 X60.8459903164 Y26.0733583420 Z66.9756864624 A26.7140401166
G1 X60.8192957281 Y26.0693307994 Z67.9723140711 A26.8127731135
G1 X60.7926004037 Y26.0653105386 Z68.9689437590 A26.9114850866
G1 X60.7659027241 Y26.0613139042 Z69.9655779020 A27.0101519751
G1 X60.7392050445 Y26.0573172697 Z70.9622120449 A27.1088188637
G1 X60.7125160732 Y26.0532399757 Z71.9587883355 A27.2080683539
G1 X60.6858357848 Y26.0490750216 Z72.9553537651 A27.3074275501
G1 X60.6591482929 Y26.0449847947 Z73.9519134177 A27.4068442829
G1 X60.6324607458 Y26.0408969789 Z74.9484613141 A27.5063787981
G1 X60.6057736010 Y26.0368050619 Z75.9450091091 A27.6059143473
G1 X60.5791010035 Y26.0325665273 Z76.9415426105 A27.7055935732
G1 X60.5524294293 Y26.0283177164 Z77.9380748763 A27.8052852067
G1 X60.5257445198 Y26.0242039714 Z78.9346159253 A27.9048883452
G1 X60.4990483642 Y26.0202037602 Z79.9311667608 A28.0043930489
G1 X60.4723611842 Y26.0161119264 Z80.9277153335 A28.1039208509
G1 X60.4456815712 Y26.0119391200 Z81.9242864966 A28.2032225533
G1 X60.4190009214 Y26.0077767456 Z82.9208589115 A28.3025116601
G1 X60.3923353100 Y26.0034556198 Z83.9174547891 A28.4015653785
G1 X60.3656526512 Y25.9993047041 Z84.9140838718 A28.5002840702
G1 X60.3389828091 Y25.9950214842 Z85.9107104096 A28.5990291362
G1 X60.3122747276 Y25.9911230130 Z86.9074101762 A28.6970305563
G1 X60.2855666461 Y25.9872245417 Z87.9041099428 A28.7950319764
G1 X60.2588870344 Y25.9830253938 Z88.9008380639 A28.8927453528
G1 X60.2321843149 Y25.9790616282 Z89.8976026038 A28.9900861161
G1 X60.2055107849 Y25.9747915011 Z90.8943654379 A29.0874457459
G1 X60.1787966494 Y25.9709342458 Z91.8912203593 A29.1838561701
G1 X60.1520825139 Y25.9670769905 Z92.8880752806 A29.2802665943
G1 X60.1253895212 Y25.9629891646 Z93.8849779708 A29.3761815374
G1 X60.0986586120 Y25.9592966190 Z94.8819267090 A29.4716163952
G1 X60.0719656114 Y25.9551986773 Z95.8788765426 A29.5670412837
G1 X60.0452310172 Y25.9515337272 Z96.8759142397 A29.6615422218
G1 X60.0185080717 Y25.9477432692 Z97.8729490002 A29.7560748007
G1 X59.9918073307 Y25.9437045982 Z98.8700442633 A29.8499663238
G1 X59.9650692724 Y25.9400631653 Z99.8671845838 A29.9433782187
G1 X59.9383692511 Y25.9360051724 Z100.8643324772 A30.0367103196
G1 X59.9116139674 Y25.9325388733 Z101.8615732077 A30.1290435626
G1 X59.8848787609 Y25.9288516379 Z102.8588088767 A30.2214325038
G1 X59.8581412118 Y25.9251823275 Z103.8561113873 A30.3130953773
G1 X59.8313749702 Y25.9218255119 Z104.8534485415 A30.4043809422
G1 X59.8046545266 Y25.9179569115 Z105.8507958661 A30.4955563187
G1 X59.7778788338 Y25.9146949466 Z106.8482273816 A30.5858048006
G1 X59.7511336822 Y25.9110895850 Z107.8456511975 A30.6761398531
G1 X59.7243709393 Y25.9076745237 Z108.8431509367 A30.7656302918
G1 X59.6975852173 Y25.9045155322 Z109.8406784210 A30.8548115499
G1 X59.6708493931 Y25.9007866314 Z110.8382202370 A30.9438330273
G1 X59.6440538493 Y25.8977303925 Z111.8358418953 A31.0319543709
G1 X59.6172940606 Y25.8942633052 Z112.8334545398 A31.1201792897
G1 X59.5905103908 Y25.8910647413 Z113.8311354998 A31.2076263274
G1 X59.5637142147 Y25.8880084118 Z114.8288331363 A31.2948833341
G1 X59.5369599066 Y25.8844634346 Z115.8265509787 A31.3819089839
G1 X59.5101457450 Y25.8816083176 Z116.8243410887 A31.4681016913
G1 X59.4833753913 Y25.8782394350 Z117.8221201547 A31.5544239195
G1 X59.4565624625 Y25.8753647881 Z118.8199809421 A31.6397938685
G1 X59.4297510670 Y25.8724698900 Z119.8178511948 A31.7250540563
G1 X59.4029748525 Y25.8691554622 Z120.8157497367 A31.8099815120
G1 X59.3761418315 Y25.8665113935 Z121.8137168670 A31.8940995709
G1 X59.3493737169 Y25.8630877028 Z122.8116676344 A31.9784141733
G1 X59.3225455014 Y25.8603809597 Z123.8097180062 A32.0615383586
G1 X59.2957326926 Y25.8574854541 Z124.8077703398 A32.1446402426
G1 X59.2689362736 Y25.8543883097 Z125.8058629479 A32.2272547461
G1 X59.2420862998 Y25.8519402577 Z126.8040202186 A32.3090855306
G1 X59.2153199610 Y25.8484602120 Z127.8021564048 A32.3911764816
G1 X59.1884609343 Y25.8461203689 Z128.8004227393 A32.4716657230
G1 X59.1616389179 Y25.8433165007 Z129.7986803304 A32.5522647219
G1 X59.1348292696 Y25.8403559504 Z130.7969832358 A32.6322977547
G1 X59.1079737283 Y25.8379691216 Z131.7953415528 A32.7116380721
G1 X59.0812046203 Y25.8344814010 Z132.7936848701 A32.7911695623
G1 X59.0543220558 Y25.8324366221 Z133.7921714924 A32.8688783832
G1 X59.0274877973 Y25.8297665814 Z134.7906459368 A32.9467448332
G1 X59.0006400256 Y25.8272724022 Z135.7891838290 A33.0237888825
G1 X58.9737542558 Y25.8252693351 Z136.7877734249 A33.1001632375
G1 X58.9469563423 Y25.8221095232 Z137.7863549242 A33.1766436081
G1 X58.9200504879 Y25.8203754061 Z138.7850667521 A33.2514025844
G1 X58.8932287276 Y25.8175093808 Z139.7837573799 A33.3264469156
G1 X58.8663727415 Y25.8151076739 Z140.7825390934 A33.4002608379
G1 X58.8394863955 Y25.8131122315 Z141.7813723145 A33.4733802182
G1 X58.8126489915 Y25.8104460292 Z142.7802141449 A33.5463794158
G1 X58.7857159985 Y25.8090998906 Z143.7791713901 A33.6177847588
G1 X58.7588918983 Y25.8062239341 Z144.7781011834 A33.6895757702
G1 X58.7320018641 Y25.8042853539 Z145.7771466018 A33.7597290040
G1 X58.7051092853 Y25.8023723359 Z146.7762309558 A33.8293337136
G1 X58.6782672636 Y25.7997336518 Z147.7753354450 A33.8986428428
G1 X58.6513253737 Y25.7985483729 Z148.7745605159 A33.9661971197
G1 X58.6244955348 Y25.7957019467 Z149.7737573387 A34.0341701733
G1 X58.5975656861 Y25.7943576873 Z150.7730908421 A34.1000933669
G1 X58.5706623335 Y25.7926006887 Z151.7724468813 A34.1656826053
G1 X58.5437880105 Y25.7904101875 Z152.7718385902 A34.2307157904
G1 X58.5168219999 Y25.7896387372 Z153.7713410898 A34.2940342395
G1 X58.4899928577 Y25.7867102019 Z154.7708090848 A34.3578964916
G1 X58.4630351385 Y25.7858408697 Z155.7704323247 A34.4192724464
G1 X58.4361299640 Y25.7841094157 Z156.7700612152 A34.4805630975
G1 X58.4092223923 Y25.7824357888 Z157.7697458099 A34.5409231171
G1 X58.3822472009 Y25.7818820180 Z158.7695284263 A34.5996545905
G1 X58.3553829907 Y25.7794550244 Z159.7692830642 A34.6588583049
G1 X58.3283889952 Y25.7792711446 Z160.7691944060 A34.7153536670
G1 X58.3014932488 Y25.7773569726 Z161.7690882920 A34.7721588466
G1 X58.2745654787 Y25.7760436845 Z162.7690639853 A34.8274797582
G1 X58.2475894710 Y25.7755918074 Z163.7691303595 A34.8811642123
G1 X58.2207024770 Y25.7735054564 Z164.7691775508 A34.9351988691
G1 X58.1936807550 Y25.7739771173 Z165.7693874136 A34.9861449631
G1 X58.1667745510 Y25.7722241342 Z166.7695681543 A35.0376518918
G1 X58.1398093035 Y25.7716680933 Z167.7698416138 A35.0873009380
G1 X58.1128349765 Y25.7712779268 Z168.7701769960 A35.1357159124
G1 X58.0859237586 Y25.7696205607 Z169.7705106025 A35.1841511514
G1 X58.0588909456 Y25.7705371879 Z170.7709910237 A35.2294785319
G1 X58.0319754040 Y25.7689429019 Z171.7714418807 A35.2754389157
G1 X58.0049770831 Y25.7692152177 Z172.7719954308 A35.3190867831
G1 X57.9780027441 Y25.7689324264 Z173.7725867579 A35.3618881020
G1 X57.9510610349 Y25.7679427791 Z174.7731940583 A35.4042843461
G1 X57.9240290532 Y25.7691255668 Z175.7739240715 A35.4437237131
G1 X57.8971052290 Y25.7676759020 Z176.7746268182 A35.4838267236
G1 X57.8700878054 Y25.7686641166 Z177.7754425773 A35.5209862204
G1 X57.8431197725 Y25.7683470501 Z178.7762774172 A35.5576534943
G1 X57.8161551385 Y25.7680134710 Z179.7771437380 A35.5934057311
G1 X57.7891327782 Y25.7693174368 Z180.7781058991 A35.6264345400
G1 X57.7621877382 Y25.7684141696 Z181.7790485677 A35.6600197942
G1 X57.7351528839 Y25.7703241191 Z182.7800996789 A35.6902083496
G1 X57.7081879488 Y25.7700436286 Z183.7811505986 A35.7204029977
G1 X57.6812003038 Y25.7706250049 Z184.7822455874 A35.7490354635
G1 X57.6541892001 Y25.7720283341 Z185.7834094108 A35.7752537769
G1 X57.6272392690 Y25.7712848005 Z186.7845578126 A35.8020133162
G1 X57.6001998373 Y25.7741419468 Z187.7858142781 A35.8244253678
G1 X57.5732391283 Y25.7738492522 Z188.7870575999 A35.8473618541
G1 X57.5462411576 Y25.7753266982 Z189.7883471207 A35.8681126643
G1 X57.5192468744 Y25.7766528139 Z190.7896759221 A35.8870012862
G1 X57.4922859226 Y25.7764458349 Z191.7909984684 A35.9061516737
G1 X57.4652621659 Y25.7798922955 Z192.7924069421 A35.9203102379
G1 X57.4383026288 Y25.7796455378 Z193.7937992261 A35.9353998656
G1 X57.4113091910 Y25.7820156065 Z194.7952324419 A35.9473299176
G1 X57.3843304481 Y25.7833213586 Z195.7966850717 A35.9577437366
G1 X57.3573611478 Y25.7841448615 Z196.7981406233 A35.9676599901
G1 X57.3303698683 Y25.7876125952 Z197.7996345167 A35.9730795643
G1 X57.3034067876 Y25.7879651160 Z198.8011213013 A35.9792844863
G1 X57.2764300144 Y25.7918059250 Z199.8026246182 A35.9812776231
G1 X57.2494668577 Y25.7926630220 Z200.8041301794 A35.9825766871
G1 X57.2225075864 Y25.7943361255 Z201.8056333852 A35.9823533686
G1 X57.1955508996 Y25.7975644100 Z202.8071319761 A35.9779454173
G1 X57.1685924892 Y25.7981317788 Z203.8086310016 A35.9742082850
G1 X57.1416617072 Y25.8030200418 Z204.8100946760 A35.9649118712
G1 X57.1147079431 Y25.8038677714 Z205.8115579530 A35.9556591089
G1 X57.0877823162 Y25.8070613485 Z206.8129872567 A35.9435739532
G1 X57.0608557272 Y25.8099977295 Z207.8143743281 A35.9280124450
G1 X57.0339056322 Y25.8108827952 Z208.8157673255 A35.9129680751
G1 X57.0070412249 Y25.8164636498 Z209.8170299569 A35.8907189522
G1 X56.9800997641 Y25.8176398852 Z210.8183071739 A35.8693123172
G1 X56.9532502988 Y25.8225543919 Z211.8194733148 A35.8433920657
G1 X56.9263400681 Y25.8248619310 Z212.8205772244 A35.8149777451
G1 X56.8994316152 Y25.8269889907 Z213.8216561659 A35.7858318269
G1 X56.8726231942 Y25.8322426057 Z214.8225111445 A35.7495989906
G1 X56.8456882509 Y25.8334352250 Z215.8233980195 A35.7143899347
G1 X56.8189592313 Y25.8398820488 Z216.8240153206 A35.6722976095
G1 X56.7920421834 Y25.8414644586 Z217.8245835578 A35.6289680259
G1 X56.7652428504 Y25.8455283068 Z218.8250096652 A35.5826423353
G1 X56.7384545476 Y25.8497927307 Z219.8251466723 A35.5302304396
G1 X56.7115345368 Y25.8512661667 Z220.8253168830 A35.4785221543
G1 X56.6849321596 Y25.8583679242 Z221.8249466542 A35.4172290719
G1 X56.6580310000 Y25.8601569095 Z222.8245876085 A35.3561376304
G1 X56.6314649347 Y25.8670105345 Z223.8238239676 A35.2889311054
G1 X56.6045906213 Y25.8692204607 Z224.8227927369 A35.2176763813
G1 X56.5777583349 Y25.8718875034 Z225.8216702904 A35.1452589520
G1 X56.5512290118 Y25.8785252001 Z226.8196845729 A35.0616167909
G1 X56.5243236179 Y25.8803016368 Z227.8177936631 A34.9792001576
G1 X56.4979579839 Y25.8881777449 Z228.8149856812 A34.8864636415
G1 X56.4709950887 Y25.8894381246 Z229.8120169452 A34.7918941855
G1 X56.4445470117 Y25.8957350104 Z230.8084266138 A34.6912436147
G1 X56.4177426003 Y25.8987158736 Z231.8040082848 A34.5824498157
G1 X56.3907841189 Y25.9002093465 Z232.7996287970 A34.4740309890
G1 X56.3645369693 Y25.9079484656 Z233.7933053842 A34.3489576581
G1 X56.3374529814 Y25.9086597324 Z234.7871877015 A34.2256112955
G1 X56.3112983738 Y25.9164303917 Z235.7792947430 A34.0889650059
G1 X56.2841385703 Y25.9169845998 Z236.7708665363 A33.9482420302
G1 X56.2580467783 Y25.9245291308 Z237.7611488045 A33.7990788870
G1 X56.2306423293 Y25.9240654543 Z238.7498359331 A33.6393282101
G1 X56.2034361225 Y25.9247204028 Z239.7382577735 A33.4780617312
G1 X56.1767839932 Y25.9291872962 Z240.7228723852 A33.2948181533
G1 X56.1489777405 Y25.9272644923 Z241.7077779524 A33.1131854235
G1 X56.1224074762 Y25.9321176266 Z242.6882712952 A32.9093363445
G1 X56.0941713277 Y25.9291786515 Z243.6681270912 A32.7021627910
G1 X56.0671237019 Y25.9319801088 Z244.6438301345 A32.4767593840
G1 X56.0379461566 Y25.9265220000 Z245.6171991623 A32.2409334134
G1 X56.0098000320 Y25.9255389526 Z246.5866524103 A31.9901613769
G1 X55.9792077021 Y25.9169866888 Z247.5512922345 A31.7207730006
G1 X55.9485182799 Y25.9089859086 Z248.5121862267 A31.4389602719
G1 X55.9153601884 Y25.8954130485 Z249.4650576510 A31.1303833178
G1 X55.8786451618 Y25.8739736424 Z250.4132983202 A30.8084108289
G1 X55.8418945624 Y25.8551643692 Z251.3495808509 A30.4524799776
G1 X55.7941127597 Y25.8151762904 Z252.2764205211 A30.0731702696
G1 X55.7374892373 Y25.7642349027 Z253.1932717126 A29.6679187732
G1 X55.6795218013 Y25.7196190869 Z254.0810284398 A29.2030064010
G1 X55.6073893732 Y25.6608390680 Z254.9455519291 A28.6964385064
G1 X55.5175352552 Y25.5923118983 Z255.7735375839 A28.1310923054
G1 X55.4184040631 Y25.5301145434 Z256.5420615269 A27.4874431415
G1 X55.3186198671 Y25.4871242929 Z257.2128252889 A26.7429384797
G1 X55.2613702873 Y25.4856588370 Z257.7058479542 A25.8746032607
G1 X55.3143407765 Y25.5203129910 Z257.8923280252 A24.8980247417
G4 P1.0000
G1 X55.3544432701 Y25.3083643395 Z257.8822181528 A24.8304618534
G4 P1.0000
G1 X56.3544432701 Y25.3083643395 Z258.8822181528 A24.8304618534
G4 P1.0000
G1 X55.3544432701 Y25.3083643395 Z257.8822181528 A24.8304618534
G1 X55.3974867554 Y25.4454271476 Z257.8302471298 A24.5365898849
G4 P1.0000
G1 X55.7262989450 Y25.3414623444 Z257.2719422298 A23.7225282406
G1 X56.0916497941 Y25.0921005112 Z256.4190663273 A23.1829930417
G1 X56.3761983831 Y24.7562898989 Z255.4523218361 A22.8681364573
G1 X56.4722325949 Y24.5927248353 Z254.4945520642 A22.6087480353
G1 X56.5049254485 Y24.5656151801 Z253.5329227246 A22.3842067645
G1 X56.5263886193 Y24.5787377783 Z252.5642271563 A22.1950388465
G1 X56.5429046777 Y24.6337719094 Z251.5918513589 A22.0222872859
G1 X56.5624912311 Y24.6756140297 Z250.6137068236 A21.8855951283
G1 X56.5815845311 Y24.7295857551 Z249.6338160110 A21.7626468112
G1 X56.6022932337 Y24.7755806392 Z248.6514754725 A21.6600547614
G1 X56.6231779190 Y24.8260945712 Z247.6681917653 A21.5677022529
G1 X56.6453070357 Y24.8633213284 Z246.6833242482 A21.4947786882
G1 X56.6673767477 Y24.9094476357 Z245.6982084054 A21.4244431765
G1 X56.6903279273 Y24.9393988304 Z244.7120282722 A21.3736376156
G1 X56.7131829619 Y24.9790845909 Z243.7258723772 A21.3203779626
G1 X56.7365865066 Y25.0045409204 Z242.7390438258 A21.2853501055
G1 X56.7599976053 Y25.0331862758 Z241.7522025518 A21.2498147661
G1 X56.7835948838 Y25.0567874324 Z240.7651330622 A21.2235445909
G1 X56.8072914477 Y25.0763093651 Z239.7779447503 A21.2024385594
G1 X56.8310389249 Y25.0969612219 Z238.7907116789 A21.1837500512
G1 X56.8548665645 Y25.1108273653 Z237.8033818187 A21.1732546635
G1 X56.8787057024 Y25.1261626601 Z236.8160490599 A21.1623889014
G1 X56.9025773867 Y25.1361509351 Z235.8286856700 A21.1590864026
G1 X56.9264521586 Y25.1454474984 Z234.8413189672 A21.1566607150
G1 X56.9503369228 Y25.1538462056 Z233.8539557428 A21.1568779350
G1 X56.9742148842 Y25.1595038638 Z232.8666007323 A21.1604047180
G1 X56.9980972686 Y25.1654826406 Z231.8792458018 A21.1640218390
G1 X57.0219596796 Y25.1682440270 Z230.8919211303 A21.1720654800
G1 X57.0458220907 Y25.1710054134 Z229.9045964589 A21.1801091210
G1 X57.0696728084 Y25.1725634909 Z228.9172883164 A21.1898067084
G1 X57.0935142989 Y25.1731991833 Z227.9299915985 A21.2006416567
G1 X57.1173528823 Y25.1735890005 Z226.9426974019 A21.2116908350
G1 X57.1411779360 Y25.1728306211 Z225.9554173125 A21.2239400707
G1 X57.1650029896 Y25.1720722418 Z224.9681372231 A21.2361893064
G1 X57.1888140840 Y25.1701788425 Z223.9808691793 A21.2493914181
G1 X57.2126189014 Y25.1677767835 Z222.9936067421 A21.2630364391
G1 X57.2364189343 Y25.1649682577 Z222.0063473897 A21.2769217963
G1 X57.2602043440 Y25.1609467910 Z221.0190988945 A21.2916391506
G1 X57.2839897537 Y25.1569253243 Z220.0318503994 A21.3063565050
G1 X57.3077664488 Y25.1522261822 Z219.0446101815 A21.3216709853
G1 X57.3315403545 Y25.1473196897 Z218.0573729344 A21.3371967161
G1 X57.3553102349 Y25.1419715567 Z217.0701363047 A21.3528063825
G1 X57.3790749871 Y25.1360323609 Z216.0828997262 A21.3684794547
G1 X57.4028397394 Y25.1300931650 Z215.0956631477 A21.3841525268
G1 X57.4265867547 Y25.1219575012 Z214.1084323664 A21.4004707043
G1 X57.4503326761 Y25.1137087021 Z213.1212023009 A21.4168477334
G1 X57.4740789031 Y25.1054983759 Z212.1339720751 A21.4332093430
G1 X57.4978255979 Y25.0973370118 Z211.1467414856 A21.4495417270
G1 X57.5215723152 Y25.0891789628 Z210.1595108904 A21.4658732753
G1 X57.5453197687 Y25.0811070714 Z209.1722798389 A21.4821644793
G1 X57.5690673159 Y25.0730416254 Z208.1850486743 A21.4984479010
G1 X57.5928155514 Y25.0650920816 Z207.1978175483 A21.5147166817
G1 X57.6165637593 Y25.0571899880 Z206.2105870811 A21.5310182855
G1 X57.6403119611 Y25.0492870222 Z205.2233566153 A21.5473201092
G1 X57.6640611187 Y25.0414462183 Z204.2361249487 A21.5635402284
G1 X57.6878106358 Y25.0336301464 Z203.2488928480 A21.5797304860
G1 X57.7115591773 Y25.0256917156 Z202.2616612202 A21.5959672184
G1 X57.7353064838 Y25.0176370582 Z201.2744306848 A21.6122870130
G1 X57.7590540591 Y25.0096208125 Z200.2872000816 A21.6285971240
G1 X57.7828038599 Y25.0018597856 Z199.2999681067 A21.6447870712
G1 X57.8065540030 Y24.9941223303 Z198.3127357184 A21.6609485577
G1 X57.8303031365 Y24.9862587844 Z197.3255038119 A21.6771574767
G1 X57.8540509651 Y24.9782796003 Z196.3382731449 A21.6934582439
G1 X57.8777987945 Y24.9703005335 Z195.3510424776 A21.7097589816
G1 X57.9015465445 Y24.9623162425 Z194.3638119092 A21.7260664476
G1 X57.9252942569 Y24.9543293706 Z193.3765813862 A21.7423770298
G1 X57.9490430000 Y24.9464749446 Z192.3893504203 A21.7586416276
G1 X57.9727929465 Y24.9387256499 Z191.4021182924 A21.7748206512
G1 X57.9965424681 Y24.9309156476 Z190.4148862718 A21.7910149792
G1 X58.0202907031 Y24.9229268932 Z189.4276546403 A21.8072588479
G1 X58.0440389040 Y24.9149357832 Z188.4404230502 A21.8235055608
G1 X58.0677877926 Y24.9070578049 Z187.4531914701 A21.8397363719
G1 X58.0915358857 Y24.8991432112 Z186.4659610812 A21.8560445106
G1 X58.1152839850 Y24.8912294896 Z185.4787306906 A21.8723524295
G1 X58.1390328056 Y24.8833663448 Z184.4914994420 A21.8886011249
G1 X58.1627820111 Y24.8755296466 Z183.5042677289 A21.9048178885
G1 X58.1865307496 Y24.8676270156 Z182.5170361426 A21.9210519044
G1 X58.2102793417 Y24.8597078306 Z181.5298046492 A21.9372939569
G1 X58.2340279423 Y24.8517898680 Z180.5425731538 A21.9535357013
G1 X58.2577765251 Y24.8438717711 Z179.5553416938 A21.9697796164
G1 X58.2815250891 Y24.8359523808 Z178.5681102565 A21.9860250932
G1 X58.3052735009 Y24.8280230561 Z177.5808790097 A22.0022835158
G1 X58.3290208234 Y24.8200189941 Z176.5936490788 A22.0186322858
G1 X58.3527683908 Y24.8120498414 Z175.6064190862 A22.0349722551
G1 X58.3765176994 Y24.8042247615 Z174.6191873052 A22.0511830211
G1 X58.4002678660 Y24.7964587407 Z173.6319544881 A22.0673224788
G1 X58.4240173743 Y24.7886093721 Z172.6447219732 A22.0834923411
G1 X58.4477657926 Y24.7806831275 Z171.6574907524 A22.0997519231
G1 X58.4715142148 Y24.7727574270 Z170.6702595307 A22.1160113679
G1 X58.4952626199 Y24.7648308461 Z169.6830283334 A22.1322724177
G1 X58.5190110119 Y24.7569033902 Z168.6957971521 A22.1485345583
G1 X58.5427594192 Y24.7489778250 Z167.7085659633 A22.1647959740
G1 X58.5665078569 Y24.7410543578 Z166.7213347377 A22.1810548565
G1 X58.5902562861 Y24.7331296605 Z165.7341035142 A22.1973140491
G1 X58.6140040336 Y24.7251576729 Z164.7468731071 A22.2136293955
G1 X58.6377514389 Y24.7171691938 Z163.7596432049 A22.2299776315
G1 X58.6615001113 Y24.7093422027 Z162.7724127466 A22.2462688597
G1 X58.6852509769 Y24.7016661925 Z161.7851796402 A22.2623777924
G1 X58.7090007917 Y24.6938404017 Z160.7979467986 A22.2785244849
G1 X58.7327485632 Y24.6858259773 Z159.8107158024 A22.2948103281
G1 X58.7564955546 Y24.6777700887 Z158.8234859055 A22.3111687688
G1 X58.7802436020 Y24.6698575931 Z157.8362556395 A22.3274840066
G1 X58.8039927393 Y24.6620199425 Z156.8490240577 A22.3437088759
G1 X58.8277418685 Y24.6541811538 Z155.8617924780 A22.3599340322
G1 X58.8514909740 Y24.6463404498 Z154.8745609232 A22.3761609844
G1 X58.8752399526 Y24.6384827076 Z153.8873294141 A22.3923931686
G1 X58.8989885881 Y24.6305696938 Z152.9000979090 A22.4086335950
G1 X58.9227382437 Y24.6227270952 Z151.9128651723 A22.4247890017
G1 X58.9464874975 Y24.6148265803 Z150.9256325369 A22.4409590091
G1 X58.9702352789 Y24.6068139880 Z149.9384015434 A22.4572447451
G1 X58.9939825186 Y24.5987972479 Z148.9511716333 A22.4735967091
G1 X59.0177310576 Y24.5909598772 Z147.9639413206 A22.4898982934
G1 X59.0414806815 Y24.5831969976 Z146.9767096978 A22.5061099366
G1 X59.0652294110 Y24.5753073316 Z145.9894783004 A22.5223535428
G1 X59.0889779069 Y24.5673852719 Z145.0022469712 A22.5386059487
G1 X59.1127263967 Y24.5594628812 Z144.0150156507 A22.5548589304
G1 X59.1364748881 Y24.5515407961 Z143.0277843307 A22.5711119000
G1 X59.1602233633 Y24.5436176006 Z142.0405530301 A22.5873662101
G1 X59.1839718419 Y24.5356948836 Z141.0533217288 A22.6036203995
G1 X59.2077203210 Y24.5277722432 Z140.0660904273 A22.6198745697
G1 X59.2314688016 Y24.5198498212 Z139.0788591254 A22.6361286848
G1 X59.2552172855 Y24.5119277926 Z138.0916278219 A22.6523826467
G1 X59.2789657856 Y24.5040068854 Z137.1043964988 A22.6686352544
G1 X59.3027142749 Y24.4960844383 Z136.1171651784 A22.6848882505
G1 X59.3264627634 Y24.4881618657 Z135.1299338582 A22.7011412783
G1 X59.3502112554 Y24.4802398002 Z134.1427025371 A22.7173941785
G1 X59.3739597060 Y24.4723152051 Z133.1554712701 A22.7336507115
G1 X59.3977070037 Y24.4643114758 Z132.1682413950 A22.7500027918
G1 X59.4214554055 Y24.4564642092 Z131.1810112416 A22.7663154278
G1 X59.4452050608 Y24.4487042827 Z130.1937795887 A22.7825245967
G1 X59.4689549402 Y24.4408964335 Z129.2065468441 A22.7986745992
G1 X59.4927039871 Y24.4329723694 Z128.2193143405 A22.8148560559
G1 X59.5164519695 Y24.4249768445 Z127.2320831479 A22.8311274746
G1 X59.5402004580 Y24.4170542726 Z126.2448518277 A22.8473805016
G1 X59.5639489375 Y24.4091310829 Z125.2576205183 A22.8636342747
G1 X59.5876977399 Y24.4012545148 Z124.2703891353 A22.8798768304
G1 X59.6114467588 Y24.3934104481 Z123.2831577192 A22.8961126656
G1 X59.6351946346 Y24.3854878286 Z122.2959276819 A22.9124431654
G1 X59.6589425000 Y24.3775637155 Z121.3086976472 A22.9287740418
G1 X59.6826909817 Y24.3696819138 Z120.3214668683 A22.9450538312
G1 X59.7064396889 Y24.3617892500 Z119.3342354766 A22.9612981935
G1 X59.7301882096 Y24.3538691866 Z118.3470041212 A22.9775487219
G1 X59.7539378285 Y24.3460174963 Z117.3597713452 A22.9937030636
G1 X59.7776869795 Y24.3380983389 Z116.3725386872 A23.0098744138
G1 X59.8014349530 Y24.3300981115 Z115.3853074509 A23.0261436484
G1 X59.8251829485 Y24.3221865329 Z114.3980773173 A23.0424668392
G1 X59.8489314393 Y24.3143455606 Z113.4108470588 A23.0587722301
G1 X59.8726808595 Y24.3065489863 Z112.4236154244 A23.0749880318
G1 X59.8964294180 Y24.2986300801 Z111.4363840048 A23.0912345101
G1 X59.9201779849 Y24.2907117530 Z110.4491525751 A23.1074802894
G1 X59.9439265576 Y24.2827936012 Z109.4619211356 A23.1237254535
G1 X59.9676751293 Y24.2748753201 Z108.4746896964 A23.1399706503
G1 X59.9914237325 Y24.2669590317 Z107.4874582171 A23.1562131281
G1 X60.0151723307 Y24.2590419953 Z106.5002267385 A23.1724557628
G1 X60.0389209452 Y24.2511260866 Z105.5129952402 A23.1886970358
G1 X60.0626695712 Y24.2432104890 Z104.5257637220 A23.2049370603
G1 X60.0864181958 Y24.2352946975 Z103.5385322042 A23.2211771336
G1 X60.1101670785 Y24.2274108258 Z102.5513005579 A23.2374047912
G1 X60.1339163129 Y24.2195769808 Z101.5640688211 A23.2536197132
G1 X60.1576650076 Y24.2117060475 Z100.5768377360 A23.2698794158
G1 X60.1814130771 Y24.2037919008 Z99.5896074024 A23.2861908288
G1 X60.2051611462 Y24.1958776891 Z98.6023770689 A23.3025022582
G1 X60.2289108297 Y24.1880232390 Z97.6151441337 A23.3186473617
G1 X60.2526596372 Y24.1800345271 Z96.6279113203 A23.3348194862
G1 X60.2764069075 Y24.1719401213 Z95.6406803629 A23.3511192264
G1 X60.3001548771 Y24.1640855432 Z94.6534510366 A23.3674827809
G1 X60.3239030176 Y24.1562553440 Z93.6662216672 A23.3838401894
G1 X60.3476526562 Y24.1484700920 Z92.6789897281 A23.4000358865
G1 X60.3714015274 Y24.1405655435 Z91.6917578388 A23.4162518078
G1 X60.3951499396 Y24.1326294034 Z90.7045265039 A23.4325058732
G1 X60.4188982724 Y24.1247273906 Z89.7172957753 A23.4487916856
G1 X60.4426466106 Y24.1168261471 Z88.7300650453 A23.4650773041
G1 X60.4663955346 Y24.1089215177 Z87.7428330506 A23.4812868669
G1 X60.4901440153 Y24.1009451283 Z86.7556010652 A23.4975074706
G1 X60.5138921125 Y24.0929469149 Z85.7683696020 A23.5137628790
G1 X60.5376411433 Y24.0851311273 Z84.7811385337 A23.5300157099
G1 X60.5613901742 Y24.0773153397 Z83.7939074654 A23.5462685407
G1 X60.5851388370 Y24.0694519389 Z82.8066765480 A23.5625373720
G1 X60.6088872506 Y24.0615538512 Z81.8194457007 A23.5788154464
G1 X60.6326355879 Y24.0536472463 Z80.8322149035 A23.5950977830
G1 X60.6563833843 Y24.0456672889 Z79.8449842937 A23.6114021216
G1 X60.6801311806 Y24.0376873314 Z78.8577536840 A23.6277064602
G1 X60.7038809843 Y24.0298457571 Z77.8705206483 A23.6438433940
G1 X60.7276311027 Y24.0220257944 Z76.8832872312 A23.6599540271
G1 X60.7513804026 Y24.0141493658 Z75.8960548029 A23.6761329069
G1 X60.7751281990 Y24.0061694126 Z74.9088241931 A23.6924372417
G1 X60.7988759953 Y23.9981894594 Z73.9215935833 A23.7087415765
G1 X60.8226250695 Y23.9903253515 Z72.9343617906 A23.7249574649
G1 X60.8463745132 Y23.9825013394 Z71.9471297409 A23.7411519647
G1 X60.8701233963 Y23.9746406285 Z70.9598983919 A23.7573941593
G1 X60.8938711989 Y23.9667139616 Z69.9726684557 A23.7737313392
G1 X60.9176190015 Y23.9587872947 Z68.9854385196 A23.7900685191
G1 X60.9413676349 Y23.9508628844 Z67.9982068762 A23.8063021906
G1 X60.9651163037 Y23.9429188142 Z67.0109749066 A23.8225190090
G1 X60.9888648071 Y23.9349925019 Z66.0237435136 A23.8387681400
G1 X61.0126133171 Y23.9271425841 Z65.0365130956 A23.8550651876
G1 X61.0363618476 Y23.9192940801 Z64.0492826528 A23.8713605281
G1 X61.0601111896 Y23.9113935983 Z63.0620498343 A23.8875193922
G1 X61.0838604070 Y23.9034819429 Z62.0748171326 A23.9036869311
G1 X61.1076077702 Y23.8955914288 Z61.0875886024 A23.9201033604
G4 P1.0000
G1 X61.0058159794 Y24.9979703954 Z60.9985337867 A25.0089364493
G1 X60.0058159794 Y24.9979703954 Z59.9985337867 A25.0089364493
G4 P1.0000
G1 Y55.0000000000 A55.0000000000
G4 P2.0000
G0 Y60.0000000000 A60.0000000000
G0 X60.1058159794 Z60.0985337867
G0 X60.1058159794 Y50.0000000000 Z60.0985337867 A50.0000000000
G1 X60.1058159794 Y0.0000000000 Z60.0985337867 A0.0000000000
G1 X60.1058159794 Y50.0000000000 Z60.0985337867 A50.0000000000
G0 Y60.0000000000 A60.0000000000
G0 X0.0000000000 Z0.0000000000
G0 Y0.0000000000 A0.0000000000
M5
M30