;Generated: 2021-09-14T19:53:35.810785
;[Project]
;Name = kb1
;Units = millimeters
;
;[RootChord]
;Profile = http://airfoiltools.com/airfoil/seligdatfile?airfoil=pw51-pw
;Width = 180
;LeadingEdgeOffset = 0
;Rotation = 0
;RotationPosition = 0.5
;
;[TipChord]
;Profile = http://airfoiltools.com/airfoil/seligdatfile?airfoil=pw51-pw
;Width = 100
;LeadingEdgeOffset = 0
;Rotation = 0
;RotationPosition = 0.5
;
;[Wing]
;TipChordSide = right
;Width = 750
;Inverted = no
;VerticalAlignProfiles = default
;Dihedral = 0
;StockLeadingEdge = 0
;StockTrailingEdge = 0.1
;
;[Placement]
;RootChordOffset = 300
;HorizontalOffset = 55
;VerticalOffsetRoot = 25
;RotateWing = no
;
;[Panel]
;Bottom = 0
;Height = 50
;Inset = 0
;Depth = 450
;SafeHeight = 60
;
;[Machine]
;Width = 1490
;Height = 400
;Depth = 490
;Feedrate = 160
;Kerf = 1.25,1.25
;
;[Gcode]
;GcodeWireOn = M3 S110
;GcodeWireOff = M5
;AxisMapping = X,Y,Z,A
;ConfigAsComment = yes
;InterpolationPoints = 200
;
;
G17
G21
G90
G64 P0.50
G54
M3 S110
G1 F160.0
G0 Y60.0000000000 A60.0000000000
G0 X23.0000000000 Z181.9333333333
G0 Y55.0000000000 A55.0000000000
G1 X23.0000000000 Y25.0001374943 Z181.9333333333 A25.0000493946
G4 P1.0000
G1 X24.0000000000 Y25.0001374943 Z182.9333333333 A25.0000493946
G4 P1.0000
G4 P1.0000
G1 X24.0000000000 Y26.3493827805 Z182.9333333333 A26.2746841139
G4 P1.0000
G1 X25.0879909422 Y26.3795289797 Z183.2129497236 A26.2827099383
G1 X26.1754870868 Y26.4255174269 Z183.4924480335 A26.2945355659
G1 X27.2625594359 Y26.4796388803 Z183.7717875415 A26.3094076630
G1 X28.3489456466 Y26.5469278316 Z184.0510004531 A26.3267079739
G1 X29.4353318573 Y26.6142167828 Z184.3302133646 A26.3440082848
G1 X30.5215109585 Y26.6844940068 Z184.6092835972 A26.3633668938
G1 X31.6067926568 Y26.7677192254 Z184.8882127899 A26.3847597941
G1 X32.6920743551 Y26.8509444441 Z185.1671419825 A26.4061526944
G1 X33.7773560535 Y26.9341696627 Z185.4460711752 A26.4275455947
G1 X34.8626419024 Y27.0173441257 Z185.7249839040 A26.4491398255
G1 X35.9471609904 Y27.1098953721 Z186.0036264468 A26.4740379195
G1 X37.0315457890 Y27.2040888455 Z186.2823252633 A26.4982478423
G1 X38.1159305875 Y27.2982823188 Z186.5610240799 A26.5224577650
G1 X39.2003153861 Y27.3924757922 Z186.8397228964 A26.5466676877
G1 X40.2847001846 Y27.4866692655 Z187.1184217129 A26.5708776104
G1 X41.3687718389 Y27.5843262769 Z187.3969267289 A26.5972310209
G1 X42.4524665257 Y27.6861527348 Z187.6754482400 A26.6234019690
G1 X43.5361612125 Y27.7879791926 Z187.9539697511 A26.6495729171
G1 X44.6198558993 Y27.8898056505 Z188.2324912623 A26.6757438652
G1 X45.7035505862 Y27.9916321083 Z188.5110127734 A26.7019148133
G1 X46.7872452730 Y28.0934585662 Z188.7895342845 A26.7280857615
G1 X47.8708796910 Y28.1959090130 Z189.0679249151 A26.7556117613
G1 X48.9540300971 Y28.3033706316 Z189.3463065510 A26.7832308749
G1 X50.0371805032 Y28.4108322502 Z189.6246881870 A26.8108499884
G1 X51.1203309094 Y28.5182938688 Z189.9030698230 A26.8384691020
G1 X52.2034813155 Y28.6257554874 Z190.1814514590 A26.8660882156
G1 X53.2866317216 Y28.7332171060 Z190.4598330950 A26.8937073292
G1 X54.3697821277 Y28.8406787246 Z190.7382147310 A26.9213264428
G1 X55.4529521889 Y28.9479453094 Z191.0165184020 A26.9497191903
G1 X56.5357735075 Y29.0586724218 Z191.2948092702 A26.9782389752
G1 X57.6185856488 Y29.1694905989 Z191.5731039840 A27.0067205997
G1 X58.7013977901 Y29.2803087759 Z191.8513986979 A27.0352022241
G1 X59.7842099314 Y29.3911269530 Z192.1296934117 A27.0636838486
G1 X60.8670220727 Y29.5019451300 Z192.4079881256 A27.0921654730
G1 X61.9498342141 Y29.6127633071 Z192.6862828394 A27.1206470975
G1 X63.0326463554 Y29.7235814841 Z192.9645775533 A27.1491287219
G1 X64.1154612292 Y29.8343731085 Z193.2428332992 A27.1779890159
G1 X65.1981488936 Y29.9464008863 Z193.5210960320 A27.2067814140
G1 X66.2808365581 Y30.0584286641 Z193.7993587649 A27.2355738121
G1 X67.3635242226 Y30.1704564419 Z194.0776214978 A27.2643662102
G1 X68.4462118870 Y30.2824842197 Z194.3558842306 A27.2931586083
G1 X69.5288995515 Y30.3945119974 Z194.6341469635 A27.3219510064
G1 X70.6115872159 Y30.5065397752 Z194.9124096964 A27.3507434044
G1 X71.6942748804 Y30.6185675530 Z195.1906724292 A27.3795358025
G1 X72.7769625448 Y30.7305953308 Z195.4689351621 A27.4083282006
G1 X73.8596455884 Y30.8426677447 Z195.7471924255 A27.4371734318
G1 X74.9423218784 Y30.9548053964 Z196.0254522375 A27.4659940450
G1 X76.0249981683 Y31.0669430481 Z196.3037120494 A27.4948146583
G1 X77.1076744583 Y31.1790806997 Z196.5819718613 A27.5236352715
G1 X78.1903507482 Y31.2912183514 Z196.8602316733 A27.5524558847
G1 X79.2730270382 Y31.4033560031 Z197.1384914852 A27.5812764980
G1 X80.3557033281 Y31.5154936548 Z197.4167512972 A27.6100971112
G1 X81.4383796181 Y31.6276313065 Z197.6950111091 A27.6389177245
G1 X82.5210559081 Y31.7397689582 Z197.9732709210 A27.6677383377
G1 X83.6037574258 Y31.8516621765 Z198.2515725394 A27.6961538862
G1 X84.6865144745 Y31.9630173532 Z198.5298531137 A27.7247733316
G1 X85.7692715231 Y32.0743725299 Z198.8081336880 A27.7533927770
G1 X86.8520285717 Y32.1857277066 Z199.0864142623 A27.7820122225
G1 X87.9347856204 Y32.2970828832 Z199.3646948366 A27.8106316679
G1 X89.0175426690 Y32.4084380599 Z199.6429754109 A27.8392511133
G1 X90.1002997177 Y32.5197932366 Z199.9212559852 A27.8678705587
G1 X91.1830567663 Y32.6311484133 Z200.1995365595 A27.8964900041
G1 X92.2658138150 Y32.7425035900 Z200.4778171338 A27.9251094495
G1 X93.3485423086 Y32.8541398435 Z200.7562109764 A27.9526139569
G1 X94.4315489475 Y32.9630382220 Z201.0345713369 A27.9804480377
G1 X95.5145787076 Y33.0717090120 Z201.3129220087 A28.0083774890
G1 X96.5976084676 Y33.1803798021 Z201.5912726804 A28.0363069403
G1 X97.6806382277 Y33.2890505922 Z201.8696233521 A28.0642363916
G1 X98.7636679877 Y33.3977213822 Z202.1479740238 A28.0921658428
G1 X99.8466977478 Y33.5063921723 Z202.4263246955 A28.1200952941
G1 X100.9297275078 Y33.6150629624 Z202.7046753672 A28.1480247454
G1 X102.0127572678 Y33.7237337525 Z202.9830260389 A28.1759541967
G1 X103.0957870279 Y33.8324045425 Z203.2613767106 A28.2038836480
G1 X104.1788228925 Y33.9410131552 Z203.5399851514 A28.2291875172
G1 X105.2623083081 Y34.0450427461 Z203.8184529405 A28.2559240303
G1 X106.3457937238 Y34.1490723371 Z204.0969207296 A28.2826605434
G1 X107.4292791395 Y34.2531019280 Z204.3753885186 A28.3093970566
G1 X108.5127645551 Y34.3571315190 Z204.6538563077 A28.3361335697
G1 X109.5962499708 Y34.4611611099 Z204.9323240968 A28.3628700828
G1 X110.6797353865 Y34.5651907009 Z205.2107918859 A28.3896065960
G1 X111.7632208021 Y34.6692202918 Z205.4892596749 A28.4163431091
G1 X112.8467062178 Y34.7732498828 Z205.7677274640 A28.4430796222
G1 X113.9301916335 Y34.8772794737 Z206.0461952531 A28.4698161354
G1 X115.0137035793 Y34.9810233611 Z206.3250631062 A28.4922442597
G1 X116.0978186776 Y35.0782717828 Z206.6036927471 A28.5172377368
G1 X117.1819337758 Y35.1755202046 Z206.8823223880 A28.5422312138
G1 X118.2660488741 Y35.2727686263 Z207.1609520289 A28.5672246909
G1 X119.3501639723 Y35.3700170480 Z207.4395816698 A28.5922181680
G1 X120.4342790705 Y35.4672654698 Z207.7182113107 A28.6172116450
G1 X121.5183941688 Y35.5645138915 Z207.9968409517 A28.6422051221
G1 X122.6025092670 Y35.6617623132 Z208.2754705926 A28.6671985991
G1 X123.6866243652 Y35.7590107350 Z208.5541002335 A28.6921920762
G1 X124.7707364921 Y35.8562940011 Z208.8327416608 A28.7170473372
G1 X125.8548591397 Y35.9534539072 Z209.1119175061 A28.7356356406
G1 X126.9397868303 Y36.0411733919 Z209.3907560000 A28.7581799302
G1 X128.0247145209 Y36.1288928765 Z209.6695944940 A28.7807242197
G1 X129.1096422114 Y36.2166123612 Z209.9484329879 A28.8032685092
G1 X130.1945699020 Y36.3043318458 Z210.2272714818 A28.8258127988
G1 X131.2794975926 Y36.3920513305 Z210.5061099758 A28.8483570883
G1 X132.3644252831 Y36.4797708151 Z210.7849484697 A28.8709013779
G1 X133.4493529737 Y36.5674902997 Z211.0637869636 A28.8934456674
G1 X134.5342806643 Y36.6552097844 Z211.3426254576 A28.9159899570
G1 X135.6191885888 Y36.7431922128 Z211.6215423568 A28.9374912362
G1 X136.7041478640 Y36.8304915667 Z211.9009904406 A28.9519262566
G1 X137.7899967824 Y36.9059563157 Z212.1800657216 A28.9713205399
G1 X138.8758457007 Y36.9814210648 Z212.4591410026 A28.9907148233
G1 X139.9616946190 Y37.0568858139 Z212.7382162836 A29.0101091066
G1 X141.0475435373 Y37.1323505630 Z213.0172915646 A29.0295033900
G1 X142.1333924556 Y37.2078153120 Z213.2963668456 A29.0488976733
G1 X143.2192413739 Y37.2832800611 Z213.5754421266 A29.0682919567
G1 X144.3050902922 Y37.3587448102 Z213.8545174076 A29.0876862400
G1 X145.3909392106 Y37.4342095593 Z214.1335926886 A29.1070805234
G1 X146.4767233068 Y37.5107163799 Z214.4129250970 A29.1223412562
G1 X147.5627997276 Y37.5825239624 Z214.6925684526 A29.1326031802
G1 X148.6496299370 Y37.6422139770 Z214.9718959350 A29.1479429422
G1 X149.7364601463 Y37.7019039916 Z215.2512234173 A29.1632827041
G1 X150.8232903556 Y37.7615940061 Z215.5305508997 A29.1786224661
G1 X151.9101205650 Y37.8212840207 Z215.8098783820 A29.1939622281
G1 X152.9969507743 Y37.8809740353 Z216.0892058644 A29.2093019901
G1 X154.0837809836 Y37.9406640499 Z216.3685333467 A29.2246417521
G1 X155.1706111930 Y38.0003540644 Z216.6478608290 A29.2399815141
G1 X156.2574414023 Y38.0600440790 Z216.9271883114 A29.2553212760
G1 X157.3441344640 Y38.1227112684 Z217.2070598128 A29.2588515780
G1 X158.4315954723 Y38.1687085825 Z217.4867210091 A29.2669469067
G1 X159.5193103172 Y38.2091958384 Z217.7662758358 A29.2773512123
G1 X160.6070251621 Y38.2496830944 Z218.0458306624 A29.2877555178
G1 X161.6947400070 Y38.2901703503 Z218.3253854891 A29.2981598233
G1 X162.7824548520 Y38.3306576062 Z218.6049403158 A29.3085641288
G1 X163.8701696969 Y38.3711448621 Z218.8844951425 A29.3189684343
G1 X164.9578845418 Y38.4116321180 Z219.1640499691 A29.3293727398
G1 X166.0455993867 Y38.4521193739 Z219.4436047958 A29.3397770453
G1 X167.1332464196 Y38.4951221263 Z219.7234286102 A29.3402032147
G1 X168.2211905172 Y38.5271062563 Z220.0032939622 A29.3390881052
G1 X169.3095067938 Y38.5452854702 Z220.2830033536 A29.3437579128
G1 X170.3978230704 Y38.5634646842 Z220.5627127449 A29.3484277204
G1 X171.4861393470 Y38.5816438982 Z220.8424221362 A29.3530975281
G1 X172.5744556237 Y38.5998231122 Z221.1221315275 A29.3577673357
G1 X173.6627719003 Y38.6180023261 Z221.4018409188 A29.3624371433
G1 X174.7510881769 Y38.6361815401 Z221.6815503101 A29.3671069510
G1 X175.8394044535 Y38.6543607541 Z221.9612597014 A29.3717767586
G1 X176.9277036043 Y38.6764395507 Z222.2410370250 A29.3609782217
G1 X178.0160819234 Y38.6805063202 Z222.5207999628 A29.3534491542
G1 X179.1045159616 Y38.6718954883 Z222.8005395517 A29.3512326054
G1 X180.1929499997 Y38.6632846565 Z223.0802791407 A29.3490160566
G1 X181.2813840378 Y38.6546738246 Z223.3600187296 A29.3467995078
G1 X182.3698180759 Y38.6460629928 Z223.6397583185 A29.3445829589
G1 X183.4582521140 Y38.6374521609 Z223.9194979074 A29.3423664101
G1 X184.5466861522 Y38.6288413291 Z224.1992374963 A29.3401498613
G1 X185.6351756963 Y38.6226940173 Z224.4787569113 A29.3281613495
G1 X186.7235722200 Y38.6124161796 Z224.7580278398 A29.3051451231
G1 X187.8112901116 Y38.5720108589 Z225.0375831474 A29.2947537467
G1 X188.8990080033 Y38.5316055381 Z225.3171384550 A29.2843623704
G1 X189.9867258949 Y38.4912002174 Z225.5966937626 A29.2739709941
G1 X191.0744437866 Y38.4507948966 Z225.8762490702 A29.2635796177
G1 X192.1621616783 Y38.4103895759 Z226.1558043778 A29.2531882414
G1 X193.2498795699 Y38.3699842551 Z226.4353596854 A29.2427968650
G1 X194.3378394762 Y38.3339592068 Z226.7139550018 A29.2150304083
G1 X195.4250597951 Y38.2845457495 Z226.9922529146 A29.1818822149
G1 X196.5106098396 Y38.2048971297 Z227.2712507519 A29.1614039943
G1 X197.5961598841 Y38.1252485099 Z227.5502485891 A29.1409257737
G1 X198.6817099286 Y38.0455998901 Z227.8292464264 A29.1204475531
G1 X199.7672599732 Y37.9659512703 Z228.1082442637 A29.0999693326
G1 X200.8528100177 Y37.8863026505 Z228.3872421010 A29.0794911120
G1 X201.9386467794 Y37.8096855467 Z228.6651026265 A29.0469878780
G1 X203.0245189304 Y37.7334418934 Z228.9410490103 A28.9942463616
G1 X204.1057567463 Y37.6081917939 Z229.2189374011 A28.9620408798
G1 X205.1869945621 Y37.4829416944 Z229.4968257919 A28.9298353980
G1 X206.2682323780 Y37.3576915950 Z229.7747141828 A28.8976299162
G1 X207.3494701938 Y37.2324414955 Z230.0526025736 A28.8654244344
G1 X208.4307080096 Y37.1071913960 Z230.3304909644 A28.8332189527
G1 X209.5130332634 Y36.9896124094 Z230.6040658516 A28.7705847229
G1 X210.5913399793 Y36.8436807967 Z230.8779211704 A28.7099306928
G1 X211.6647981407 Y36.6635409132 Z231.1538082644 A28.6636115572
G1 X212.7382563022 Y36.4834010298 Z231.4296953583 A28.6172924215
G1 X213.8117144636 Y36.3032611463 Z231.7055824523 A28.5709732859
G1 X214.8851726250 Y36.1231212629 Z231.9814695463 A28.5246541503
G1 X215.9605182088 Y35.9524634141 Z232.2498698648 A28.4407229437
G1 X217.0284020725 Y35.7443107748 Z232.5194196379 A28.3625699697
G1 X218.0890425252 Y35.4997609174 Z232.7920047451 A28.2996691632
G1 X219.1496829779 Y35.2552110600 Z233.0645898524 A28.2367683568
G1 X220.2103234306 Y35.0106612026 Z233.3371749596 A28.1738675503
G1 X221.2729533629 Y34.7734501039 Z233.6018684643 A28.0818563343
G1 X222.3309057318 Y34.5189759585 Z233.8609299864 A27.9690735315
G1 X223.3699038853 Y34.1945601109 Z234.1279342274 A27.8855996323
G1 X224.4089020389 Y33.8701442633 Z234.3949384683 A27.8021257332
G1 X225.4479001924 Y33.5457284157 Z234.6619427092 A27.7186518341
G1 X226.4928874195 Y33.2376526658 Z234.9051902919 A27.5703622140
G1 X227.5084775372 Y32.8493247765 Z235.1574297269 A27.4466251213
G1 X228.5112121570 Y32.4259028809 Z235.4150562277 A27.3375940884
G1 X229.5139467769 Y32.0024809854 Z235.6726827285 A27.2285630554
G1 X230.5274301622 Y31.6005526042 Z235.8876724595 A27.0342744155
G1 X231.4807219520 Y31.0780826818 Z236.1240064380 A26.8827420761
G1 X232.4217872417 Y30.5311282493 Z236.3654639022 A26.7414699124
G1 X233.3760286251 Y30.0024248876 Z236.5546561947 A26.5278018343
G1 X234.2497745337 Y29.3615448139 Z236.7402834495 A26.3094793489
G1 X235.0694855800 Y28.6454154618 Z236.9485538846 A26.1226898945
G1 X235.9219596956 Y27.9563140064 Z237.0268641449 A25.8286897828
G1 X236.4835704455 Y27.0246994330 Z237.1646399645 A25.5848207973
G1 X237.0559848690 Y26.0957432612 Z237.2476616817 A25.3204913356
G1 X237.2747471950 Y25.0390434405 Z237.2747471950 A25.0390434405
G4 P1.0000
G1 X237.2747471950 Y24.9867230572 Z237.2747471950 A24.9855712857
G4 P1.0000
G1 X238.2747471950 Y24.9867230572 Z238.2747471950 A24.9855712857
G4 P1.0000
G1 X237.2747471950 Y24.9867230572 Z237.2747471950 A24.9855712857
G1 X237.2702236080 Y24.8868303174 Z237.2702236080 A24.8868303174
G4 P1.0000
G1 X236.9841163384 Y23.8563096161 Z237.2320881922 A24.6106616709
G1 X236.3218569525 Y23.0098293744 Z237.1719311286 A24.3238544925
G1 X235.4545922403 Y22.3681668846 Z237.0480672106 A24.0539631700
G1 X234.5068480327 Y21.8535563326 Z236.8644998100 A23.8315007044
G1 X233.5135727316 Y21.4347742565 Z236.6495225893 A23.6442826592
G1 X232.4970147110 Y21.0774180132 Z236.4131534693 A23.4916430892
G1 X231.4656417140 Y20.7662335527 Z236.1640209778 A23.3648577081
G1 X230.4237165668 Y20.4927222845 Z235.9076807791 A23.2553759234
G1 X229.3748747003 Y20.2476027265 Z235.6459765328 A23.1612525675
G1 X228.3209383669 Y20.0255734297 Z235.3810707253 A23.0775014352
G1 X227.2628713215 Y19.8242177183 Z235.1135746847 A23.0032525042
G1 X226.2017765187 Y19.6396855314 Z234.8440876587 A22.9373727157
G1 X225.1379009267 Y19.4718972890 Z234.5736351042 A22.8754894114
G1 X224.0721248204 Y19.3167351104 Z234.3017272829 A22.8211781186
G1 X223.0048468563 Y19.1723861163 Z234.0289535035 A22.7716773429
G1 X221.9359981946 Y19.0401025494 Z233.7557432106 A22.7245477740
G1 X220.8661440471 Y18.9162737294 Z233.4817340313 A22.6828518527
G1 X219.7954015269 Y18.8004462801 Z233.2072956645 A22.6441873813
G1 X218.7238001439 Y18.6927978255 Z232.9326373438 A22.6070362797
G1 X217.6515527048 Y18.5918904731 Z232.6575266165 A22.5736908525
G1 X216.5785756335 Y18.4990021396 Z232.3822636517 A22.5415272048
G1 X215.5053574479 Y18.4089772566 Z232.1065879292 A22.5136124243
G1 X214.4314270521 Y18.3278728101 Z231.8308990255 A22.4854645552
G1 X213.3571728590 Y18.2511528989 Z231.5550026118 A22.4596943761
G1 X212.2826688722 Y18.1780830281 Z231.2788874978 A22.4365392697
G1 X211.2077739697 Y18.1109765800 Z231.0027398906 A22.4136035299
G1 X210.1325617105 Y18.0491412742 Z230.7264858570 A22.3920037291
G1 X209.0573253061 Y17.9878168392 Z230.4500034940 A22.3739884054
G1 X207.9816655083 Y17.9343271161 Z230.1736047444 A22.3542494855
G1 X206.9060077959 Y17.8808777276 Z229.8970039877 A22.3381782097
G1 X205.8301243453 Y17.8321923957 Z229.6204035601 A22.3218742457
G1 X204.7541274858 Y17.7860741813 Z229.3437430666 A22.3067273903
G1 X203.6779751329 Y17.7437772239 Z229.0670442704 A22.2922116843
G1 X202.6017204904 Y17.7041380069 Z228.7902946420 A22.2787950061
G1 X201.5253969390 Y17.6664484876 Z228.5134839653 A22.2667976534
G1 X200.4490038037 Y17.6308013335 Z228.2366468504 A22.2554373465
G1 X199.3725372182 Y17.5974633188 Z227.9597902603 A22.2445337125
G1 X198.2959660232 Y17.5676197024 Z227.6829285787 A22.2336370363
G1 X197.2193451248 Y17.5396631300 Z227.4060117159 A22.2244591075
G1 X196.1426817308 Y17.5134152202 Z227.1290762249 A22.2158738882
G1 X195.0659807543 Y17.4887650910 Z226.8521254140 A22.2078138255
G1 X193.9892307958 Y17.4664040071 Z226.5751673450 A22.1999271357
G1 X192.9124253090 Y17.4467829451 Z226.2982044386 A22.1921333434
G1 X191.8355961360 Y17.4285534222 Z226.0212069283 A22.1858995577
G1 X190.7587411674 Y17.4119328622 Z225.7441987011 A22.1801769765
G1 X189.6818664233 Y17.3966623945 Z225.4671828443 A22.1748473077
G1 X188.6049741334 Y17.3826796233 Z225.1901599123 A22.1699121843
G1 X187.5280662922 Y17.3699282584 Z224.9131305244 A22.1653641969
G1 X186.4511390655 Y17.3589283222 Z224.6360958056 A22.1611187498
G1 X185.3741897249 Y17.3504647090 Z224.3590588996 A22.1568203900
G1 X184.2972336451 Y17.3427704858 Z224.0820117380 A22.1536084359
G1 X183.2202790276 Y17.3349518961 Z223.8049547556 A22.1514756218
G1 X182.1433122243 Y17.3289791429 Z223.5279025963 A22.1486075527
G1 X181.0663356541 Y17.3253903192 Z223.2508477920 A22.1457604734
G1 X179.9893559317 Y17.3225410852 Z222.9737883069 A22.1439270852
G1 X178.9123772870 Y17.3194511881 Z222.6967243507 A22.1431162883
G1 X177.8353934791 Y17.3199591275 Z222.4196625179 A22.1408117688
G1 X176.7584110444 Y17.3211151078 Z222.1425975199 A22.1400384386
G1 X175.6814291422 Y17.3227820203 Z221.8655322392 A22.1398407276
G1 X174.6044471200 Y17.3242894659 Z221.5884673798 A22.1402367341
G1 X173.5274730067 Y17.3286329986 Z221.3113991973 A22.1394379423
G1 X172.4505029893 Y17.3339567776 Z221.0343333124 A22.1396672948
G1 X171.3735372761 Y17.3400980824 Z220.7572687145 A22.1404385531
G1 X170.2965703809 Y17.3460019251 Z220.4802079058 A22.1419883725
G1 X169.2196090430 Y17.3528092254 Z220.2031446349 A22.1431353759
G1 X168.1426541886 Y17.3605794092 Z219.9260814690 A22.1443370559
G1 X167.0657238184 Y17.3713173322 Z219.6490118402 A22.1448861902
G1 X165.9887887946 Y17.3814909515 Z219.3719593134 A22.1475302380
G1 X164.9118564445 Y17.3919287465 Z219.0949054625 A22.1500420454
G1 X163.8349375468 Y17.4037015077 Z218.8178472855 A22.1521236366
G1 X162.7580157107 Y17.4151865675 Z218.5407983558 A22.1551211112
G1 X161.6811027267 Y17.4274101388 Z218.2637453383 A22.1577737197
G1 X160.6042192666 Y17.4421032137 Z217.9866850448 A22.1598160294
G1 X159.5273476441 Y17.4575907578 Z217.7096372379 A22.1629844894
G1 X158.4504786836 Y17.4732711433 Z217.4325980477 A22.1667724859
G1 X157.3736076146 Y17.4888033999 Z217.1555625733 A22.1708271929
G1 X156.2967758991 Y17.5068392381 Z216.8785098982 A22.1737837739
G1 X155.2199500474 Y17.5252496459 Z216.6014781865 A22.1780727217
G1 X154.1431214762 Y17.5434918352 Z216.3244534613 A22.1828051001
G1 X153.0663136407 Y17.5629148034 Z216.0474194868 A22.1870096968
G1 X151.9895160659 Y17.5828971027 Z215.7703939148 A22.1917030369
G1 X150.9127389905 Y17.6039669775 Z215.4933678738 A22.1963841374
G1 X149.8359810723 Y17.6259827549 Z215.2163454751 A22.2012898281
G1 X148.7592281096 Y17.6482465285 Z214.9393353386 A22.2068076433
G1 X147.6824724744 Y17.6703791176 Z214.6623297237 A22.2125507747
G1 X146.6057393094 Y17.6935722353 Z214.3853138418 A22.2178081967
G1 X145.5290179351 Y17.7173112064 Z214.1083078378 A22.2235360693
G1 X144.4523242062 Y17.7422799016 Z213.8312995626 A22.2291758267
G1 X143.3756258301 Y17.7670418727 Z213.5543079901 A22.2355603385
G1 X142.2989302716 Y17.7919194555 Z213.2773149022 A22.2418818551
G1 X141.2223076052 Y17.8198030707 Z213.0002995362 A22.2472843336
G1 X140.1456737377 Y17.8472268307 Z212.7233249210 A22.2543664373
G1 X139.0690390353 Y17.8746178233 Z212.4463498829 A22.2614319415
G1 X137.9924429048 Y17.9034887811 Z212.1693612085 A22.2679738741
G1 X136.9158425796 Y17.9321991942 Z211.8923948366 A22.2753713098
G1 X135.8392416850 Y17.9608882607 Z211.6154283340 A22.2827638430
G1 X134.7627173684 Y17.9923203326 Z211.3384320946 A22.2890907726
G1 X133.6861923284 Y18.0237271225 Z211.0614850484 A22.2971794547
G1 X132.6096664498 Y18.0551051595 Z210.7845379657 A22.3052668874
G1 X131.5331406945 Y18.0864874282 Z210.5075904613 A22.3133398601
G1 X130.4566340073 Y18.1184969704 Z210.2306349919 A22.3211508460
G1 X129.3801985789 Y18.1528506985 Z209.9536735309 A22.3287647291
G1 X128.3037554063 Y18.1869482673 Z209.6767465523 A22.3375135568
G1 X127.2273125904 Y18.2210571034 Z209.3998202715 A22.3462844231
G1 X126.1508697690 Y18.2551657642 Z209.1228941083 A22.3550590005
G1 X125.0744853578 Y18.2910457732 Z208.8459434880 A22.3630919167
G1 X123.9981371952 Y18.3280250649 Z208.5690277796 A22.3721835718
G1 X122.9217342805 Y18.3633743143 Z208.2921382111 A22.3820602199
G1 X121.8453864114 Y18.4003322258 Z208.0152030637 A22.3905933418
G1 X120.7690890813 Y18.4387641640 Z207.7382940763 A22.3998894536
G1 X119.6927887580 Y18.4771068620 Z207.4614035858 A22.4097255988
G1 X118.6165099921 Y18.5160433012 Z207.1845050359 A22.4193403033
G1 X117.5402663516 Y18.5559472084 Z206.9076157104 A22.4292090776
G1 X116.4640210444 Y18.5958042907 Z206.6307393543 A22.4394353657
G1 X115.3877764610 Y18.6356809084 Z206.3538638040 A22.4496834336
G1 X114.3115333328 Y18.6755967901 Z206.0769884257 A22.4599361403
G1 X113.2353387435 Y18.7167967731 Z205.8000963903 A22.4697484547
G1 X112.1591657719 Y18.7585571625 Z205.5232312947 A22.4802783313
G1 X111.0830413492 Y18.8015567345 Z205.2463670925 A22.4908310127
G1 X110.0069173144 Y18.8445637719 Z204.9695196662 A22.5018128245
G1 X108.9308041275 Y18.8878380785 Z204.6926720093 A22.5127907243
G1 X107.8547481865 Y18.9325189693 Z204.4158221333 A22.5237140998
G1 X106.7786919171 Y18.9771894010 Z204.1389920043 A22.5351236380
G1 X105.7026384661 Y19.0219277068 Z203.8621654782 A22.5466200707
G1 X104.6265921691 Y19.0668378200 Z203.5853384993 A22.5581056298
G1 X103.5505915096 Y19.1128225256 Z203.3084956266 A22.5692180726
G1 X102.4746121740 Y19.1593092620 Z203.0316883668 A22.5811693987
G1 X101.3986380986 Y19.2059176186 Z202.7548807866 A22.5931133160
G1 X100.3226726561 Y19.2527246116 Z202.4780716458 A22.6050215194
G1 X99.2467190199 Y19.2997998206 Z202.2012662332 A22.6170169920
G1 X98.1708351861 Y19.3484491734 Z201.9244587048 A22.6289647491
G1 X97.0949976142 Y19.3981031285 Z201.6476573589 A22.6410648619
G1 X96.0191746077 Y19.4480756381 Z201.3708958027 A22.6540324598
G1 X94.9433046992 Y19.4970305410 Z201.0941324925 A22.6669620017
G1 X93.8674980335 Y19.5473497135 Z200.8173386560 A22.6792313493
G1 X92.7917141347 Y19.5981585504 Z200.5405799444 A22.6922586780
G1 X91.7159408963 Y19.6491927779 Z200.2638230915 A22.7053253039
G1 X90.6402397309 Y19.7017198473 Z199.9870548236 A22.7181566315
G1 X89.5645326349 Y19.7541266199 Z199.7103318431 A22.7319251010
G1 X88.4887869833 Y19.8057394481 Z199.4335922013 A22.7453504810
G1 X87.4131283851 Y19.8591339209 Z199.1568357297 A22.7584305978
G1 X86.3374839058 Y19.9128132290 Z198.8801084943 A22.7721106628
G1 X85.2618489441 Y19.9666831814 Z198.6033897145 A22.7859602375
G1 X84.1862377733 Y20.0210262994 Z198.3266702697 A22.7997965849
G1 X83.1106929519 Y20.0766601511 Z198.0499430055 A22.8134836168
G1 X82.0351618018 Y20.1325622333 Z197.7732620144 A22.8280704427
G1 X80.9595861704 Y20.1876045122 Z197.4965669887 A22.8423859868
G1 X79.8840385416 Y20.2431906915 Z197.2198622976 A22.8565144872
G1 X78.8085491677 Y20.2998846637 Z196.9431503998 A22.8705101461
G1 X77.7331102589 Y20.3575359663 Z196.6664800794 A22.8852963331
G1 X76.6576961565 Y20.4156485286 Z196.3898130417 A22.9001435598
G1 X75.5822370203 Y20.4729203198 Z196.1131549085 A22.9151566489
G1 X74.5068250311 Y20.5310623281 Z195.8364626699 A22.9295359639
G1 X73.4314749422 Y20.5903471726 Z195.5598147405 A22.9447353860
G1 X72.3561565176 Y20.6502041016 Z195.2831715291 A22.9600200522
G1 X71.2807896309 Y20.7091827860 Z195.0065363173 A22.9754493657
G1 X70.2054827502 Y20.7692367775 Z194.7298720894 A22.9903551090
G1 X69.1302406209 Y20.8304479106 Z194.4532473671 A23.0059717169
G1 X68.0550313706 Y20.8922348521 Z194.1766355753 A23.0218147779
G1 X66.9797586695 Y20.9529074876 Z193.9000250261 A23.0376795253
G1 X65.9045959731 Y21.0154891224 Z193.6233950085 A23.0532033943
G1 X64.8294416842 Y21.0782230533 Z193.3468131022 A23.0695610558
G1 X63.7542690164 Y21.1406424769 Z193.0702062167 A23.0854904278
G1 X62.6791275707 Y21.2035980858 Z192.7936131639 A23.1016575338
G1 X61.6040422968 Y21.2675061662 Z192.5170259135 A23.1179232529
G1 X60.5289986653 Y21.3321099931 Z192.2404499210 A23.1343795118
G1 X59.4539188896 Y21.3961083323 Z191.9638859569 A23.1510369167
G1 X58.3789119944 Y21.4613047125 Z191.6872978152 A23.1672912777
G1 X57.3039661311 Y21.5275140600 Z191.4107677300 A23.1845026738
G1 X56.2289687331 Y21.5928825680 Z191.1342206419 A23.2014384468
G1 X55.1539567151 Y21.6580048244 Z190.8576495124 A23.2179798424
G1 X54.0791044240 Y21.7257193527 Z190.5811185250 A23.2351727198
G1 X53.0041941514 Y21.7925061601 Z190.3045944306 A23.2524789767
G1 X51.9292339788 Y21.8584845019 Z190.0280572610 A23.2695750202
G1 X50.8544470296 Y21.9272202459 Z189.7515309575 A23.2868418439
G1 X49.7795255101 Y21.9938172799 Z189.4750192728 A23.3043418556
G1 X48.7047518078 Y22.0627545543 Z189.1984971490 A23.3216748364
G1 X47.6298666101 Y22.1299341169 Z188.9219922095 A23.3392810951
G1 X46.5551265548 Y22.1993943422 Z188.6454813854 A23.3567931327
G1 X45.4803803174 Y22.2687701371 Z188.3689966524 A23.3747172960
G1 X44.4055798487 Y22.3373007733 Z188.0924977804 A23.3924219903
G1 X43.3307383126 Y22.4051780547 Z187.8159774568 A23.4097912327
G1 X42.2560956344 Y22.4761310918 Z187.5395199877 A23.4281296200
G1 X41.1813186935 Y22.5450261695 Z187.2630154701 A23.4457459901
G1 X40.1065848349 Y22.6145925724 Z186.9865325156 A23.4636975868
G1 X39.0318971085 Y22.6848638000 Z186.7100510686 A23.4816711079
G1 X37.9572108668 Y22.7551625999 Z186.4335807064 A23.4998157581
G1 X36.8825015745 Y22.8251040206 Z186.1570965527 A23.5177484311
G1 X35.8078574318 Y22.8960436130 Z185.8806345246 A23.5360195671
G1 X34.7331345644 Y22.9657792987 Z185.6041539660 A23.5540078296
G1 X33.6584254492 Y23.0357191843 Z185.3276708063 A23.5719543229
G1 X32.5837449729 Y23.1061050336 Z185.0511995472 A23.5900849288
G1 X31.5089745977 Y23.1751044786 Z184.7747041163 A23.6078430886
G1 X30.4343250109 Y23.2459586269 Z184.4982386616 A23.6260614410
G1 X29.3595817399 Y23.3153776056 Z184.2217488626 A23.6439067051
G1 X28.2847993937 Y23.3841701434 Z183.9452526048 A23.6616464160
G1 X27.2100515948 Y23.4535153900 Z183.6687570834 A23.6794015957
G1 X26.1352228719 Y23.5215711120 Z183.3922511802 A23.6969884474
G1 X25.0603351118 Y23.5886872336 Z183.1157070771 A23.7139600391
G1 X24.0253570999 Y23.6503600000 Z182.9586904332 A23.7250586667
G4 P1.0000
G1 X24.0000000000 Y25.0001374943 Z182.9333333333 A25.0000493946
G1 X23.0000000000 Y25.0001374943 Z181.9333333333 A25.0000493946
G4 P1.0000
G1 Y55.0000000000 A55.0000000000
G4 P2.0000
G0 Y60.0000000000 A60.0000000000
G0 X22.8500000000 Z181.7833333333
G0 Y50.0000000000 A50.0000000000
G1 X22.8500000000 Y0.0000000000 Z181.7833333333 A0.0000000000
G1 X22.8500000000 Y50.0000000000 Z181.7833333333 A50.0000000000
G0 Y55.0000000000 A55.0000000000
G0 Y60.0000000000 A60.0000000000
G0 X0.0000000000 Z0.0000000000
G0 Y0.0000000000 A0.0000000000
M5
M30