;Generated: 2021-09-14T20:03:19.591616
;[Project]
;Name = kb1_left
;Units = millimeters
;
;[RootChord]
;Profile = http://airfoiltools.com/airfoil/seligdatfile?airfoil=pw51-pw
;Width = 180
;LeadingEdgeOffset = 0
;Rotation = 0
;RotationPosition = 0.5
;
;[TipChord]
;Profile = http://airfoiltools.com/airfoil/seligdatfile?airfoil=pw51-pw
;Width = 100
;LeadingEdgeOffset = 0
;Rotation = 0
;RotationPosition = 0.5
;
;[Wing]
;TipChordSide = left
;Width = 750
;Inverted = no
;VerticalAlignProfiles = default
;Dihedral = 0
;StockLeadingEdge = 0
;StockTrailingEdge = 0.1
;
;[Placement]
;RootChordOffset = 300
;HorizontalOffset = 55
;VerticalOffsetRoot = 25
;RotateWing = no
;
;[Panel]
;Bottom = 0
;Height = 50
;Inset = 0
;Depth = 450
;SafeHeight = 60
;
;[Machine]
;Width = 1490
;Height = 400
;Depth = 490
;Feedrate = 160
;Kerf = 1.25,1.25
;
;[Gcode]
;GcodeWireOn = M3 S110
;GcodeWireOff = M5
;AxisMapping = X,Y,Z,A
;ConfigAsComment = yes
;InterpolationPoints = 200
;
;
G17
G21
G90
G64 P0.50
G54
M3 S110
G1 F160.0
G0 Y60.0000000000 A60.0000000000
G0 X181.9333333333 Z23.0000000000
G0 Y55.0000000000 A55.0000000000
G1 X181.9333333333 Y25.0000493946 Z23.0000000000 A25.0001374943
G4 P1.0000
G1 X182.9333333333 Y25.0000493946 Z24.0000000000 A25.0001374943
G4 P1.0000
G4 P1.0000
G1 X182.9333333333 Y26.2746841139 Z24.0000000000 A26.3493827805
G4 P1.0000
G1 X183.2129497236 Y26.2827099383 Z25.0879909422 A26.3795289797
G1 X183.4924480335 Y26.2945355659 Z26.1754870868 A26.4255174269
G1 X183.7717875415 Y26.3094076630 Z27.2625594359 A26.4796388803
G1 X184.0510004531 Y26.3267079739 Z28.3489456466 A26.5469278316
G1 X184.3302133646 Y26.3440082848 Z29.4353318573 A26.6142167828
G1 X184.6092835972 Y26.3633668938 Z30.5215109585 A26.6844940068
G1 X184.8882127899 Y26.3847597941 Z31.6067926568 A26.7677192254
G1 X185.1671419825 Y26.4061526944 Z32.6920743551 A26.8509444441
G1 X185.4460711752 Y26.4275455947 Z33.7773560535 A26.9341696627
G1 X185.7249839040 Y26.4491398255 Z34.8626419024 A27.0173441257
G1 X186.0036264468 Y26.4740379195 Z35.9471609904 A27.1098953721
G1 X186.2823252633 Y26.4982478423 Z37.0315457890 A27.2040888455
G1 X186.5610240799 Y26.5224577650 Z38.1159305875 A27.2982823188
G1 X186.8397228964 Y26.5466676877 Z39.2003153861 A27.3924757922
G1 X187.1184217129 Y26.5708776104 Z40.2847001846 A27.4866692655
G1 X187.3969267289 Y26.5972310209 Z41.3687718389 A27.5843262769
G1 X187.6754482400 Y26.6234019690 Z42.4524665257 A27.6861527348
G1 X187.9539697511 Y26.6495729171 Z43.5361612125 A27.7879791926
G1 X188.2324912623 Y26.6757438652 Z44.6198558993 A27.8898056505
G1 X188.5110127734 Y26.7019148133 Z45.7035505862 A27.9916321083
G1 X188.7895342845 Y26.7280857615 Z46.7872452730 A28.0934585662
G1 X189.0679249151 Y26.7556117613 Z47.8708796910 A28.1959090130
G1 X189.3463065510 Y26.7832308749 Z48.9540300971 A28.3033706316
G1 X189.6246881870 Y26.8108499884 Z50.0371805032 A28.4108322502
G1 X189.9030698230 Y26.8384691020 Z51.1203309094 A28.5182938688
G1 X190.1814514590 Y26.8660882156 Z52.2034813155 A28.6257554874
G1 X190.4598330950 Y26.8937073292 Z53.2866317216 A28.7332171060
G1 X190.7382147310 Y26.9213264428 Z54.3697821277 A28.8406787246
G1 X191.0165184020 Y26.9497191903 Z55.4529521889 A28.9479453094
G1 X191.2948092702 Y26.9782389752 Z56.5357735075 A29.0586724218
G1 X191.5731039840 Y27.0067205997 Z57.6185856488 A29.1694905989
G1 X191.8513986979 Y27.0352022241 Z58.7013977901 A29.2803087759
G1 X192.1296934117 Y27.0636838486 Z59.7842099314 A29.3911269530
G1 X192.4079881256 Y27.0921654730 Z60.8670220727 A29.5019451300
G1 X192.6862828394 Y27.1206470975 Z61.9498342141 A29.6127633071
G1 X192.9645775533 Y27.1491287219 Z63.0326463554 A29.7235814841
G1 X193.2428332992 Y27.1779890159 Z64.1154612292 A29.8343731085
G1 X193.5210960320 Y27.2067814140 Z65.1981488936 A29.9464008863
G1 X193.7993587649 Y27.2355738121 Z66.2808365581 A30.0584286641
G1 X194.0776214978 Y27.2643662102 Z67.3635242226 A30.1704564419
G1 X194.3558842306 Y27.2931586083 Z68.4462118870 A30.2824842197
G1 X194.6341469635 Y27.3219510064 Z69.5288995515 A30.3945119974
G1 X194.9124096964 Y27.3507434044 Z70.6115872159 A30.5065397752
G1 X195.1906724292 Y27.3795358025 Z71.6942748804 A30.6185675530
G1 X195.4689351621 Y27.4083282006 Z72.7769625448 A30.7305953308
G1 X195.7471924255 Y27.4371734318 Z73.8596455884 A30.8426677447
G1 X196.0254522375 Y27.4659940450 Z74.9423218784 A30.9548053964
G1 X196.3037120494 Y27.4948146583 Z76.0249981683 A31.0669430481
G1 X196.5819718613 Y27.5236352715 Z77.1076744583 A31.1790806997
G1 X196.8602316733 Y27.5524558847 Z78.1903507482 A31.2912183514
G1 X197.1384914852 Y27.5812764980 Z79.2730270382 A31.4033560031
G1 X197.4167512972 Y27.6100971112 Z80.3557033281 A31.5154936548
G1 X197.6950111091 Y27.6389177245 Z81.4383796181 A31.6276313065
G1 X197.9732709210 Y27.6677383377 Z82.5210559081 A31.7397689582
G1 X198.2515725394 Y27.6961538862 Z83.6037574258 A31.8516621765
G1 X198.5298531137 Y27.7247733316 Z84.6865144745 A31.9630173532
G1 X198.8081336880 Y27.7533927770 Z85.7692715231 A32.0743725299
G1 X199.0864142623 Y27.7820122225 Z86.8520285717 A32.1857277066
G1 X199.3646948366 Y27.8106316679 Z87.9347856204 A32.2970828832
G1 X199.6429754109 Y27.8392511133 Z89.0175426690 A32.4084380599
G1 X199.9212559852 Y27.8678705587 Z90.1002997177 A32.5197932366
G1 X200.1995365595 Y27.8964900041 Z91.1830567663 A32.6311484133
G1 X200.4778171338 Y27.9251094495 Z92.2658138150 A32.7425035900
G1 X200.7562109764 Y27.9526139569 Z93.3485423086 A32.8541398435
G1 X201.0345713369 Y27.9804480377 Z94.4315489475 A32.9630382220
G1 X201.3129220087 Y28.0083774890 Z95.5145787076 A33.0717090120
G1 X201.5912726804 Y28.0363069403 Z96.5976084676 A33.1803798021
G1 X201.8696233521 Y28.0642363916 Z97.6806382277 A33.2890505922
G1 X202.1479740238 Y28.0921658428 Z98.7636679877 A33.3977213822
G1 X202.4263246955 Y28.1200952941 Z99.8466977478 A33.5063921723
G1 X202.7046753672 Y28.1480247454 Z100.9297275078 A33.6150629624
G1 X202.9830260389 Y28.1759541967 Z102.0127572678 A33.7237337525
G1 X203.2613767106 Y28.2038836480 Z103.0957870279 A33.8324045425
G1 X203.5399851514 Y28.2291875172 Z104.1788228925 A33.9410131552
G1 X203.8184529405 Y28.2559240303 Z105.2623083081 A34.0450427461
G1 X204.0969207296 Y28.2826605434 Z106.3457937238 A34.1490723371
G1 X204.3753885186 Y28.3093970566 Z107.4292791395 A34.2531019280
G1 X204.6538563077 Y28.3361335697 Z108.5127645551 A34.3571315190
G1 X204.9323240968 Y28.3628700828 Z109.5962499708 A34.4611611099
G1 X205.2107918859 Y28.3896065960 Z110.6797353865 A34.5651907009
G1 X205.4892596749 Y28.4163431091 Z111.7632208021 A34.6692202918
G1 X205.7677274640 Y28.4430796222 Z112.8467062178 A34.7732498828
G1 X206.0461952531 Y28.4698161354 Z113.9301916335 A34.8772794737
G1 X206.3250631062 Y28.4922442597 Z115.0137035793 A34.9810233611
G1 X206.6036927471 Y28.5172377368 Z116.0978186776 A35.0782717828
G1 X206.8823223880 Y28.5422312138 Z117.1819337758 A35.1755202046
G1 X207.1609520289 Y28.5672246909 Z118.2660488741 A35.2727686263
G1 X207.4395816698 Y28.5922181680 Z119.3501639723 A35.3700170480
G1 X207.7182113107 Y28.6172116450 Z120.4342790705 A35.4672654698
G1 X207.9968409517 Y28.6422051221 Z121.5183941688 A35.5645138915
G1 X208.2754705926 Y28.6671985991 Z122.6025092670 A35.6617623132
G1 X208.5541002335 Y28.6921920762 Z123.6866243652 A35.7590107350
G1 X208.8327416608 Y28.7170473372 Z124.7707364921 A35.8562940011
G1 X209.1119175061 Y28.7356356406 Z125.8548591397 A35.9534539072
G1 X209.3907560000 Y28.7581799302 Z126.9397868303 A36.0411733919
G1 X209.6695944940 Y28.7807242197 Z128.0247145209 A36.1288928765
G1 X209.9484329879 Y28.8032685092 Z129.1096422114 A36.2166123612
G1 X210.2272714818 Y28.8258127988 Z130.1945699020 A36.3043318458
G1 X210.5061099758 Y28.8483570883 Z131.2794975926 A36.3920513305
G1 X210.7849484697 Y28.8709013779 Z132.3644252831 A36.4797708151
G1 X211.0637869636 Y28.8934456674 Z133.4493529737 A36.5674902997
G1 X211.3426254576 Y28.9159899570 Z134.5342806643 A36.6552097844
G1 X211.6215423568 Y28.9374912362 Z135.6191885888 A36.7431922128
G1 X211.9009904406 Y28.9519262566 Z136.7041478640 A36.8304915667
G1 X212.1800657216 Y28.9713205399 Z137.7899967824 A36.9059563157
G1 X212.4591410026 Y28.9907148233 Z138.8758457007 A36.9814210648
G1 X212.7382162836 Y29.0101091066 Z139.9616946190 A37.0568858139
G1 X213.0172915646 Y29.0295033900 Z141.0475435373 A37.1323505630
G1 X213.2963668456 Y29.0488976733 Z142.1333924556 A37.2078153120
G1 X213.5754421266 Y29.0682919567 Z143.2192413739 A37.2832800611
G1 X213.8545174076 Y29.0876862400 Z144.3050902922 A37.3587448102
G1 X214.1335926886 Y29.1070805234 Z145.3909392106 A37.4342095593
G1 X214.4129250970 Y29.1223412562 Z146.4767233068 A37.5107163799
G1 X214.6925684526 Y29.1326031802 Z147.5627997276 A37.5825239624
G1 X214.9718959350 Y29.1479429422 Z148.6496299370 A37.6422139770
G1 X215.2512234173 Y29.1632827041 Z149.7364601463 A37.7019039916
G1 X215.5305508997 Y29.1786224661 Z150.8232903556 A37.7615940061
G1 X215.8098783820 Y29.1939622281 Z151.9101205650 A37.8212840207
G1 X216.0892058644 Y29.2093019901 Z152.9969507743 A37.8809740353
G1 X216.3685333467 Y29.2246417521 Z154.0837809836 A37.9406640499
G1 X216.6478608290 Y29.2399815141 Z155.1706111930 A38.0003540644
G1 X216.9271883114 Y29.2553212760 Z156.2574414023 A38.0600440790
G1 X217.2070598128 Y29.2588515780 Z157.3441344640 A38.1227112684
G1 X217.4867210091 Y29.2669469067 Z158.4315954723 A38.1687085825
G1 X217.7662758358 Y29.2773512123 Z159.5193103172 A38.2091958384
G1 X218.0458306624 Y29.2877555178 Z160.6070251621 A38.2496830944
G1 X218.3253854891 Y29.2981598233 Z161.6947400070 A38.2901703503
G1 X218.6049403158 Y29.3085641288 Z162.7824548520 A38.3306576062
G1 X218.8844951425 Y29.3189684343 Z163.8701696969 A38.3711448621
G1 X219.1640499691 Y29.3293727398 Z164.9578845418 A38.4116321180
G1 X219.4436047958 Y29.3397770453 Z166.0455993867 A38.4521193739
G1 X219.7234286102 Y29.3402032147 Z167.1332464196 A38.4951221263
G1 X220.0032939622 Y29.3390881052 Z168.2211905172 A38.5271062563
G1 X220.2830033536 Y29.3437579128 Z169.3095067938 A38.5452854702
G1 X220.5627127449 Y29.3484277204 Z170.3978230704 A38.5634646842
G1 X220.8424221362 Y29.3530975281 Z171.4861393470 A38.5816438982
G1 X221.1221315275 Y29.3577673357 Z172.5744556237 A38.5998231122
G1 X221.4018409188 Y29.3624371433 Z173.6627719003 A38.6180023261
G1 X221.6815503101 Y29.3671069510 Z174.7510881769 A38.6361815401
G1 X221.9612597014 Y29.3717767586 Z175.8394044535 A38.6543607541
G1 X222.2410370250 Y29.3609782217 Z176.9277036043 A38.6764395507
G1 X222.5207999628 Y29.3534491542 Z178.0160819234 A38.6805063202
G1 X222.8005395517 Y29.3512326054 Z179.1045159616 A38.6718954883
G1 X223.0802791407 Y29.3490160566 Z180.1929499997 A38.6632846565
G1 X223.3600187296 Y29.3467995078 Z181.2813840378 A38.6546738246
G1 X223.6397583185 Y29.3445829589 Z182.3698180759 A38.6460629928
G1 X223.9194979074 Y29.3423664101 Z183.4582521140 A38.6374521609
G1 X224.1992374963 Y29.3401498613 Z184.5466861522 A38.6288413291
G1 X224.4787569113 Y29.3281613495 Z185.6351756963 A38.6226940173
G1 X224.7580278398 Y29.3051451231 Z186.7235722200 A38.6124161796
G1 X225.0375831474 Y29.2947537467 Z187.8112901116 A38.5720108589
G1 X225.3171384550 Y29.2843623704 Z188.8990080033 A38.5316055381
G1 X225.5966937626 Y29.2739709941 Z189.9867258949 A38.4912002174
G1 X225.8762490702 Y29.2635796177 Z191.0744437866 A38.4507948966
G1 X226.1558043778 Y29.2531882414 Z192.1621616783 A38.4103895759
G1 X226.4353596854 Y29.2427968650 Z193.2498795699 A38.3699842551
G1 X226.7139550018 Y29.2150304083 Z194.3378394762 A38.3339592068
G1 X226.9922529146 Y29.1818822149 Z195.4250597951 A38.2845457495
G1 X227.2712507519 Y29.1614039943 Z196.5106098396 A38.2048971297
G1 X227.5502485891 Y29.1409257737 Z197.5961598841 A38.1252485099
G1 X227.8292464264 Y29.1204475531 Z198.6817099286 A38.0455998901
G1 X228.1082442637 Y29.0999693326 Z199.7672599732 A37.9659512703
G1 X228.3872421010 Y29.0794911120 Z200.8528100177 A37.8863026505
G1 X228.6651026265 Y29.0469878780 Z201.9386467794 A37.8096855467
G1 X228.9410490103 Y28.9942463616 Z203.0245189304 A37.7334418934
G1 X229.2189374011 Y28.9620408798 Z204.1057567463 A37.6081917939
G1 X229.4968257919 Y28.9298353980 Z205.1869945621 A37.4829416944
G1 X229.7747141828 Y28.8976299162 Z206.2682323780 A37.3576915950
G1 X230.0526025736 Y28.8654244344 Z207.3494701938 A37.2324414955
G1 X230.3304909644 Y28.8332189527 Z208.4307080096 A37.1071913960
G1 X230.6040658516 Y28.7705847229 Z209.5130332634 A36.9896124094
G1 X230.8779211704 Y28.7099306928 Z210.5913399793 A36.8436807967
G1 X231.1538082644 Y28.6636115572 Z211.6647981407 A36.6635409132
G1 X231.4296953583 Y28.6172924215 Z212.7382563022 A36.4834010298
G1 X231.7055824523 Y28.5709732859 Z213.8117144636 A36.3032611463
G1 X231.9814695463 Y28.5246541503 Z214.8851726250 A36.1231212629
G1 X232.2498698648 Y28.4407229437 Z215.9605182088 A35.9524634141
G1 X232.5194196379 Y28.3625699697 Z217.0284020725 A35.7443107748
G1 X232.7920047451 Y28.2996691632 Z218.0890425252 A35.4997609174
G1 X233.0645898524 Y28.2367683568 Z219.1496829779 A35.2552110600
G1 X233.3371749596 Y28.1738675503 Z220.2103234306 A35.0106612026
G1 X233.6018684643 Y28.0818563343 Z221.2729533629 A34.7734501039
G1 X233.8609299864 Y27.9690735315 Z222.3309057318 A34.5189759585
G1 X234.1279342274 Y27.8855996323 Z223.3699038853 A34.1945601109
G1 X234.3949384683 Y27.8021257332 Z224.4089020389 A33.8701442633
G1 X234.6619427092 Y27.7186518341 Z225.4479001924 A33.5457284157
G1 X234.9051902919 Y27.5703622140 Z226.4928874195 A33.2376526658
G1 X235.1574297269 Y27.4466251213 Z227.5084775372 A32.8493247765
G1 X235.4150562277 Y27.3375940884 Z228.5112121570 A32.4259028809
G1 X235.6726827285 Y27.2285630554 Z229.5139467769 A32.0024809854
G1 X235.8876724595 Y27.0342744155 Z230.5274301622 A31.6005526042
G1 X236.1240064380 Y26.8827420761 Z231.4807219520 A31.0780826818
G1 X236.3654639022 Y26.7414699124 Z232.4217872417 A30.5311282493
G1 X236.5546561947 Y26.5278018343 Z233.3760286251 A30.0024248876
G1 X236.7402834495 Y26.3094793489 Z234.2497745337 A29.3615448139
G1 X236.9485538846 Y26.1226898945 Z235.0694855800 A28.6454154618
G1 X237.0268641449 Y25.8286897828 Z235.9219596956 A27.9563140064
G1 X237.1646399645 Y25.5848207973 Z236.4835704455 A27.0246994330
G1 X237.2476616817 Y25.3204913356 Z237.0559848690 A26.0957432612
G1 X237.2747471950 Y25.0390434405 Z237.2747471950 A25.0390434405
G4 P1.0000
G1 X237.2747471950 Y24.9855712857 Z237.2747471950 A24.9867230572
G4 P1.0000
G1 X238.2747471950 Y24.9855712857 Z238.2747471950 A24.9867230572
G4 P1.0000
G1 X237.2747471950 Y24.9855712857 Z237.2747471950 A24.9867230572
G1 X237.2702236080 Y24.8868303174 Z237.2702236080 A24.8868303174
G4 P1.0000
G1 X237.2320881922 Y24.6106616709 Z236.9841163384 A23.8563096161
G1 X237.1719311286 Y24.3238544925 Z236.3218569525 A23.0098293744
G1 X237.0480672106 Y24.0539631700 Z235.4545922403 A22.3681668846
G1 X236.8644998100 Y23.8315007044 Z234.5068480327 A21.8535563326
G1 X236.6495225893 Y23.6442826592 Z233.5135727316 A21.4347742565
G1 X236.4131534693 Y23.4916430892 Z232.4970147110 A21.0774180132
G1 X236.1640209778 Y23.3648577081 Z231.4656417140 A20.7662335527
G1 X235.9076807791 Y23.2553759234 Z230.4237165668 A20.4927222845
G1 X235.6459765328 Y23.1612525675 Z229.3748747003 A20.2476027265
G1 X235.3810707253 Y23.0775014352 Z228.3209383669 A20.0255734297
G1 X235.1135746847 Y23.0032525042 Z227.2628713215 A19.8242177183
G1 X234.8440876587 Y22.9373727157 Z226.2017765187 A19.6396855314
G1 X234.5736351042 Y22.8754894114 Z225.1379009267 A19.4718972890
G1 X234.3017272829 Y22.8211781186 Z224.0721248204 A19.3167351104
G1 X234.0289535035 Y22.7716773429 Z223.0048468563 A19.1723861163
G1 X233.7557432106 Y22.7245477740 Z221.9359981946 A19.0401025494
G1 X233.4817340313 Y22.6828518527 Z220.8661440471 A18.9162737294
G1 X233.2072956645 Y22.6441873813 Z219.7954015269 A18.8004462801
G1 X232.9326373438 Y22.6070362797 Z218.7238001439 A18.6927978255
G1 X232.6575266165 Y22.5736908525 Z217.6515527048 A18.5918904731
G1 X232.3822636517 Y22.5415272048 Z216.5785756335 A18.4990021396
G1 X232.1065879292 Y22.5136124243 Z215.5053574479 A18.4089772566
G1 X231.8308990255 Y22.4854645552 Z214.4314270521 A18.3278728101
G1 X231.5550026118 Y22.4596943761 Z213.3571728590 A18.2511528989
G1 X231.2788874978 Y22.4365392697 Z212.2826688722 A18.1780830281
G1 X231.0027398906 Y22.4136035299 Z211.2077739697 A18.1109765800
G1 X230.7264858570 Y22.3920037291 Z210.1325617105 A18.0491412742
G1 X230.4500034940 Y22.3739884054 Z209.0573253061 A17.9878168392
G1 X230.1736047444 Y22.3542494855 Z207.9816655083 A17.9343271161
G1 X229.8970039877 Y22.3381782097 Z206.9060077959 A17.8808777276
G1 X229.6204035601 Y22.3218742457 Z205.8301243453 A17.8321923957
G1 X229.3437430666 Y22.3067273903 Z204.7541274858 A17.7860741813
G1 X229.0670442704 Y22.2922116843 Z203.6779751329 A17.7437772239
G1 X228.7902946420 Y22.2787950061 Z202.6017204904 A17.7041380069
G1 X228.5134839653 Y22.2667976534 Z201.5253969390 A17.6664484876
G1 X228.2366468504 Y22.2554373465 Z200.4490038037 A17.6308013335
G1 X227.9597902603 Y22.2445337125 Z199.3725372182 A17.5974633188
G1 X227.6829285787 Y22.2336370363 Z198.2959660232 A17.5676197024
G1 X227.4060117159 Y22.2244591075 Z197.2193451248 A17.5396631300
G1 X227.1290762249 Y22.2158738882 Z196.1426817308 A17.5134152202
G1 X226.8521254140 Y22.2078138255 Z195.0659807543 A17.4887650910
G1 X226.5751673450 Y22.1999271357 Z193.9892307958 A17.4664040071
G1 X226.2982044386 Y22.1921333434 Z192.9124253090 A17.4467829451
G1 X226.0212069283 Y22.1858995577 Z191.8355961360 A17.4285534222
G1 X225.7441987011 Y22.1801769765 Z190.7587411674 A17.4119328622
G1 X225.4671828443 Y22.1748473077 Z189.6818664233 A17.3966623945
G1 X225.1901599123 Y22.1699121843 Z188.6049741334 A17.3826796233
G1 X224.9131305244 Y22.1653641969 Z187.5280662922 A17.3699282584
G1 X224.6360958056 Y22.1611187498 Z186.4511390655 A17.3589283222
G1 X224.3590588996 Y22.1568203900 Z185.3741897249 A17.3504647090
G1 X224.0820117380 Y22.1536084359 Z184.2972336451 A17.3427704858
G1 X223.8049547556 Y22.1514756218 Z183.2202790276 A17.3349518961
G1 X223.5279025963 Y22.1486075527 Z182.1433122243 A17.3289791429
G1 X223.2508477920 Y22.1457604734 Z181.0663356541 A17.3253903192
G1 X222.9737883069 Y22.1439270852 Z179.9893559317 A17.3225410852
G1 X222.6967243507 Y22.1431162883 Z178.9123772870 A17.3194511881
G1 X222.4196625179 Y22.1408117688 Z177.8353934791 A17.3199591275
G1 X222.1425975199 Y22.1400384386 Z176.7584110444 A17.3211151078
G1 X221.8655322392 Y22.1398407276 Z175.6814291422 A17.3227820203
G1 X221.5884673798 Y22.1402367341 Z174.6044471200 A17.3242894659
G1 X221.3113991973 Y22.1394379423 Z173.5274730067 A17.3286329986
G1 X221.0343333124 Y22.1396672948 Z172.4505029893 A17.3339567776
G1 X220.7572687145 Y22.1404385531 Z171.3735372761 A17.3400980824
G1 X220.4802079058 Y22.1419883725 Z170.2965703809 A17.3460019251
G1 X220.2031446349 Y22.1431353759 Z169.2196090430 A17.3528092254
G1 X219.9260814690 Y22.1443370559 Z168.1426541886 A17.3605794092
G1 X219.6490118402 Y22.1448861902 Z167.0657238184 A17.3713173322
G1 X219.3719593134 Y22.1475302380 Z165.9887887946 A17.3814909515
G1 X219.0949054625 Y22.1500420454 Z164.9118564445 A17.3919287465
G1 X218.8178472855 Y22.1521236366 Z163.8349375468 A17.4037015077
G1 X218.5407983558 Y22.1551211112 Z162.7580157107 A17.4151865675
G1 X218.2637453383 Y22.1577737197 Z161.6811027267 A17.4274101388
G1 X217.9866850448 Y22.1598160294 Z160.6042192666 A17.4421032137
G1 X217.7096372379 Y22.1629844894 Z159.5273476441 A17.4575907578
G1 X217.4325980477 Y22.1667724859 Z158.4504786836 A17.4732711433
G1 X217.1555625733 Y22.1708271929 Z157.3736076146 A17.4888033999
G1 X216.8785098982 Y22.1737837739 Z156.2967758991 A17.5068392381
G1 X216.6014781865 Y22.1780727217 Z155.2199500474 A17.5252496459
G1 X216.3244534613 Y22.1828051001 Z154.1431214762 A17.5434918352
G1 X216.0474194868 Y22.1870096968 Z153.0663136407 A17.5629148034
G1 X215.7703939148 Y22.1917030369 Z151.9895160659 A17.5828971027
G1 X215.4933678738 Y22.1963841374 Z150.9127389905 A17.6039669775
G1 X215.2163454751 Y22.2012898281 Z149.8359810723 A17.6259827549
G1 X214.9393353386 Y22.2068076433 Z148.7592281096 A17.6482465285
G1 X214.6623297237 Y22.2125507747 Z147.6824724744 A17.6703791176
G1 X214.3853138418 Y22.2178081967 Z146.6057393094 A17.6935722353
G1 X214.1083078378 Y22.2235360693 Z145.5290179351 A17.7173112064
G1 X213.8312995626 Y22.2291758267 Z144.4523242062 A17.7422799016
G1 X213.5543079901 Y22.2355603385 Z143.3756258301 A17.7670418727
G1 X213.2773149022 Y22.2418818551 Z142.2989302716 A17.7919194555
G1 X213.0002995362 Y22.2472843336 Z141.2223076052 A17.8198030707
G1 X212.7233249210 Y22.2543664373 Z140.1456737377 A17.8472268307
G1 X212.4463498829 Y22.2614319415 Z139.0690390353 A17.8746178233
G1 X212.1693612085 Y22.2679738741 Z137.9924429048 A17.9034887811
G1 X211.8923948366 Y22.2753713098 Z136.9158425796 A17.9321991942
G1 X211.6154283340 Y22.2827638430 Z135.8392416850 A17.9608882607
G1 X211.3384320946 Y22.2890907726 Z134.7627173684 A17.9923203326
G1 X211.0614850484 Y22.2971794547 Z133.6861923284 A18.0237271225
G1 X210.7845379657 Y22.3052668874 Z132.6096664498 A18.0551051595
G1 X210.5075904613 Y22.3133398601 Z131.5331406945 A18.0864874282
G1 X210.2306349919 Y22.3211508460 Z130.4566340073 A18.1184969704
G1 X209.9536735309 Y22.3287647291 Z129.3801985789 A18.1528506985
G1 X209.6767465523 Y22.3375135568 Z128.3037554063 A18.1869482673
G1 X209.3998202715 Y22.3462844231 Z127.2273125904 A18.2210571034
G1 X209.1228941083 Y22.3550590005 Z126.1508697690 A18.2551657642
G1 X208.8459434880 Y22.3630919167 Z125.0744853578 A18.2910457732
G1 X208.5690277796 Y22.3721835718 Z123.9981371952 A18.3280250649
G1 X208.2921382111 Y22.3820602199 Z122.9217342805 A18.3633743143
G1 X208.0152030637 Y22.3905933418 Z121.8453864114 A18.4003322258
G1 X207.7382940763 Y22.3998894536 Z120.7690890813 A18.4387641640
G1 X207.4614035858 Y22.4097255988 Z119.6927887580 A18.4771068620
G1 X207.1845050359 Y22.4193403033 Z118.6165099921 A18.5160433012
G1 X206.9076157104 Y22.4292090776 Z117.5402663516 A18.5559472084
G1 X206.6307393543 Y22.4394353657 Z116.4640210444 A18.5958042907
G1 X206.3538638040 Y22.4496834336 Z115.3877764610 A18.6356809084
G1 X206.0769884257 Y22.4599361403 Z114.3115333328 A18.6755967901
G1 X205.8000963903 Y22.4697484547 Z113.2353387435 A18.7167967731
G1 X205.5232312947 Y22.4802783313 Z112.1591657719 A18.7585571625
G1 X205.2463670925 Y22.4908310127 Z111.0830413492 A18.8015567345
G1 X204.9695196662 Y22.5018128245 Z110.0069173144 A18.8445637719
G1 X204.6926720093 Y22.5127907243 Z108.9308041275 A18.8878380785
G1 X204.4158221333 Y22.5237140998 Z107.8547481865 A18.9325189693
G1 X204.1389920043 Y22.5351236380 Z106.7786919171 A18.9771894010
G1 X203.8621654782 Y22.5466200707 Z105.7026384661 A19.0219277068
G1 X203.5853384993 Y22.5581056298 Z104.6265921691 A19.0668378200
G1 X203.3084956266 Y22.5692180726 Z103.5505915096 A19.1128225256
G1 X203.0316883668 Y22.5811693987 Z102.4746121740 A19.1593092620
G1 X202.7548807866 Y22.5931133160 Z101.3986380986 A19.2059176186
G1 X202.4780716458 Y22.6050215194 Z100.3226726561 A19.2527246116
G1 X202.2012662332 Y22.6170169920 Z99.2467190199 A19.2997998206
G1 X201.9244587048 Y22.6289647491 Z98.1708351861 A19.3484491734
G1 X201.6476573589 Y22.6410648619 Z97.0949976142 A19.3981031285
G1 X201.3708958027 Y22.6540324598 Z96.0191746077 A19.4480756381
G1 X201.0941324925 Y22.6669620017 Z94.9433046992 A19.4970305410
G1 X200.8173386560 Y22.6792313493 Z93.8674980335 A19.5473497135
G1 X200.5405799444 Y22.6922586780 Z92.7917141347 A19.5981585504
G1 X200.2638230915 Y22.7053253039 Z91.7159408963 A19.6491927779
G1 X199.9870548236 Y22.7181566315 Z90.6402397309 A19.7017198473
G1 X199.7103318431 Y22.7319251010 Z89.5645326349 A19.7541266199
G1 X199.4335922013 Y22.7453504810 Z88.4887869833 A19.8057394481
G1 X199.1568357297 Y22.7584305978 Z87.4131283851 A19.8591339209
G1 X198.8801084943 Y22.7721106628 Z86.3374839058 A19.9128132290
G1 X198.6033897145 Y22.7859602375 Z85.2618489441 A19.9666831814
G1 X198.3266702697 Y22.7997965849 Z84.1862377733 A20.0210262994
G1 X198.0499430055 Y22.8134836168 Z83.1106929519 A20.0766601511
G1 X197.7732620144 Y22.8280704427 Z82.0351618018 A20.1325622333
G1 X197.4965669887 Y22.8423859868 Z80.9595861704 A20.1876045122
G1 X197.2198622976 Y22.8565144872 Z79.8840385416 A20.2431906915
G1 X196.9431503998 Y22.8705101461 Z78.8085491677 A20.2998846637
G1 X196.6664800794 Y22.8852963331 Z77.7331102589 A20.3575359663
G1 X196.3898130417 Y22.9001435598 Z76.6576961565 A20.4156485286
G1 X196.1131549085 Y22.9151566489 Z75.5822370203 A20.4729203198
G1 X195.8364626699 Y22.9295359639 Z74.5068250311 A20.5310623281
G1 X195.5598147405 Y22.9447353860 Z73.4314749422 A20.5903471726
G1 X195.2831715291 Y22.9600200522 Z72.3561565176 A20.6502041016
G1 X195.0065363173 Y22.9754493657 Z71.2807896309 A20.7091827860
G1 X194.7298720894 Y22.9903551090 Z70.2054827502 A20.7692367775
G1 X194.4532473671 Y23.0059717169 Z69.1302406209 A20.8304479106
G1 X194.1766355753 Y23.0218147779 Z68.0550313706 A20.8922348521
G1 X193.9000250261 Y23.0376795253 Z66.9797586695 A20.9529074876
G1 X193.6233950085 Y23.0532033943 Z65.9045959731 A21.0154891224
G1 X193.3468131022 Y23.0695610558 Z64.8294416842 A21.0782230533
G1 X193.0702062167 Y23.0854904278 Z63.7542690164 A21.1406424769
G1 X192.7936131639 Y23.1016575338 Z62.6791275707 A21.2035980858
G1 X192.5170259135 Y23.1179232529 Z61.6040422968 A21.2675061662
G1 X192.2404499210 Y23.1343795118 Z60.5289986653 A21.3321099931
G1 X191.9638859569 Y23.1510369167 Z59.4539188896 A21.3961083323
G1 X191.6872978152 Y23.1672912777 Z58.3789119944 A21.4613047125
G1 X191.4107677300 Y23.1845026738 Z57.3039661311 A21.5275140600
G1 X191.1342206419 Y23.2014384468 Z56.2289687331 A21.5928825680
G1 X190.8576495124 Y23.2179798424 Z55.1539567151 A21.6580048244
G1 X190.5811185250 Y23.2351727198 Z54.0791044240 A21.7257193527
G1 X190.3045944306 Y23.2524789767 Z53.0041941514 A21.7925061601
G1 X190.0280572610 Y23.2695750202 Z51.9292339788 A21.8584845019
G1 X189.7515309575 Y23.2868418439 Z50.8544470296 A21.9272202459
G1 X189.4750192728 Y23.3043418556 Z49.7795255101 A21.9938172799
G1 X189.1984971490 Y23.3216748364 Z48.7047518078 A22.0627545543
G1 X188.9219922095 Y23.3392810951 Z47.6298666101 A22.1299341169
G1 X188.6454813854 Y23.3567931327 Z46.5551265548 A22.1993943422
G1 X188.3689966524 Y23.3747172960 Z45.4803803174 A22.2687701371
G1 X188.0924977804 Y23.3924219903 Z44.4055798487 A22.3373007733
G1 X187.8159774568 Y23.4097912327 Z43.3307383126 A22.4051780547
G1 X187.5395199877 Y23.4281296200 Z42.2560956344 A22.4761310918
G1 X187.2630154701 Y23.4457459901 Z41.1813186935 A22.5450261695
G1 X186.9865325156 Y23.4636975868 Z40.1065848349 A22.6145925724
G1 X186.7100510686 Y23.4816711079 Z39.0318971085 A22.6848638000
G1 X186.4335807064 Y23.4998157581 Z37.9572108668 A22.7551625999
G1 X186.1570965527 Y23.5177484311 Z36.8825015745 A22.8251040206
G1 X185.8806345246 Y23.5360195671 Z35.8078574318 A22.8960436130
G1 X185.6041539660 Y23.5540078296 Z34.7331345644 A22.9657792987
G1 X185.3276708063 Y23.5719543229 Z33.6584254492 A23.0357191843
G1 X185.0511995472 Y23.5900849288 Z32.5837449729 A23.1061050336
G1 X184.7747041163 Y23.6078430886 Z31.5089745977 A23.1751044786
G1 X184.4982386616 Y23.6260614410 Z30.4343250109 A23.2459586269
G1 X184.2217488626 Y23.6439067051 Z29.3595817399 A23.3153776056
G1 X183.9452526048 Y23.6616464160 Z28.2847993937 A23.3841701434
G1 X183.6687570834 Y23.6794015957 Z27.2100515948 A23.4535153900
G1 X183.3922511802 Y23.6969884474 Z26.1352228719 A23.5215711120
G1 X183.1157070771 Y23.7139600391 Z25.0603351118 A23.5886872336
G1 X182.9586904332 Y23.7250586667 Z24.0253570999 A23.6503600000
G4 P1.0000
G1 X182.9333333333 Y25.0000493946 Z24.0000000000 A25.0001374943
G1 X181.9333333333 Y25.0000493946 Z23.0000000000 A25.0001374943
G4 P1.0000
G1 Y55.0000000000 A55.0000000000
G4 P2.0000
G0 Y60.0000000000 A60.0000000000
G0 X181.7833333333 Z22.8500000000
G0 Y50.0000000000 A50.0000000000
G1 X181.7833333333 Y0.0000000000 Z22.8500000000 A0.0000000000
G1 X181.7833333333 Y50.0000000000 Z22.8500000000 A50.0000000000
G0 Y55.0000000000 A55.0000000000
G0 Y60.0000000000 A60.0000000000
G0 X0.0000000000 Z0.0000000000
G0 Y0.0000000000 A0.0000000000
M5
M30