;Generated: 2021-10-09T14:44:22.502600
;[Project]
;Name = nose
;Units = millimeters
;
;[RootChord]
;Profile = contrib/profiles/schalk/fuse_to_cut_svgs-front_s.svg.dat
;Width = 54
;LeadingEdgeOffset = 0
;Rotation = 0
;RotationPosition = 0.5
;
;[TipChord]
;Profile = contrib/profiles/schalk/fuse_to_cut_svgs-front_s.svg.dat
;Width = 12
;LeadingEdgeOffset = 17.5
;Rotation = 0
;RotationPosition = 0.5
;
;[Wing]
;TipChordSide = right
;Width = 330
;Inverted = no
;VerticalAlignProfiles = default
;Dihedral = 1
;StockLeadingEdge = 0
;StockTrailingEdge = 0
;
;[Placement]
;RootChordOffset = 300
;HorizontalOffset = 70
;VerticalOffsetRoot = 25
;RotateWing = no
;
;[Panel]
;Bottom = 0
;Height = 120
;Inset = 0
;Depth = 400
;SafeHeight = 130
;
;[Machine]
;Width = 1490
;Height = 400
;Depth = 490
;Feedrate = 160
;Kerf = 1,2
;
;[Gcode]
;GcodeWireOn = M3 S50
;GcodeWireOff = M5
;AxisMapping = X,Y,Z,A
;ConfigAsComment = yes
;InterpolationPoints = 200
;
;
G17
G21
G90
G64 P0.50
G54
M3 S50
G1 F160.0
G0 Y130.0000000000 A130.0000000000
G0 X48.4043957597 Z155.6625634863
G0 Y132.0000000000 A132.0000000000
G1 X48.4043957597 Y68.1526034030 Z155.6625634863 A79.6001146934
G4 P1.0000
G1 X49.4043957597 Y68.1526034030 Z156.6625634863 A79.6001146934
G4 P1.0000
G4 P1.0000
G1 X49.4721080630 Y70.3504847298 Z160.0933201842 A74.8656362449
G4 P1.0000
G1 X50.3975129585 Y70.3878686315 Z158.9259898091 A74.5054652294
G1 X51.3229178541 Y70.4252525332 Z157.7586594341 A74.1452942138
G1 X52.2483227496 Y70.4626364349 Z156.5913290590 A73.7851231982
G1 X53.1737276452 Y70.5000203366 Z155.4239986839 A73.4249521826
G1 X54.0991325407 Y70.5374042383 Z154.2566683088 A73.0647811671
G1 X55.0245374363 Y70.5747881400 Z153.0893379337 A72.7046101515
G1 X55.9499423318 Y70.6121720417 Z151.9220075587 A72.3444391359
G1 X56.8753472274 Y70.6495559434 Z150.7546771836 A71.9842681204
G1 X57.8007521229 Y70.6869398452 Z149.5873468085 A71.6240971048
G1 X58.7261570185 Y70.7243237469 Z148.4200164334 A71.2639260892
G1 X59.6515619140 Y70.7617076486 Z147.2526860583 A70.9037550737
G1 X60.5769668096 Y70.7990915503 Z146.0853556833 A70.5435840581
G1 X61.5023717051 Y70.8364754520 Z144.9180253082 A70.1834130425
G1 X62.4435810616 Y70.7448253056 Z143.6880039047 A70.3350770846
G1 X63.3987541910 Y70.5391692373 Z142.4025928689 A70.9389646168
G1 X64.3539273204 Y70.3335131689 Z141.1171818330 A71.5428521490
G1 X65.3091004497 Y70.1278571006 Z139.8317707972 A72.1467396812
G1 X66.2642735791 Y69.9222010323 Z138.5463597613 A72.7506272134
G1 X67.2192902864 Y69.7165662174 Z137.2615691995 A73.3544304406
G1 X68.1552674025 Y69.5135183494 Z136.0523023497 A73.9479721115
G1 X68.7604088218 Y69.6928674510 Z135.2946524828 A74.0195115698
G1 X68.7919215439 Y70.5352462004 Z135.3200513137 A73.1859629376
G1 X68.8234342660 Y71.3776249498 Z135.3454501445 A72.3524143054
G1 X68.8549469881 Y72.2200036993 Z135.3708489753 A71.5188656731
G1 X68.8864597103 Y73.0623824487 Z135.3962478062 A70.6853170409
G1 X68.9179724324 Y73.9047611981 Z135.4216466370 A69.8517684087
G1 X68.9494851545 Y74.7471399475 Z135.4470454679 A69.0182197764
G1 X69.0031844756 Y75.5890310051 Z135.4856785950 A68.1721788907
G1 X69.1714604686 Y76.4149872102 Z135.3742892249 A67.3459602907
G1 X69.3397364615 Y77.2409434153 Z135.2628998549 A66.5197416907
G1 X69.5080124545 Y78.0668996203 Z135.1515104849 A65.6935230906
G1 X69.6762884475 Y78.8928558254 Z135.0401211149 A64.8673044906
G1 X69.8445644404 Y79.7188120305 Z134.9287317449 A64.0410858905
G1 X70.0128404334 Y80.5447682356 Z134.8173423749 A63.2148672905
G1 X70.2242624293 Y81.3574996132 Z134.6493283693 A62.4055963068
G1 X70.5178196725 Y82.1476953695 Z134.4125022832 A61.6060285174
G1 X70.8113769156 Y82.9378911258 Z134.1756761971 A60.8064607280
G1 X71.1049341587 Y83.7280868821 Z133.9388501111 A60.0068929386
G1 X71.3984914018 Y84.5182826384 Z133.7020240250 A59.2073251492
G1 X71.6920486449 Y85.3084783947 Z133.4651979390 A58.4077573598
G1 X71.9856058881 Y86.0986741510 Z133.2283718529 A57.6081895704
G1 X72.3229069494 Y86.8674416131 Z132.9318319832 A56.8378731033
G1 X72.7478224775 Y87.5938640334 Z132.5225776376 A56.1204952340
G1 X73.1583022917 Y88.3304866005 Z132.1705849566 A55.3626567827
G1 X73.5687821060 Y89.0671091675 Z131.8185922757 A54.6048183314
G1 X73.9792619202 Y89.8037317346 Z131.4665995948 A53.8469798801
G1 X74.3897417344 Y90.5403543016 Z131.1146069139 A53.0891414288
G1 X74.8002215487 Y91.2769768686 Z130.7626142329 A52.3313029775
G1 X75.2519265027 Y91.9843053197 Z130.3543459644 A51.6134533195
G1 X75.7960075711 Y92.6259923533 Z129.8199769683 A50.9852094060
G1 X76.3352743352 Y93.2723976386 Z129.3047047126 A50.3382497604
G1 X76.8658573261 Y93.9273134429 Z128.8238780906 A49.6575317231
G1 X77.3964403170 Y94.5822292472 Z128.3430514686 A48.9768136857
G1 X77.9270233079 Y95.2371450514 Z127.8622248466 A48.2960956483
G1 X78.4576062987 Y95.8920608557 Z127.3813982246 A47.6153776109
G1 X79.0298505101 Y96.5059788050 Z126.8437007302 A46.9906248994
G1 X79.6630580880 Y97.0599040986 Z126.2227834022 A46.4477669243
G1 X80.2962656659 Y97.6138293921 Z125.6018660741 A45.9049089492
G1 X80.9219730686 Y98.1778285188 Z125.0106994409 A45.3220914359
G1 X81.5433851580 Y98.7475968800 Z124.4365708838 A44.7163892923
G1 X82.1647972474 Y99.3173652412 Z123.8624423267 A44.1106871487
G1 X82.7862093368 Y99.8871336025 Z123.2883137696 A43.5049850051
G1 X83.4490667846 Y100.4011489337 Z122.6576090089 A42.9753901723
G1 X84.1620573114 Y100.8477243596 Z121.9584686166 A42.5378561626
G1 X84.8750478382 Y101.2942997855 Z121.2593282244 A42.1003221530
G1 X85.5880383649 Y101.7408752114 Z120.5601878322 A41.6627881433
G1 X86.2934297499 Y102.2020633888 Z119.8911907025 A41.1672902193
G1 X86.9971339608 Y102.6664959134 Z119.2288860296 A40.6589230515
G1 X87.7008381717 Y103.1309284381 Z118.5665813568 A40.1505558836
G1 X88.4402918834 Y103.5264400708 Z117.8554757783 A39.7362712030
G1 X89.2161196477 Y103.8518267478 Z117.0947167310 A39.4177126525
G1 X89.9919474120 Y104.1772134248 Z116.3339576837 A39.0991541020
G1 X90.7677751763 Y104.5026001018 Z115.5731986364 A38.7805955515
G1 X91.5433009119 Y104.8288934261 Z114.8136376364 A38.4584406337
G1 X92.3130786438 Y105.1724414379 Z114.0768770510 A38.0678421220
G1 X93.0828563758 Y105.5159894496 Z113.3401164655 A37.6772436103
G1 X93.8785815068 Y105.7813865740 Z112.5679356209 A37.3933272623
G1 X94.6950199034 Y105.9843974810 Z111.7674795250 A37.1945730522
G1 X95.5114582999 Y106.1874083881 Z110.9670234291 A36.9958188422
G1 X96.3278966965 Y106.3904192952 Z110.1665673332 A36.7970646321
G1 X97.1443350931 Y106.5934302023 Z109.3661112373 A36.5983104220
G1 X97.9595454485 Y106.8036167844 Z108.5705263711 A36.3710927009
G1 X98.7728361162 Y107.0250204627 Z107.7825562663 A36.0993804984
G1 X99.6010884281 Y107.1592770340 Z106.9741623298 A35.9466310135
G1 X100.4384745470 Y107.2403319083 Z106.1533000217 A35.8665060673
G1 X101.2758606659 Y107.3213867825 Z105.3324377137 A35.7863811211
G1 X102.1132467848 Y107.4024416568 Z104.5115754056 A35.7062561749
G1 X102.9506329037 Y107.4834965311 Z103.6907130976 A35.6261312287
G1 X103.7880190226 Y107.5645514053 Z102.8698507895 A35.5460062825
G1 X104.6253090646 Y107.6575007046 Z102.0493695866 A35.4187001171
G1 X105.4634188164 Y107.6486089700 Z101.2279704554 A35.4055260036
G1 X106.3020009885 Y107.5810414603 Z100.4059264331 A35.4724489800
G1 X107.1405831605 Y107.5134739507 Z99.5838824108 A35.5393719563
G1 X107.9791653325 Y107.4459064410 Z98.7618383885 A35.6062949326
G1 X108.8177475046 Y107.3783389313 Z97.9397943661 A35.6732179089
G1 X109.6563296766 Y107.3107714216 Z97.1177503438 A35.7401408852
G1 X110.4949118486 Y107.2432039119 Z96.2957063215 A35.8070638616
G1 X111.3204858788 Y107.0917406014 Z95.4860760317 A35.9538984862
G1 X112.1401571959 Y106.9022042973 Z94.6824574116 A36.1394524766
G1 X112.9598285131 Y106.7126679933 Z93.8788387914 A36.3250064669
G1 X113.7794998302 Y106.5231316892 Z93.0752201712 A36.5105604573
G1 X114.5991711473 Y106.3335953851 Z92.2716015511 A36.6961144476
G1 X115.4188424645 Y106.1440590811 Z91.4679829309 A36.8816684380
G1 X116.2385137816 Y105.9545227770 Z90.6643643108 A37.0672224283
G1 X117.0249523172 Y105.6590406679 Z89.9050414784 A37.3940084804
G1 X117.8061507020 Y105.3467672574 Z89.1388946374 A37.6993853087
G1 X118.5873490868 Y105.0344938468 Z88.3727477964 A38.0047621371
G1 X119.3685474716 Y104.7222204363 Z87.6066009553 A38.3101389654
G1 X120.1497458564 Y104.4099470258 Z86.8404541143 A38.6155157938
G1 X120.9309442412 Y104.0976736152 Z86.0743072733 A38.9208926221
G1 X121.7121426260 Y103.7854002047 Z85.3081604323 A39.2262694505
G1 X122.4313440369 Y103.3504435042 Z84.6266443811 A39.6991187063
G1 X123.1386229335 Y102.8918873696 Z83.9560981867 A40.1937013733
G1 X123.8534870168 Y102.4483172397 Z83.2554640853 A40.6288395548
G1 X124.5683511001 Y102.0047471099 Z82.5548299838 A41.0639777363
G1 X125.2832151834 Y101.5611769800 Z81.8541958823 A41.4991159179
G1 X125.9980792666 Y101.1176068501 Z81.1535617809 A41.9342540994
G1 X126.7129433499 Y100.6740367202 Z80.4529276794 A42.3693922809
G1 X127.3601021531 Y100.1372457510 Z79.8447166587 A42.9317843067
G1 X127.9922596695 Y99.5798000771 Z79.2569835851 A43.5223716435
G1 X128.6286095452 Y99.0281197777 Z78.6526208193 A44.0900896617
G1 X129.2716468245 Y98.4856360623 Z78.0217313527 A44.6213278965
G1 X129.9146841037 Y97.9431523469 Z77.3908418860 A45.1525661312
G1 X130.5577213830 Y97.4006686316 Z76.7599524194 A45.6838043659
G1 X131.2007586623 Y96.8581849162 Z76.1290629527 A46.2150426007
G1 X131.7480641340 Y96.2189678351 Z75.6288550012 A46.8783295569
G1 X132.2837367207 Y95.5679961643 Z75.1445268610 A47.5576624610
G1 X132.8194093073 Y94.9170244935 Z74.6601987207 A48.2369953651
G1 X133.3647195171 Y94.2757515303 Z74.1376413424 A48.8778567289
G1 X133.9142515527 Y93.6387271515 Z73.5983373881 A49.5018653746
G1 X134.4637835883 Y93.0017027728 Z73.0590334338 A50.1258740203
G1 X135.0133156239 Y92.3646783940 Z72.5197294795 A50.7498826660
G1 X135.4449781712 Y91.6414476245 Z72.1413267313 A51.4915698768
G1 X135.8698916519 Y90.9132807795 Z71.7721369950 A52.2399952223
G1 X136.2948051325 Y90.1851139346 Z71.4029472586 A52.9884205678
G1 X136.7197186131 Y89.4569470897 Z71.0337575222 A53.7368459134
G1 X137.1590029003 Y88.7392432440 Z70.6075635865 A54.4437680283
G1 X137.6000194875 Y88.0228006397 Z70.1744981937 A55.1456872195
G1 X138.0410360748 Y87.3063580353 Z69.7414328010 A55.8476064107
G1 X138.3508453728 Y86.5226234077 Z69.4874757713 A56.6413845543
G1 X138.6586997612 Y85.7378861694 Z69.2361873486 A57.4365313410
G1 X138.9665541495 Y84.9531489312 Z68.9848989258 A58.2316781277
G1 X139.2744085379 Y84.1684116929 Z68.7336105030 A59.0268249144
G1 X139.5839365712 Y83.3845254580 Z68.4756832886 A59.8185960541
G1 X139.9092467897 Y82.6086640400 Z68.1551534061 A60.5785354203
G1 X140.2260467032 Y81.8300307989 Z67.8462407654 A61.3422585451
G1 X140.4019210214 Y81.0054978130 Z67.7297027469 A62.1686384643
G1 X140.5777953395 Y80.1809648272 Z67.6131647284 A62.9950183834
G1 X140.7536696577 Y79.3564318413 Z67.4966267099 A63.8213983026
G1 X140.9295439758 Y78.5318988554 Z67.3800886914 A64.6477782218
G1 X141.1054182940 Y77.7073658695 Z67.2635506729 A65.4741581410
G1 X141.2859421792 Y76.8843161215 Z67.1285693719 A66.2946545502
G1 X141.4796143366 Y76.0657539865 Z66.9367149831 A67.0966078300
G1 X141.5276325425 Y75.2242780288 Z66.9436897978 A67.9298402963
G1 X141.5756507483 Y74.3828020712 Z66.9506646126 A68.7630727626
G1 X141.6236689542 Y73.5413261136 Z66.9576394274 A69.5963052288
G1 X141.6716871601 Y72.6998501560 Z66.9646142422 A70.4295376951
G1 X141.7197053660 Y71.8583741984 Z66.9715890570 A71.2627701614
G1 X141.7677235718 Y71.0168982407 Z66.9785638718 A72.0960026276
G1 X141.8081479871 Y70.1754485469 Z66.9883496214 A72.9280553453
G1 X141.7989328141 Y69.3338033795 Z67.0250367791 A73.7541883913
G1 X141.7897176410 Y68.4921582121 Z67.0617239369 A74.5803214372
G1 X141.7805024680 Y67.6505130447 Z67.0984110946 A75.4064544832
G1 X141.7712872950 Y66.8088678772 Z67.1350982524 A76.2325875291
G1 X141.7620721220 Y65.9672227098 Z67.1717854102 A77.0587205751
G1 X141.7528569489 Y65.1255775424 Z67.2084725679 A77.8848536211
G1 X141.7436417759 Y64.2839323750 Z67.2451597257 A78.7109866670
G1 X141.7434033366 Y63.4426222072 Z67.2462391730 A79.5357908814
G1 X141.7434480866 Y62.6013226076 Z67.2461953029 A80.3605531750
G1 X141.7434928366 Y61.7600230080 Z67.2461514327 A81.1853154687
G1 X141.7435375865 Y60.9187234084 Z67.2461075626 A82.0100777623
G1 X141.7435823365 Y60.0774238088 Z67.2460636925 A82.8348400560
G1 X141.7436270865 Y59.2361242092 Z67.2460198224 A83.6596023497
G1 X141.7436718364 Y58.3948246096 Z67.2459759523 A84.4843646433
G1 X141.7437165864 Y57.5535250100 Z67.2459320822 A85.3091269370
G1 X141.7437613364 Y56.7122254104 Z67.2458882120 A86.1338892306
G1 X141.7438060863 Y55.8709258108 Z67.2458443419 A86.9586515243
G1 X141.7438508363 Y55.0296262112 Z67.2458004718 A87.7834138180
G1 X141.7438955863 Y54.1883266115 Z67.2457566017 A88.6081761116
G1 X141.7439403362 Y53.3470270119 Z67.2457127316 A89.4329384053
G1 X141.7439850862 Y52.5057274123 Z67.2456688614 A90.2577006989
G1 X141.7440298362 Y51.6644278127 Z67.2456249913 A91.0824629926
G1 X141.7440745861 Y50.8231282131 Z67.2455811212 A91.9072252862
G1 X141.7441193361 Y49.9818286135 Z67.2455372511 A92.7319875799
G1 X141.7441640861 Y49.1405290139 Z67.2454933810 A93.5567498736
G1 X141.7442088360 Y48.2992294143 Z67.2454495109 A94.3815121672
G1 X141.7442535860 Y47.4579298147 Z67.2454056407 A95.2062744609
G1 X141.7442983360 Y46.6166302151 Z67.2453617706 A96.0310367545
G1 X141.7443430859 Y45.7753306155 Z67.2453179005 A96.8557990482
G1 X141.7443878359 Y44.9340310159 Z67.2452740304 A97.6805613419
G1 X141.7444325859 Y44.0927314163 Z67.2452301603 A98.5053236355
G1 X141.7444773359 Y43.2514318167 Z67.2451862901 A99.3300859292
G1 X141.7445220858 Y42.4101322171 Z67.2451424200 A100.1548482228
G1 X141.7445668358 Y41.5688326175 Z67.2450985499 A100.9796105165
G1 X141.7446115858 Y40.7275330179 Z67.2450546798 A101.8043728102
G1 X141.7446563357 Y39.8862334183 Z67.2450108097 A102.6291351038
G1 X141.7447010857 Y39.0449338187 Z67.2449669396 A103.4538973975
G1 X141.7447458357 Y38.2036342191 Z67.2449230694 A104.2786596911
G1 X141.7447905856 Y37.3623346195 Z67.2448791993 A105.1034219848
G1 X141.7448353356 Y36.5210350199 Z67.2448353292 A105.9281842784
G4 P1.0000
G1 X141.7448353356 Y36.5199574316 Z67.2448353292 A105.8334658019
G4 P1.0000
G1 X142.7448353356 Y36.5199574316 Z68.2448353292 A105.8334658019
G4 P1.0000
G1 X141.7448353356 Y36.5199574316 Z67.2448353292 A105.8334658019
G1 X141.7445492908 Y36.5138241905 Z67.2303423927 A105.5628355885
G4 P1.0000
G1 X141.6786704956 Y35.6850414002 Z67.2931170756 A106.3606434483
G1 X141.6127917005 Y34.8562586099 Z67.3558917584 A107.1584513081
G1 X141.5469129053 Y34.0274758196 Z67.4186664413 A107.9562591680
G1 X141.4810341101 Y33.1986930292 Z67.4814411242 A108.7540670278
G1 X141.4151553150 Y32.3699102389 Z67.5442158070 A109.5518748877
G1 X141.3523640923 Y31.5406494121 Z67.5947431190 A110.3515789591
G1 X141.2694820073 Y30.7146037757 Z67.6329019750 A111.1530551987
G1 X141.0762561843 Y29.9059683921 Z67.8216887908 A111.9307650615
G1 X140.8830303613 Y29.0973330086 Z68.0104756065 A112.7084749244
G1 X140.6898045383 Y28.2886976250 Z68.1992624223 A113.4861847872
G1 X140.4965787153 Y27.4800622414 Z68.3880492380 A114.2638946500
G1 X140.3033528924 Y26.6714268578 Z68.5768360538 A115.0416045129
G1 X140.1101270694 Y25.8627914742 Z68.7656228695 A115.8193143757
G1 X139.9007936698 Y25.0594501222 Z68.9578366583 A116.5957186419
G1 X139.5792878982 Y24.2927315580 Z69.2689834175 A117.3330372098
G1 X139.2577821267 Y23.5260129938 Z69.5801301768 A118.0703557776
G1 X138.9362763551 Y22.7592944296 Z69.8912769360 A118.8076743454
G1 X138.6147705835 Y21.9925758654 Z70.2024236952 A119.5449929132
G1 X138.2932648119 Y21.2258573012 Z70.5135704544 A120.2823114811
G1 X137.9717590403 Y20.4591387370 Z70.8247172136 A121.0196300489
G1 X137.6254847021 Y19.7051252676 Z71.1696750321 A121.7396051540
G1 X137.1850373633 Y18.9994777449 Z71.6079499404 A122.4114762923
G1 X136.7491044737 Y18.2915344181 Z72.0283175331 A123.0924541205
G1 X136.3131715842 Y17.5835910912 Z72.4486851259 A123.7734319488
G1 X135.8772386946 Y16.8756477643 Z72.8690527187 A124.4544097770
G1 X135.4413058050 Y16.1677044375 Z73.2894203114 A125.1353876053
G1 X135.0053729155 Y15.4597611106 Z73.7097879042 A125.8163654335
G1 X134.5465977428 Y14.7685242534 Z74.1613370263 A126.4745376048
G1 X133.9904458888 Y14.1485185399 Z74.7367792791 A127.0420509900
G1 X133.4474498870 Y13.5189342075 Z75.2600366517 A127.6475595638
G1 X132.9044538851 Y12.8893498751 Z75.7832940243 A128.2530681377
G1 X132.3614578833 Y12.2597655427 Z76.3065513969 A128.8585767115
G1 X131.8184618814 Y11.6301812103 Z76.8298087695 A129.4640852853
G1 X131.2754658796 Y11.0005968778 Z77.3530661421 A130.0695938592
G1 X130.7112516073 Y10.3924502585 Z77.9052881379 A130.6458382532
G1 X130.0614390087 Y9.8707872366 Z78.5743586426 A131.1040256730
G1 X129.4211426876 Y9.3395485866 Z79.2056812466 A131.6001964178
G1 X128.7856671261 Y8.8034591110 Z79.8178815041 A132.1156087707
G1 X128.1501915647 Y8.2673696354 Z80.4300817615 A132.6310211235
G1 X127.5147160032 Y7.7312801598 Z81.0422820189 A133.1464334764
G1 X126.8792404417 Y7.1951906842 Z81.6544822763 A133.6618458293
G1 X126.2248123892 Y6.6851961291 Z82.2925541882 A134.1416365445
G1 X125.5071161183 Y6.2623130328 Z83.0169922394 A134.5025132050
G1 X124.7919500047 Y5.8359504801 Z83.7313940001 A134.8771917095
G1 X124.0855032171 Y5.3975971648 Z84.4112091007 A135.2994335717
G1 X123.3790564295 Y4.9592438496 Z85.0910242014 A135.7216754339
G1 X122.6726096420 Y4.5208905344 Z85.7708393021 A136.1439172962
G1 X121.9661628544 Y4.0825372192 Z86.4506544027 A136.5661591584
G1 X121.2452561140 Y3.6727981032 Z87.1502084866 A136.9493403677
G1 X120.4632979083 Y3.3838711928 Z87.9331026659 A137.1676033281
G1 X119.6813397027 Y3.0949442824 Z88.7159968452 A137.3858662885
G1 X118.9058987189 Y2.7931413783 Z89.4730393778 A137.6552040239
G1 X118.1338910785 Y2.4845552607 Z90.2164629817 A137.9514485064
G1 X117.3618834381 Y2.1759691430 Z90.9598865856 A138.2476929888
G1 X116.5898757976 Y1.8673830254 Z91.7033101896 A138.5439374713
G1 X115.8087890957 Y1.5877372484 Z92.4591274330 A138.8006760919
G1 X114.9927928890 Y1.4193687179 Z93.2625989211 A138.9055124395
G1 X114.1767966822 Y1.2510001874 Z94.0660704092 A139.0103487872
G1 X113.3611213634 Y1.0816139751 Z94.8682690417 A139.1192219391
G1 X112.5511041557 Y0.8942833185 Z95.6480238335 A139.2992747203
G1 X111.7410869480 Y0.7069526619 Z96.4277786254 A139.4793275016
G1 X110.9310697403 Y0.5196220052 Z97.2075334172 A139.6593802828
G1 X110.1159883691 Y0.3649695600 Z97.9942011942 A139.7948247120
G1 X109.2843394150 Y0.3172249935 Z98.8034850368 A139.7843314019
G1 X108.4526904608 Y0.2694804270 Z99.6127688794 A139.7738380918
G1 X107.6210415066 Y0.2217358606 Z100.4220527220 A139.7633447817
G1 X106.7913115815 Y0.1615613510 Z101.2237244161 A139.8021569127
G1 X105.9626002260 Y0.0947893577 Z102.0213557839 A139.8671390624
G1 X105.1338888705 Y0.0280173644 Z102.8189871517 A139.9321212121
G1 X104.3054900778 Y0.0000000000 Z103.6161918464 A139.9442002176
G1 X103.4781424229 Y0.1023130615 Z104.4119616547 A139.7783678480
G1 X102.6507947680 Y0.2046261231 Z105.2077314630 A139.6125354784
G1 X101.8234471131 Y0.3069391846 Z106.0035012713 A139.4467031088
G1 X100.9960855155 Y0.4075286033 Z106.7993263857 A139.2877078557
G1 X100.1685583687 Y0.4876523182 Z107.5958081783 A139.2098932278
G1 X99.3410312219 Y0.5677760331 Z108.3922899710 A139.1320786000
G1 X98.5188481959 Y0.6790262173 Z109.1814766146 A139.0117738712
G1 X97.7152732704 Y0.8986580222 Z109.9452617243 A138.7435196284
G1 X96.9116983449 Y1.1182898271 Z110.7090468339 A138.4752653857
G1 X96.1081234194 Y1.3379216319 Z111.4728319436 A138.2070111429
G1 X95.3045484939 Y1.5575534368 Z112.2366170532 A137.9387569002
G1 X94.4993476902 Y1.7676853584 Z113.0068514797 A137.7081855277
G1 X93.6925184749 Y1.9683025940 Z113.7835452724 A137.5153557430
G1 X92.8971421297 Y2.2034146832 Z114.5446049883 A137.2754377454
G1 X92.1366988316 Y2.5437414758 Z115.2579783226 A136.8918933274
G1 X91.3762555334 Y2.8840682684 Z115.9713516569 A136.5083489093
G1 X90.6158122352 Y3.2243950610 Z116.6847249913 A136.1248044913
G1 X89.8553689371 Y3.5647218537 Z117.3980983256 A135.7412600732
G1 X89.0943560578 Y3.9033388478 Z118.1137309985 A135.3644978555
G1 X88.3276576855 Y4.2248888330 Z118.8519161268 A135.0554347739
G1 X87.5800472021 Y4.5832380545 Z119.5640447719 A134.6961378139
G1 X86.8850477615 Y5.0430152658 Z120.2043551681 A134.1983835982
G1 X86.1900483208 Y5.5027924770 Z120.8446655644 A133.7006293824
G1 X85.4950488802 Y5.9625696883 Z121.4849759606 A133.2028751667
G1 X84.8000494395 Y6.4223468995 Z122.1252863569 A132.7051209509
G1 X84.1050499989 Y6.8821241108 Z122.7655967531 A132.2073667352
G1 X83.4045073401 Y7.3312420040 Z123.4278952479 A131.7518944807
G1 X82.7243409383 Y7.8054211506 Z124.0729354410 A131.2825120039
G1 X82.1108698478 Y8.3693066501 Z124.6269312409 A130.6906732359
G1 X81.4973987572 Y8.9331921495 Z125.1809270408 A130.0988344679
G1 X80.8839276666 Y9.4970776489 Z125.7349228407 A129.5069956999
G1 X80.2704565761 Y10.0609631484 Z126.2889186406 A128.9151569319
G1 X79.6569854855 Y10.6248486478 Z126.8429144405 A128.3233181639
G1 X79.0433165638 Y11.1884686896 Z127.3976949710 A127.7325323779
G1 X78.4461500540 Y11.7637243663 Z127.9613667771 A127.1680214312
G1 X77.9296802780 Y12.4175914720 Z128.4148811372 A126.4961996449
G1 X77.4132105020 Y13.0714585776 Z128.8683954973 A125.8243778586
G1 X76.8967407260 Y13.7253256833 Z129.3219098574 A125.1525560723
G1 X76.3802709500 Y14.3791927889 Z129.7754242175 A124.4807342860
G1 X75.8638011740 Y15.0330598946 Z130.2289385777 A123.8089124997
G1 X75.3473313980 Y15.6869270003 Z130.6824529378 A123.1370907134
G1 X74.8537882148 Y16.3552695965 Z131.1223228299 A122.4626566467
G1 X74.4415928481 Y17.0792258033 Z131.4716231369 A121.7321973084
G1 X74.0293974814 Y17.8031820102 Z131.8209234439 A121.0017379702
G1 X73.6172021147 Y18.5271382170 Z132.1702237509 A120.2712786319
G1 X73.2050067480 Y19.2510944238 Z132.5195240580 A119.5408192936
G1 X72.7928113814 Y19.9750506307 Z132.8688243650 A118.8103599553
G1 X72.3806160147 Y20.6990068375 Z133.2181246720 A118.0799006170
G1 X72.0084408995 Y21.4427621979 Z133.5127941596 A117.3224138627
G1 X71.7206174958 Y22.2249917554 Z133.7325381498 A116.5407787225
G1 X71.4320694188 Y23.0067101309 Z133.9551566775 A115.7611712706
G1 X71.1435213418 Y23.7884285065 Z134.1777752051 A114.9815638186
G1 X70.8549732648 Y24.5701468820 Z134.4003937328 A114.2019563666
G1 X70.5664251878 Y25.3518652576 Z134.6230122604 A113.4223489146
G1 X70.2778771108 Y26.1335836331 Z134.8456307881 A112.6427414626
G1 X70.0258510847 Y26.9266322170 Z135.0183938176 A111.8476673771
G1 X69.8710190169 Y27.7484221656 Z135.0788611151 A111.0233530109
G1 X69.7052428511 Y28.5648457941 Z135.1827400008 A110.2203250477
G1 X69.5394666854 Y29.3812694226 Z135.2866188866 A109.4172970845
G1 X69.3736905196 Y30.1976930511 Z135.3904977723 A108.6142691213
G1 X69.2079143539 Y31.0141166796 Z135.4943766580 A107.8112411580
G1 X69.0421381881 Y31.8305403081 Z135.5982555437 A107.0082131948
G1 X68.9196251509 Y32.6532381140 Z135.6430768255 A106.1966204815
G1 X68.9048119065 Y33.4915549385 Z135.5408793423 A105.3637065683
G1 X68.8739761747 Y34.3250136000 Z135.5022377262 A104.5500633681
G1 X68.8394620887 Y35.1573569513 Z135.4781869147 A103.7408442318
G1 X68.8049480028 Y35.9897003026 Z135.4541361032 A102.9316250954
G1 X68.7704339168 Y36.8220436539 Z135.4300852917 A102.1224059591
G1 X68.7359198309 Y37.6543870053 Z135.4060344802 A101.3131868227
G1 X68.7270218098 Y38.4875573574 Z135.3470157071 A100.5028387646
G1 X68.7543213546 Y39.3218963286 Z135.2385843839 A99.6908954487
G1 X68.7811652545 Y40.1561719861 Z135.1319604520 A98.8792032770
G1 X68.7890607804 Y40.9878146938 Z135.1004984036 A98.0779551396
G1 X68.7969563063 Y41.8194574015 Z135.0690363552 A97.2767070023
G1 X68.8048518322 Y42.6511001091 Z135.0375743068 A96.4754588649
G1 X68.8127473581 Y43.4827428168 Z135.0061122584 A95.6742107276
G1 X68.8206428840 Y44.3143855245 Z134.9746502100 A94.8729625902
G1 X68.8285384099 Y45.1460282321 Z134.9431881616 A94.0717144528
G1 X68.8338125529 Y45.9775897760 Z134.9221242651 A93.2707882654
G1 X68.8337649084 Y46.8089865454 Z134.9221701260 A92.4705156831
G1 X68.8337172639 Y47.6403833148 Z134.9222159869 A91.6702431007
G1 X68.8336696194 Y48.4717800843 Z134.9222618478 A90.8699705183
G1 X68.8336219749 Y49.3031768537 Z134.9223077086 A90.0696979360
G1 X68.8335743304 Y50.1345736231 Z134.9223535695 A89.2694253536
G1 X68.8335266859 Y50.9659703926 Z134.9223994304 A88.4691527713
G1 X68.8334790413 Y51.7973671620 Z134.9224452913 A87.6688801889
G1 X68.8334313968 Y52.6287639315 Z134.9224911522 A86.8686076066
G1 X68.8333837523 Y53.4601607009 Z134.9225370131 A86.0683350242
G1 X68.8333361078 Y54.2915574703 Z134.9225828740 A85.2680624418
G1 X68.8332884633 Y55.1229542398 Z134.9226287349 A84.4677898595
G1 X68.8332408188 Y55.9543510092 Z134.9226745958 A83.6675172771
G1 X68.8331931743 Y56.7857477786 Z134.9227204567 A82.8672446948
G1 X68.8331455297 Y57.6171445481 Z134.9227663176 A82.0669721124
G1 X68.8330978852 Y58.4485413175 Z134.9228121785 A81.2666995301
G1 X68.8330502407 Y59.2799380869 Z134.9228580394 A80.4664269477
G1 X68.8330025962 Y60.1113348564 Z134.9229039003 A79.6661543654
G1 X68.8329549517 Y60.9427316258 Z134.9229497612 A78.8658817830
G1 X68.8329073072 Y61.7741283952 Z134.9229956221 A78.0656092006
G1 X68.8328596627 Y62.6055251647 Z134.9230414830 A77.2653366183
G1 X68.8328120181 Y63.4369219341 Z134.9230873438 A76.4650640359
G1 X68.8327643736 Y64.2683187036 Z134.9231332047 A75.6647914536
G1 X68.8327167291 Y65.0997154730 Z134.9231790656 A74.8645188712
G1 X68.8326690846 Y65.9311122424 Z134.9232249265 A74.0642462889
G1 X68.8326214401 Y66.7625090119 Z134.9232707874 A73.2639737065
G1 X68.8325737956 Y67.5939057813 Z134.9233166483 A72.4637011241
G1 X68.8325261511 Y68.4253025507 Z134.9233625092 A71.6634285418
G1 X68.8324785065 Y69.2566993202 Z134.9234083701 A70.8631559594
G1 X67.9354500816 Y69.1118208205 Z136.1479041853 A71.3955766016
G1 X67.0371847029 Y69.0702068401 Z137.2223445957 A71.3497204501
G1 X66.1602662752 Y69.0901128708 Z138.2121087667 A71.0598349211
G1 X65.2833478476 Y69.1100189014 Z139.2018729377 A70.7699493922
G1 X64.4064294200 Y69.1299249321 Z140.1916371087 A70.4800638632
G1 X63.5295109924 Y69.1498309628 Z141.1814012798 A70.1901783343
G1 X62.6525925648 Y69.1697369935 Z142.1711654508 A69.9002928054
G1 X61.7756741372 Y69.1896430242 Z143.1609296218 A69.6104072764
G1 X60.8987557096 Y69.2095490549 Z144.1506937929 A69.3205217475
G1 X60.0218372820 Y69.2294550856 Z145.1404579639 A69.0306362185
G1 X59.1449188543 Y69.2493611163 Z146.1302221349 A68.7407506896
G1 X58.2680004267 Y69.2692671470 Z147.1199863060 A68.4508651606
G1 X57.3910819991 Y69.2891731776 Z148.1097504770 A68.1609796317
G1 X56.5141635715 Y69.3090792083 Z149.0995146480 A67.8710941028
G1 X55.6372451439 Y69.3289852390 Z150.0892788190 A67.5812085738
G1 X54.7603267163 Y69.3488912697 Z151.0790429901 A67.2913230449
G1 X53.8836228011 Y69.3665532103 Z152.0679562618 A67.0103390732
G1 X53.0243922100 Y69.2014205479 Z152.9875586814 A67.4544403601
G1 X52.1651616189 Y69.0362878856 Z153.9071611010 A67.8985416470
G1 X51.3059310278 Y68.8711552232 Z154.8267635206 A68.3426429339
G1 X50.5544603131 Y68.9965816799 Z155.5992651565 A68.3901079629
G1 X49.9794280364 Y69.5977491902 Z156.1309143214 A67.7881486966
G1 X49.4043957597 Y70.1989167005 Z156.6625634863 A67.1861894303
G4 P1.0000
G1 X49.4043957597 Y68.1526034030 Z156.6625634863 A79.6001146934
G1 X48.4043957597 Y68.1526034030 Z155.6625634863 A79.6001146934
G4 P1.0000
G1 Y132.0000000000 A132.0000000000
G4 P2.0000
G0 Y130.0000000000 A130.0000000000
G0 X0.0000000000 Z0.0000000000
G0 Y0.0000000000 A0.0000000000
M5
M30